Tests/Test LUTs/identity/identity_DaVinciResolve1024_1D.cube
LUT_1D_SIZE 1024
LUT_1D_INPUT_RANGE 0.000000 1.000000

0.0000000000 0.0000000000 0.0000000000
0.0009775171 0.0009775171 0.0009775171
0.0019550342 0.0019550342 0.0019550342
0.0029325513 0.0029325513 0.0029325513
0.0039100684 0.0039100684 0.0039100684
0.0048875855 0.0048875855 0.0048875855
0.0058651026 0.0058651026 0.0058651026
0.0068426197 0.0068426197 0.0068426197
0.0078201369 0.0078201369 0.0078201369
0.0087976540 0.0087976540 0.0087976540
0.0097751711 0.0097751711 0.0097751711
0.0107526882 0.0107526882 0.0107526882
0.0117302053 0.0117302053 0.0117302053
0.0127077224 0.0127077224 0.0127077224
0.0136852395 0.0136852395 0.0136852395
0.0146627566 0.0146627566 0.0146627566
0.0156402737 0.0156402737 0.0156402737
0.0166177908 0.0166177908 0.0166177908
0.0175953079 0.0175953079 0.0175953079
0.0185728250 0.0185728250 0.0185728250
0.0195503421 0.0195503421 0.0195503421
0.0205278592 0.0205278592 0.0205278592
0.0215053763 0.0215053763 0.0215053763
0.0224828935 0.0224828935 0.0224828935
0.0234604106 0.0234604106 0.0234604106
0.0244379277 0.0244379277 0.0244379277
0.0254154448 0.0254154448 0.0254154448
0.0263929619 0.0263929619 0.0263929619
0.0273704790 0.0273704790 0.0273704790
0.0283479961 0.0283479961 0.0283479961
0.0293255132 0.0293255132 0.0293255132
0.0303030303 0.0303030303 0.0303030303
0.0312805474 0.0312805474 0.0312805474
0.0322580645 0.0322580645 0.0322580645
0.0332355816 0.0332355816 0.0332355816
0.0342130987 0.0342130987 0.0342130987
0.0351906158 0.0351906158 0.0351906158
0.0361681329 0.0361681329 0.0361681329
0.0371456500 0.0371456500 0.0371456500
0.0381231672 0.0381231672 0.0381231672
0.0391006843 0.0391006843 0.0391006843
0.0400782014 0.0400782014 0.0400782014
0.0410557185 0.0410557185 0.0410557185
0.0420332356 0.0420332356 0.0420332356
0.0430107527 0.0430107527 0.0430107527
0.0439882698 0.0439882698 0.0439882698
0.0449657869 0.0449657869 0.0449657869
0.0459433040 0.0459433040 0.0459433040
0.0469208211 0.0469208211 0.0469208211
0.0478983382 0.0478983382 0.0478983382
0.0488758553 0.0488758553 0.0488758553
0.0498533724 0.0498533724 0.0498533724
0.0508308895 0.0508308895 0.0508308895
0.0518084066 0.0518084066 0.0518084066
0.0527859238 0.0527859238 0.0527859238
0.0537634409 0.0537634409 0.0537634409
0.0547409580 0.0547409580 0.0547409580
0.0557184751 0.0557184751 0.0557184751
0.0566959922 0.0566959922 0.0566959922
0.0576735093 0.0576735093 0.0576735093
0.0586510264 0.0586510264 0.0586510264
0.0596285435 0.0596285435 0.0596285435
0.0606060606 0.0606060606 0.0606060606
0.0615835777 0.0615835777 0.0615835777
0.0625610948 0.0625610948 0.0625610948
0.0635386119 0.0635386119 0.0635386119
0.0645161290 0.0645161290 0.0645161290
0.0654936461 0.0654936461 0.0654936461
0.0664711632 0.0664711632 0.0664711632
0.0674486804 0.0674486804 0.0674486804
0.0684261975 0.0684261975 0.0684261975
0.0694037146 0.0694037146 0.0694037146
0.0703812317 0.0703812317 0.0703812317
0.0713587488 0.0713587488 0.0713587488
0.0723362659 0.0723362659 0.0723362659
0.0733137830 0.0733137830 0.0733137830
0.0742913001 0.0742913001 0.0742913001
0.0752688172 0.0752688172 0.0752688172
0.0762463343 0.0762463343 0.0762463343
0.0772238514 0.0772238514 0.0772238514
0.0782013685 0.0782013685 0.0782013685
0.0791788856 0.0791788856 0.0791788856
0.0801564027 0.0801564027 0.0801564027
0.0811339198 0.0811339198 0.0811339198
0.0821114370 0.0821114370 0.0821114370
0.0830889541 0.0830889541 0.0830889541
0.0840664712 0.0840664712 0.0840664712
0.0850439883 0.0850439883 0.0850439883
0.0860215054 0.0860215054 0.0860215054
0.0869990225 0.0869990225 0.0869990225
0.0879765396 0.0879765396 0.0879765396
0.0889540567 0.0889540567 0.0889540567
0.0899315738 0.0899315738 0.0899315738
0.0909090909 0.0909090909 0.0909090909
0.0918866080 0.0918866080 0.0918866080
0.0928641251 0.0928641251 0.0928641251
0.0938416422 0.0938416422 0.0938416422
0.0948191593 0.0948191593 0.0948191593
0.0957966764 0.0957966764 0.0957966764
0.0967741935 0.0967741935 0.0967741935
0.0977517107 0.0977517107 0.0977517107
0.0987292278 0.0987292278 0.0987292278
0.0997067449 0.0997067449 0.0997067449
0.1006842620 0.1006842620 0.1006842620
0.1016617791 0.1016617791 0.1016617791
0.1026392962 0.1026392962 0.1026392962
0.1036168133 0.1036168133 0.1036168133
0.1045943304 0.1045943304 0.1045943304
0.1055718475 0.1055718475 0.1055718475
0.1065493646 0.1065493646 0.1065493646
0.1075268817 0.1075268817 0.1075268817
0.1085043988 0.1085043988 0.1085043988
0.1094819159 0.1094819159 0.1094819159
0.1104594330 0.1104594330 0.1104594330
0.1114369501 0.1114369501 0.1114369501
0.1124144673 0.1124144673 0.1124144673
0.1133919844 0.1133919844 0.1133919844
0.1143695015 0.1143695015 0.1143695015
0.1153470186 0.1153470186 0.1153470186
0.1163245357 0.1163245357 0.1163245357
0.1173020528 0.1173020528 0.1173020528
0.1182795699 0.1182795699 0.1182795699
0.1192570870 0.1192570870 0.1192570870
0.1202346041 0.1202346041 0.1202346041
0.1212121212 0.1212121212 0.1212121212
0.1221896383 0.1221896383 0.1221896383
0.1231671554 0.1231671554 0.1231671554
0.1241446725 0.1241446725 0.1241446725
0.1251221896 0.1251221896 0.1251221896
0.1260997067 0.1260997067 0.1260997067
0.1270772239 0.1270772239 0.1270772239
0.1280547410 0.1280547410 0.1280547410
0.1290322581 0.1290322581 0.1290322581
0.1300097752 0.1300097752 0.1300097752
0.1309872923 0.1309872923 0.1309872923
0.1319648094 0.1319648094 0.1319648094
0.1329423265 0.1329423265 0.1329423265
0.1339198436 0.1339198436 0.1339198436
0.1348973607 0.1348973607 0.1348973607
0.1358748778 0.1358748778 0.1358748778
0.1368523949 0.1368523949 0.1368523949
0.1378299120 0.1378299120 0.1378299120
0.1388074291 0.1388074291 0.1388074291
0.1397849462 0.1397849462 0.1397849462
0.1407624633 0.1407624633 0.1407624633
0.1417399804 0.1417399804 0.1417399804
0.1427174976 0.1427174976 0.1427174976
0.1436950147 0.1436950147 0.1436950147
0.1446725318 0.1446725318 0.1446725318
0.1456500489 0.1456500489 0.1456500489
0.1466275660 0.1466275660 0.1466275660
0.1476050831 0.1476050831 0.1476050831
0.1485826002 0.1485826002 0.1485826002
0.1495601173 0.1495601173 0.1495601173
0.1505376344 0.1505376344 0.1505376344
0.1515151515 0.1515151515 0.1515151515
0.1524926686 0.1524926686 0.1524926686
0.1534701857 0.1534701857 0.1534701857
0.1544477028 0.1544477028 0.1544477028
0.1554252199 0.1554252199 0.1554252199
0.1564027370 0.1564027370 0.1564027370
0.1573802542 0.1573802542 0.1573802542
0.1583577713 0.1583577713 0.1583577713
0.1593352884 0.1593352884 0.1593352884
0.1603128055 0.1603128055 0.1603128055
0.1612903226 0.1612903226 0.1612903226
0.1622678397 0.1622678397 0.1622678397
0.1632453568 0.1632453568 0.1632453568
0.1642228739 0.1642228739 0.1642228739
0.1652003910 0.1652003910 0.1652003910
0.1661779081 0.1661779081 0.1661779081
0.1671554252 0.1671554252 0.1671554252
0.1681329423 0.1681329423 0.1681329423
0.1691104594 0.1691104594 0.1691104594
0.1700879765 0.1700879765 0.1700879765
0.1710654936 0.1710654936 0.1710654936
0.1720430108 0.1720430108 0.1720430108
0.1730205279 0.1730205279 0.1730205279
0.1739980450 0.1739980450 0.1739980450
0.1749755621 0.1749755621 0.1749755621
0.1759530792 0.1759530792 0.1759530792
0.1769305963 0.1769305963 0.1769305963
0.1779081134 0.1779081134 0.1779081134
0.1788856305 0.1788856305 0.1788856305
0.1798631476 0.1798631476 0.1798631476
0.1808406647 0.1808406647 0.1808406647
0.1818181818 0.1818181818 0.1818181818
0.1827956989 0.1827956989 0.1827956989
0.1837732160 0.1837732160 0.1837732160
0.1847507331 0.1847507331 0.1847507331
0.1857282502 0.1857282502 0.1857282502
0.1867057674 0.1867057674 0.1867057674
0.1876832845 0.1876832845 0.1876832845
0.1886608016 0.1886608016 0.1886608016
0.1896383187 0.1896383187 0.1896383187
0.1906158358 0.1906158358 0.1906158358
0.1915933529 0.1915933529 0.1915933529
0.1925708700 0.1925708700 0.1925708700
0.1935483871 0.1935483871 0.1935483871
0.1945259042 0.1945259042 0.1945259042
0.1955034213 0.1955034213 0.1955034213
0.1964809384 0.1964809384 0.1964809384
0.1974584555 0.1974584555 0.1974584555
0.1984359726 0.1984359726 0.1984359726
0.1994134897 0.1994134897 0.1994134897
0.2003910068 0.2003910068 0.2003910068
0.2013685239 0.2013685239 0.2013685239
0.2023460411 0.2023460411 0.2023460411
0.2033235582 0.2033235582 0.2033235582
0.2043010753 0.2043010753 0.2043010753
0.2052785924 0.2052785924 0.2052785924
0.2062561095 0.2062561095 0.2062561095
0.2072336266 0.2072336266 0.2072336266
0.2082111437 0.2082111437 0.2082111437
0.2091886608 0.2091886608 0.2091886608
0.2101661779 0.2101661779 0.2101661779
0.2111436950 0.2111436950 0.2111436950
0.2121212121 0.2121212121 0.2121212121
0.2130987292 0.2130987292 0.2130987292
0.2140762463 0.2140762463 0.2140762463
0.2150537634 0.2150537634 0.2150537634
0.2160312805 0.2160312805 0.2160312805
0.2170087977 0.2170087977 0.2170087977
0.2179863148 0.2179863148 0.2179863148
0.2189638319 0.2189638319 0.2189638319
0.2199413490 0.2199413490 0.2199413490
0.2209188661 0.2209188661 0.2209188661
0.2218963832 0.2218963832 0.2218963832
0.2228739003 0.2228739003 0.2228739003
0.2238514174 0.2238514174 0.2238514174
0.2248289345 0.2248289345 0.2248289345
0.2258064516 0.2258064516 0.2258064516
0.2267839687 0.2267839687 0.2267839687
0.2277614858 0.2277614858 0.2277614858
0.2287390029 0.2287390029 0.2287390029
0.2297165200 0.2297165200 0.2297165200
0.2306940371 0.2306940371 0.2306940371
0.2316715543 0.2316715543 0.2316715543
0.2326490714 0.2326490714 0.2326490714
0.2336265885 0.2336265885 0.2336265885
0.2346041056 0.2346041056 0.2346041056
0.2355816227 0.2355816227 0.2355816227
0.2365591398 0.2365591398 0.2365591398
0.2375366569 0.2375366569 0.2375366569
0.2385141740 0.2385141740 0.2385141740
0.2394916911 0.2394916911 0.2394916911
0.2404692082 0.2404692082 0.2404692082
0.2414467253 0.2414467253 0.2414467253
0.2424242424 0.2424242424 0.2424242424
0.2434017595 0.2434017595 0.2434017595
0.2443792766 0.2443792766 0.2443792766
0.2453567937 0.2453567937 0.2453567937
0.2463343109 0.2463343109 0.2463343109
0.2473118280 0.2473118280 0.2473118280
0.2482893451 0.2482893451 0.2482893451
0.2492668622 0.2492668622 0.2492668622
0.2502443793 0.2502443793 0.2502443793
0.2512218964 0.2512218964 0.2512218964
0.2521994135 0.2521994135 0.2521994135
0.2531769306 0.2531769306 0.2531769306
0.2541544477 0.2541544477 0.2541544477
0.2551319648 0.2551319648 0.2551319648
0.2561094819 0.2561094819 0.2561094819
0.2570869990 0.2570869990 0.2570869990
0.2580645161 0.2580645161 0.2580645161
0.2590420332 0.2590420332 0.2590420332
0.2600195503 0.2600195503 0.2600195503
0.2609970674 0.2609970674 0.2609970674
0.2619745846 0.2619745846 0.2619745846
0.2629521017 0.2629521017 0.2629521017
0.2639296188 0.2639296188 0.2639296188
0.2649071359 0.2649071359 0.2649071359
0.2658846530 0.2658846530 0.2658846530
0.2668621701 0.2668621701 0.2668621701
0.2678396872 0.2678396872 0.2678396872
0.2688172043 0.2688172043 0.2688172043
0.2697947214 0.2697947214 0.2697947214
0.2707722385 0.2707722385 0.2707722385
0.2717497556 0.2717497556 0.2717497556
0.2727272727 0.2727272727 0.2727272727
0.2737047898 0.2737047898 0.2737047898
0.2746823069 0.2746823069 0.2746823069
0.2756598240 0.2756598240 0.2756598240
0.2766373412 0.2766373412 0.2766373412
0.2776148583 0.2776148583 0.2776148583
0.2785923754 0.2785923754 0.2785923754
0.2795698925 0.2795698925 0.2795698925
0.2805474096 0.2805474096 0.2805474096
0.2815249267 0.2815249267 0.2815249267
0.2825024438 0.2825024438 0.2825024438
0.2834799609 0.2834799609 0.2834799609
0.2844574780 0.2844574780 0.2844574780
0.2854349951 0.2854349951 0.2854349951
0.2864125122 0.2864125122 0.2864125122
0.2873900293 0.2873900293 0.2873900293
0.2883675464 0.2883675464 0.2883675464
0.2893450635 0.2893450635 0.2893450635
0.2903225806 0.2903225806 0.2903225806
0.2913000978 0.2913000978 0.2913000978
0.2922776149 0.2922776149 0.2922776149
0.2932551320 0.2932551320 0.2932551320
0.2942326491 0.2942326491 0.2942326491
0.2952101662 0.2952101662 0.2952101662
0.2961876833 0.2961876833 0.2961876833
0.2971652004 0.2971652004 0.2971652004
0.2981427175 0.2981427175 0.2981427175
0.2991202346 0.2991202346 0.2991202346
0.3000977517 0.3000977517 0.3000977517
0.3010752688 0.3010752688 0.3010752688
0.3020527859 0.3020527859 0.3020527859
0.3030303030 0.3030303030 0.3030303030
0.3040078201 0.3040078201 0.3040078201
0.3049853372 0.3049853372 0.3049853372
0.3059628543 0.3059628543 0.3059628543
0.3069403715 0.3069403715 0.3069403715
0.3079178886 0.3079178886 0.3079178886
0.3088954057 0.3088954057 0.3088954057
0.3098729228 0.3098729228 0.3098729228
0.3108504399 0.3108504399 0.3108504399
0.3118279570 0.3118279570 0.3118279570
0.3128054741 0.3128054741 0.3128054741
0.3137829912 0.3137829912 0.3137829912
0.3147605083 0.3147605083 0.3147605083
0.3157380254 0.3157380254 0.3157380254
0.3167155425 0.3167155425 0.3167155425
0.3176930596 0.3176930596 0.3176930596
0.3186705767 0.3186705767 0.3186705767
0.3196480938 0.3196480938 0.3196480938
0.3206256109 0.3206256109 0.3206256109
0.3216031281 0.3216031281 0.3216031281
0.3225806452 0.3225806452 0.3225806452
0.3235581623 0.3235581623 0.3235581623
0.3245356794 0.3245356794 0.3245356794
0.3255131965 0.3255131965 0.3255131965
0.3264907136 0.3264907136 0.3264907136
0.3274682307 0.3274682307 0.3274682307
0.3284457478 0.3284457478 0.3284457478
0.3294232649 0.3294232649 0.3294232649
0.3304007820 0.3304007820 0.3304007820
0.3313782991 0.3313782991 0.3313782991
0.3323558162 0.3323558162 0.3323558162
0.3333333333 0.3333333333 0.3333333333
0.3343108504 0.3343108504 0.3343108504
0.3352883675 0.3352883675 0.3352883675
0.3362658847 0.3362658847 0.3362658847
0.3372434018 0.3372434018 0.3372434018
0.3382209189 0.3382209189 0.3382209189
0.3391984360 0.3391984360 0.3391984360
0.3401759531 0.3401759531 0.3401759531
0.3411534702 0.3411534702 0.3411534702
0.3421309873 0.3421309873 0.3421309873
0.3431085044 0.3431085044 0.3431085044
0.3440860215 0.3440860215 0.3440860215
0.3450635386 0.3450635386 0.3450635386
0.3460410557 0.3460410557 0.3460410557
0.3470185728 0.3470185728 0.3470185728
0.3479960899 0.3479960899 0.3479960899
0.3489736070 0.3489736070 0.3489736070
0.3499511241 0.3499511241 0.3499511241
0.3509286413 0.3509286413 0.3509286413
0.3519061584 0.3519061584 0.3519061584
0.3528836755 0.3528836755 0.3528836755
0.3538611926 0.3538611926 0.3538611926
0.3548387097 0.3548387097 0.3548387097
0.3558162268 0.3558162268 0.3558162268
0.3567937439 0.3567937439 0.3567937439
0.3577712610 0.3577712610 0.3577712610
0.3587487781 0.3587487781 0.3587487781
0.3597262952 0.3597262952 0.3597262952
0.3607038123 0.3607038123 0.3607038123
0.3616813294 0.3616813294 0.3616813294
0.3626588465 0.3626588465 0.3626588465
0.3636363636 0.3636363636 0.3636363636
0.3646138807 0.3646138807 0.3646138807
0.3655913978 0.3655913978 0.3655913978
0.3665689150 0.3665689150 0.3665689150
0.3675464321 0.3675464321 0.3675464321
0.3685239492 0.3685239492 0.3685239492
0.3695014663 0.3695014663 0.3695014663
0.3704789834 0.3704789834 0.3704789834
0.3714565005 0.3714565005 0.3714565005
0.3724340176 0.3724340176 0.3724340176
0.3734115347 0.3734115347 0.3734115347
0.3743890518 0.3743890518 0.3743890518
0.3753665689 0.3753665689 0.3753665689
0.3763440860 0.3763440860 0.3763440860
0.3773216031 0.3773216031 0.3773216031
0.3782991202 0.3782991202 0.3782991202
0.3792766373 0.3792766373 0.3792766373
0.3802541544 0.3802541544 0.3802541544
0.3812316716 0.3812316716 0.3812316716
0.3822091887 0.3822091887 0.3822091887
0.3831867058 0.3831867058 0.3831867058
0.3841642229 0.3841642229 0.3841642229
0.3851417400 0.3851417400 0.3851417400
0.3861192571 0.3861192571 0.3861192571
0.3870967742 0.3870967742 0.3870967742
0.3880742913 0.3880742913 0.3880742913
0.3890518084 0.3890518084 0.3890518084
0.3900293255 0.3900293255 0.3900293255
0.3910068426 0.3910068426 0.3910068426
0.3919843597 0.3919843597 0.3919843597
0.3929618768 0.3929618768 0.3929618768
0.3939393939 0.3939393939 0.3939393939
0.3949169110 0.3949169110 0.3949169110
0.3958944282 0.3958944282 0.3958944282
0.3968719453 0.3968719453 0.3968719453
0.3978494624 0.3978494624 0.3978494624
0.3988269795 0.3988269795 0.3988269795
0.3998044966 0.3998044966 0.3998044966
0.4007820137 0.4007820137 0.4007820137
0.4017595308 0.4017595308 0.4017595308
0.4027370479 0.4027370479 0.4027370479
0.4037145650 0.4037145650 0.4037145650
0.4046920821 0.4046920821 0.4046920821
0.4056695992 0.4056695992 0.4056695992
0.4066471163 0.4066471163 0.4066471163
0.4076246334 0.4076246334 0.4076246334
0.4086021505 0.4086021505 0.4086021505
0.4095796676 0.4095796676 0.4095796676
0.4105571848 0.4105571848 0.4105571848
0.4115347019 0.4115347019 0.4115347019
0.4125122190 0.4125122190 0.4125122190
0.4134897361 0.4134897361 0.4134897361
0.4144672532 0.4144672532 0.4144672532
0.4154447703 0.4154447703 0.4154447703
0.4164222874 0.4164222874 0.4164222874
0.4173998045 0.4173998045 0.4173998045
0.4183773216 0.4183773216 0.4183773216
0.4193548387 0.4193548387 0.4193548387
0.4203323558 0.4203323558 0.4203323558
0.4213098729 0.4213098729 0.4213098729
0.4222873900 0.4222873900 0.4222873900
0.4232649071 0.4232649071 0.4232649071
0.4242424242 0.4242424242 0.4242424242
0.4252199413 0.4252199413 0.4252199413
0.4261974585 0.4261974585 0.4261974585
0.4271749756 0.4271749756 0.4271749756
0.4281524927 0.4281524927 0.4281524927
0.4291300098 0.4291300098 0.4291300098
0.4301075269 0.4301075269 0.4301075269
0.4310850440 0.4310850440 0.4310850440
0.4320625611 0.4320625611 0.4320625611
0.4330400782 0.4330400782 0.4330400782
0.4340175953 0.4340175953 0.4340175953
0.4349951124 0.4349951124 0.4349951124
0.4359726295 0.4359726295 0.4359726295
0.4369501466 0.4369501466 0.4369501466
0.4379276637 0.4379276637 0.4379276637
0.4389051808 0.4389051808 0.4389051808
0.4398826979 0.4398826979 0.4398826979
0.4408602151 0.4408602151 0.4408602151
0.4418377322 0.4418377322 0.4418377322
0.4428152493 0.4428152493 0.4428152493
0.4437927664 0.4437927664 0.4437927664
0.4447702835 0.4447702835 0.4447702835
0.4457478006 0.4457478006 0.4457478006
0.4467253177 0.4467253177 0.4467253177
0.4477028348 0.4477028348 0.4477028348
0.4486803519 0.4486803519 0.4486803519
0.4496578690 0.4496578690 0.4496578690
0.4506353861 0.4506353861 0.4506353861
0.4516129032 0.4516129032 0.4516129032
0.4525904203 0.4525904203 0.4525904203
0.4535679374 0.4535679374 0.4535679374
0.4545454545 0.4545454545 0.4545454545
0.4555229717 0.4555229717 0.4555229717
0.4565004888 0.4565004888 0.4565004888
0.4574780059 0.4574780059 0.4574780059
0.4584555230 0.4584555230 0.4584555230
0.4594330401 0.4594330401 0.4594330401
0.4604105572 0.4604105572 0.4604105572
0.4613880743 0.4613880743 0.4613880743
0.4623655914 0.4623655914 0.4623655914
0.4633431085 0.4633431085 0.4633431085
0.4643206256 0.4643206256 0.4643206256
0.4652981427 0.4652981427 0.4652981427
0.4662756598 0.4662756598 0.4662756598
0.4672531769 0.4672531769 0.4672531769
0.4682306940 0.4682306940 0.4682306940
0.4692082111 0.4692082111 0.4692082111
0.4701857283 0.4701857283 0.4701857283
0.4711632454 0.4711632454 0.4711632454
0.4721407625 0.4721407625 0.4721407625
0.4731182796 0.4731182796 0.4731182796
0.4740957967 0.4740957967 0.4740957967
0.4750733138 0.4750733138 0.4750733138
0.4760508309 0.4760508309 0.4760508309
0.4770283480 0.4770283480 0.4770283480
0.4780058651 0.4780058651 0.4780058651
0.4789833822 0.4789833822 0.4789833822
0.4799608993 0.4799608993 0.4799608993
0.4809384164 0.4809384164 0.4809384164
0.4819159335 0.4819159335 0.4819159335
0.4828934506 0.4828934506 0.4828934506
0.4838709677 0.4838709677 0.4838709677
0.4848484848 0.4848484848 0.4848484848
0.4858260020 0.4858260020 0.4858260020
0.4868035191 0.4868035191 0.4868035191
0.4877810362 0.4877810362 0.4877810362
0.4887585533 0.4887585533 0.4887585533
0.4897360704 0.4897360704 0.4897360704
0.4907135875 0.4907135875 0.4907135875
0.4916911046 0.4916911046 0.4916911046
0.4926686217 0.4926686217 0.4926686217
0.4936461388 0.4936461388 0.4936461388
0.4946236559 0.4946236559 0.4946236559
0.4956011730 0.4956011730 0.4956011730
0.4965786901 0.4965786901 0.4965786901
0.4975562072 0.4975562072 0.4975562072
0.4985337243 0.4985337243 0.4985337243
0.4995112414 0.4995112414 0.4995112414
0.5004887586 0.5004887586 0.5004887586
0.5014662757 0.5014662757 0.5014662757
0.5024437928 0.5024437928 0.5024437928
0.5034213099 0.5034213099 0.5034213099
0.5043988270 0.5043988270 0.5043988270
0.5053763441 0.5053763441 0.5053763441
0.5063538612 0.5063538612 0.5063538612
0.5073313783 0.5073313783 0.5073313783
0.5083088954 0.5083088954 0.5083088954
0.5092864125 0.5092864125 0.5092864125
0.5102639296 0.5102639296 0.5102639296
0.5112414467 0.5112414467 0.5112414467
0.5122189638 0.5122189638 0.5122189638
0.5131964809 0.5131964809 0.5131964809
0.5141739980 0.5141739980 0.5141739980
0.5151515152 0.5151515152 0.5151515152
0.5161290323 0.5161290323 0.5161290323
0.5171065494 0.5171065494 0.5171065494
0.5180840665 0.5180840665 0.5180840665
0.5190615836 0.5190615836 0.5190615836
0.5200391007 0.5200391007 0.5200391007
0.5210166178 0.5210166178 0.5210166178
0.5219941349 0.5219941349 0.5219941349
0.5229716520 0.5229716520 0.5229716520
0.5239491691 0.5239491691 0.5239491691
0.5249266862 0.5249266862 0.5249266862
0.5259042033 0.5259042033 0.5259042033
0.5268817204 0.5268817204 0.5268817204
0.5278592375 0.5278592375 0.5278592375
0.5288367546 0.5288367546 0.5288367546
0.5298142717 0.5298142717 0.5298142717
0.5307917889 0.5307917889 0.5307917889
0.5317693060 0.5317693060 0.5317693060
0.5327468231 0.5327468231 0.5327468231
0.5337243402 0.5337243402 0.5337243402
0.5347018573 0.5347018573 0.5347018573
0.5356793744 0.5356793744 0.5356793744
0.5366568915 0.5366568915 0.5366568915
0.5376344086 0.5376344086 0.5376344086
0.5386119257 0.5386119257 0.5386119257
0.5395894428 0.5395894428 0.5395894428
0.5405669599 0.5405669599 0.5405669599
0.5415444770 0.5415444770 0.5415444770
0.5425219941 0.5425219941 0.5425219941
0.5434995112 0.5434995112 0.5434995112
0.5444770283 0.5444770283 0.5444770283
0.5454545455 0.5454545455 0.5454545455
0.5464320626 0.5464320626 0.5464320626
0.5474095797 0.5474095797 0.5474095797
0.5483870968 0.5483870968 0.5483870968
0.5493646139 0.5493646139 0.5493646139
0.5503421310 0.5503421310 0.5503421310
0.5513196481 0.5513196481 0.5513196481
0.5522971652 0.5522971652 0.5522971652
0.5532746823 0.5532746823 0.5532746823
0.5542521994 0.5542521994 0.5542521994
0.5552297165 0.5552297165 0.5552297165
0.5562072336 0.5562072336 0.5562072336
0.5571847507 0.5571847507 0.5571847507
0.5581622678 0.5581622678 0.5581622678
0.5591397849 0.5591397849 0.5591397849
0.5601173021 0.5601173021 0.5601173021
0.5610948192 0.5610948192 0.5610948192
0.5620723363 0.5620723363 0.5620723363
0.5630498534 0.5630498534 0.5630498534
0.5640273705 0.5640273705 0.5640273705
0.5650048876 0.5650048876 0.5650048876
0.5659824047 0.5659824047 0.5659824047
0.5669599218 0.5669599218 0.5669599218
0.5679374389 0.5679374389 0.5679374389
0.5689149560 0.5689149560 0.5689149560
0.5698924731 0.5698924731 0.5698924731
0.5708699902 0.5708699902 0.5708699902
0.5718475073 0.5718475073 0.5718475073
0.5728250244 0.5728250244 0.5728250244
0.5738025415 0.5738025415 0.5738025415
0.5747800587 0.5747800587 0.5747800587
0.5757575758 0.5757575758 0.5757575758
0.5767350929 0.5767350929 0.5767350929
0.5777126100 0.5777126100 0.5777126100
0.5786901271 0.5786901271 0.5786901271
0.5796676442 0.5796676442 0.5796676442
0.5806451613 0.5806451613 0.5806451613
0.5816226784 0.5816226784 0.5816226784
0.5826001955 0.5826001955 0.5826001955
0.5835777126 0.5835777126 0.5835777126
