Tests/Test LUTs/AlexaV3_K1S1_LogC2Video_Rec709_EE_33.cube
# Alexa conversion LUT, logc2video, itu709. Full in/full out.
# created by alexalutconv (2.09)
LUT_3D_SIZE 5
0.000000 0.000000 0.000000
0.203789 0.000000 0.002564
0.718365 0.000000 0.038821
1.000000 0.000000 0.102607
1.000000 0.000000 0.111052
0.000000 0.188065 0.000000
0.170958 0.185292 0.000000
0.712995 0.139607 0.009790
1.000000 0.000000 0.082504
1.000000 0.000000 0.092532
0.000000 0.675742 0.000000
0.000000 0.675249 0.000000
0.629367 0.668222 0.000000
1.000000 0.652968 0.000000
1.000000 0.650165 0.000000
0.000000 1.000000 0.000000
0.000000 1.000000 0.000000
0.351038 1.000000 0.000000
0.987010 1.000000 0.000000
1.000000 1.000000 0.000000
0.000000 1.000000 0.000000
0.000000 1.000000 0.000000
0.252544 1.000000 0.000000
0.969152 1.000000 0.000000
1.000000 1.000000 0.000000
0.000000 0.000000 0.173429
0.197446 0.000000 0.174388
0.717248 0.000000 0.187372
1.000000 0.000000 0.211924
1.000000 0.000000 0.216000
0.000000 0.166347 0.162128
0.163161 0.163161 0.163161
0.711866 0.108085 0.177061
1.000000 0.000000 0.203044
1.000000 0.000000 0.207326
0.000000 0.672090 0.000000
0.000000 0.671593 0.000000
0.628004 0.664508 0.000000
1.000000 0.649121 0.000000
1.000000 0.646292 0.000000
0.000000 1.000000 0.000000
0.000000 1.000000 0.000000
0.347887 1.000000 0.000000
0.986327 1.000000 0.000000
1.000000 1.000000 0.000000
0.000000 1.000000 0.000000
0.000000 1.000000 0.000000
0.247679 1.000000 0.000000
0.968449 1.000000 0.000000
1.000000 1.000000 0.000000
0.000000 0.000000 0.636066
0.051459 0.000000 0.636237
0.701170 0.000000 0.638666
1.000000 0.000000 0.643762
1.000000 0.000000 0.644673
0.000000 0.000000 0.634110
0.000000 0.000000 0.634283
0.695598 0.000000 0.636723
1.000000 0.000000 0.641842
1.000000 0.000000 0.642757
0.000000 0.616871 0.605434
0.000000 0.616305 0.605619
0.608232 0.608232 0.608232
1.000000 0.590593 0.613710
1.000000 0.587334 0.614688
0.000000 1.000000 0.536943
0.000000 1.000000 0.537164
0.298439 1.000000 0.540279
0.976594 1.000000 0.546789
1.000000 1.000000 0.547949
0.000000 1.000000 0.523178
0.000000 1.000000 0.523408
0.160022 1.000000 0.526643
0.958429 1.000000 0.533397
1.000000 1.000000 0.534599
0.000000 0.000000 0.997006
0.000000 0.000000 0.997092
0.665151 0.000000 0.998312
1.000000 0.000000 1.000000
1.000000 0.000000 1.000000
0.000000 0.000000 0.996027
0.000000 0.000000 0.996114
0.659112 0.000000 0.997336
1.000000 0.000000 0.999914
1.000000 0.000000 1.000000
0.000000 0.465924 0.982023
0.000000 0.465073 0.982111
0.562879 0.452783 0.983360
1.000000 0.425071 0.985997
1.000000 0.419805 0.986470
0.000000 0.968360 0.951292
0.000000 0.968077 0.951385
0.121448 0.964060 0.952698
0.955469 0.955469 0.955469
1.000000 0.953909 0.955966
0.000000 1.000000 0.945593
0.000000 1.000000 0.945687
0.000000 1.000000 0.947012
0.936655 1.000000 0.949809
1.000000 1.000000 0.950310
0.000000 0.000000 1.000000
0.000000 0.000000 1.000000
0.658348 0.000000 1.000000
1.000000 0.000000 1.000000
1.000000 0.000000 1.000000
0.000000 0.000000 1.000000
0.000000 0.000000 1.000000
0.652213 0.000000 1.000000
1.000000 0.000000 1.000000
1.000000 0.000000 1.000000
0.000000 0.430135 1.000000
0.000000 0.429181 1.000000
0.554123 0.415357 1.000000
1.000000 0.383748 1.000000
1.000000 0.377664 1.000000
0.000000 0.956991 1.000000
0.000000 0.956702 1.000000
0.040345 0.952610 1.000000
0.951587 0.943854 1.000000
1.000000 0.942264 1.000000
0.000000 1.000000 0.995647
0.000000 1.000000 0.995734
0.000000 1.000000 0.996956
0.932650 1.000000 0.999537
1.000000 1.000000 1.000000
