Tests/Test LUTs/AlexaV3_K1S1_LogC2Video_Rec709_EE_33.cube
# Alexa conversion LUT, logc2video, itu709. Full in/full out.
# created by alexalutconv (2.09)
LUT_3D_SIZE 33
0.000000 0.000000 0.000000
0.017707 0.000000 0.000128
0.037410 0.000000 0.000271
0.059807 0.000000 0.000434
0.082073 0.000000 0.000624
0.105797 0.000000 0.000876
0.133578 0.000000 0.001243
0.166031 0.000000 0.001779
0.203789 0.000000 0.002564
0.249876 0.000000 0.003781
0.307343 0.000000 0.005741
0.372585 0.000000 0.008631
0.441831 0.000000 0.012556
0.511584 0.000000 0.017495
0.581059 0.000000 0.023487
0.650091 0.000000 0.030590
0.718365 0.000000 0.038821
0.785564 0.000000 0.048171
0.851375 0.000000 0.058570
0.915483 0.000000 0.069086
0.975817 0.000000 0.078983
1.000000 0.000000 0.087166
1.000000 0.000000 0.093702
1.000000 0.000000 0.098784
1.000000 0.000000 0.102607
1.000000 0.000000 0.105363
1.000000 0.000000 0.107246
1.000000 0.000000 0.108450
1.000000 0.000000 0.109168
1.000000 0.000000 0.109594
1.000000 0.000000 0.109921
1.000000 0.000000 0.110343
1.000000 0.000000 0.111052
0.000000 0.015297 0.000000
0.012923 0.014895 0.000000
0.032626 0.014447 0.000000
0.055095 0.013936 0.000000
0.078350 0.013344 0.000000
0.102809 0.012556 0.000000
0.131193 0.011407 0.000000
0.164136 0.009728 0.000324
0.202288 0.007271 0.001109
0.248704 0.003461 0.002326
0.306444 0.000000 0.004287
0.371891 0.000000 0.007176
0.441284 0.000000 0.011101
0.511141 0.000000 0.016040
0.580691 0.000000 0.022033
0.649780 0.000000 0.029135
0.718097 0.000000 0.037366
0.785330 0.000000 0.046717
0.851169 0.000000 0.057142
0.915298 0.000000 0.067812
0.975651 0.000000 0.077831
1.000000 0.000000 0.086101
1.000000 0.000000 0.092700
1.000000 0.000000 0.097827
1.000000 0.000000 0.101681
1.000000 0.000000 0.104459
1.000000 0.000000 0.106356
1.000000 0.000000 0.107569
1.000000 0.000000 0.108293
1.000000 0.000000 0.108722
1.000000 0.000000 0.109051
1.000000 0.000000 0.109476
1.000000 0.000000 0.110191
0.000000 0.032318 0.000000
0.007600 0.031916 0.000000
0.027303 0.031469 0.000000
0.049772 0.030958 0.000000
0.074041 0.030365 0.000000
0.099391 0.029577 0.000000
0.128487 0.028429 0.000000
0.161997 0.026750 0.000000
0.200602 0.024293 0.000000
0.247392 0.020483 0.000707
0.305439 0.014346 0.002667
0.371116 0.005301 0.005557
0.440674 0.000000 0.009482
0.510646 0.000000 0.014421
0.580281 0.000000 0.020414
0.649434 0.000000 0.027516
0.717799 0.000000 0.035748
0.785071 0.000000 0.045098
0.850940 0.000000 0.055528
0.915093 0.000000 0.066373
0.975465 0.000000 0.076534
1.000000 0.000000 0.084904
1.000000 0.000000 0.091573
1.000000 0.000000 0.096752
1.000000 0.000000 0.100642
1.000000 0.000000 0.103445
1.000000 0.000000 0.105359
1.000000 0.000000 0.106582
1.000000 0.000000 0.107311
1.000000 0.000000 0.107744
1.000000 0.000000 0.108076
1.000000 0.000000 0.108504
1.000000 0.000000 0.109225
0.000000 0.051730 0.000000
0.001529 0.051327 0.000000
0.021232 0.050880 0.000000
0.043702 0.050369 0.000000
0.068886 0.049776 0.000000
0.095363 0.048988 0.000000
0.125332 0.047840 0.000000
0.159522 0.046161 0.000000
0.198659 0.043704 0.000000
0.245885 0.039894 0.000000
0.304289 0.033757 0.000821
0.370231 0.024712 0.003711
0.439977 0.012426 0.007636
0.510082 0.000000 0.012575
0.579813 0.000000 0.018567
0.649038 0.000000 0.025670
0.717459 0.000000 0.033902
0.784774 0.000000 0.043252
0.850677 0.000000 0.053681
0.914860 0.000000 0.064705
0.975254 0.000000 0.075033
1.000000 0.000000 0.083522
1.000000 0.000000 0.090276
1.000000 0.000000 0.095513
1.000000 0.000000 0.099445
1.000000 0.000000 0.102277
1.000000 0.000000 0.104210
1.000000 0.000000 0.105446
1.000000 0.000000 0.106182
1.000000 0.000000 0.106618
1.000000 0.000000 0.106954
1.000000 0.000000 0.107386
1.000000 0.000000 0.108114
0.000000 0.072712 0.000000
0.000000 0.072375 0.000000
0.014180 0.071997 0.000000
0.036649 0.071565 0.000000
0.062527 0.071061 0.000000
0.090494 0.070386 0.000000
0.121566 0.069395 0.000000
0.156594 0.067928 0.000000
0.196375 0.065738 0.000000
0.244119 0.062239 0.000000
0.302945 0.056308 0.000000
0.369198 0.047263 0.001566
0.439165 0.034977 0.005491
0.509425 0.019517 0.010430
0.579269 0.000757 0.016423
0.648578 0.000000 0.023525
0.717064 0.000000 0.031756
0.784429 0.000000 0.041107
0.850373 0.000000 0.051537
0.914587 0.000000 0.062730
0.975008 0.000000 0.073260
1.000000 0.000000 0.081892
1.000000 0.000000 0.088747
1.000000 0.000000 0.094057
1.000000 0.000000 0.098040
1.000000 0.000000 0.100906
1.000000 0.000000 0.102862
1.000000 0.000000 0.104111
1.000000 0.000000 0.104856
1.000000 0.000000 0.105298
1.000000 0.000000 0.105637
1.000000 0.000000 0.106074
1.000000 0.000000 0.106809
0.000000 0.095196 0.000000
0.000000 0.094924 0.000000
0.004804 0.094619 0.000000
0.027273 0.094272 0.000000
0.053377 0.093867 0.000000
0.083662 0.093326 0.000000
0.116380 0.092533 0.000000
0.152609 0.091363 0.000000
0.193289 0.089628 0.000000
0.241747 0.086882 0.000000
0.301146 0.082304 0.000000
0.367819 0.075163 0.000000
0.438083 0.064559 0.002639
0.508550 0.049494 0.007578
0.578544 0.030735 0.013571
0.647966 0.008503 0.020674
0.716537 0.000000 0.028905
0.783970 0.000000 0.038256
0.849968 0.000000 0.048685
0.914226 0.000000 0.060037
0.974681 0.000000 0.070854
1.000000 0.000000 0.079686
1.000000 0.000000 0.086682
1.000000 0.000000 0.092091
1.000000 0.000000 0.096143
1.000000 0.000000 0.099057
1.000000 0.000000 0.101045
1.000000 0.000000 0.102314
1.000000 0.000000 0.103070
1.000000 0.000000 0.103519
1.000000 0.000000 0.103863
1.000000 0.000000 0.104306
1.000000 0.000000 0.105054
0.000000 0.121525 0.000000
0.000000 0.121307 0.000000
0.000000 0.121064 0.000000
0.013616 0.120786 0.000000
0.039720 0.120462 0.000000
0.072829 0.120030 0.000000
0.108411 0.119398 0.000000
0.146599 0.118470 0.000000
0.188690 0.117098 0.000000
0.238240 0.114939 0.000000
0.298501 0.111380 0.000000
0.365798 0.105937 0.000000
0.436499 0.098111 0.000000
0.507272 0.087422 0.003425
0.577487 0.072816 0.009418
0.647072 0.052171 0.016521
0.715770 0.026405 0.024752
0.783302 0.000000 0.034102
0.849378 0.000000 0.044532
0.913698 0.000000 0.055965
0.974203 0.000000 0.067237
1.000000 0.000000 0.076384
1.000000 0.000000 0.083600
1.000000 0.000000 0.089162
1.000000 0.000000 0.093322
1.000000 0.000000 0.096309
1.000000 0.000000 0.098345
1.000000 0.000000 0.099644
1.000000 0.000000 0.100418
1.000000 0.000000 0.100877
1.000000 0.000000 0.101229
1.000000 0.000000 0.101683
1.000000 0.000000 0.102447
0.000000 0.152281 0.000000
0.000000 0.152107 0.000000
0.000000 0.151913 0.000000
0.000000 0.151692 0.000000
0.019751 0.151434 0.000000
0.054450 0.151092 0.000000
0.095697 0.150591 0.000000
0.137321 0.149855 0.000000
0.181726 0.148772 0.000000
0.232996 0.147075 0.000000
0.294577 0.144299 0.000000
0.362814 0.140104 0.000000
0.434168 0.134191 0.000000
0.505395 0.126360 0.000000
0.575934 0.116170 0.003345
0.645762 0.102888 0.010447
0.714645 0.085290 0.018678
0.782322 0.060865 0.028029
0.848513 0.028341 0.038458
0.912927 0.000000 0.049892
0.973506 0.000000 0.061689
1.000000 0.000000 0.071352
1.000000 0.000000 0.078921
1.000000 0.000000 0.084731
1.000000 0.000000 0.089061
1.000000 0.000000 0.092165
1.000000 0.000000 0.094277
1.000000 0.000000 0.095624
1.000000 0.000000 0.096426
1.000000 0.000000 0.096901
1.000000 0.000000 0.097265
1.000000 0.000000 0.097736
1.000000 0.000000 0.098527
0.000000 0.188065 0.000000
0.000000 0.187928 0.000000
0.000000 0.187774 0.000000
0.000000 0.187598 0.000000
0.000000 0.187395 0.000000
0.025224 0.187123 0.000000
0.073956 0.186727 0.000000
0.122475 0.186146 0.000000
0.170958 0.185292 0.000000
0.225050 0.183958 0.000000
0.288708 0.181787 0.000000
0.358387 0.178533 0.000000
0.430726 0.174004 0.000000
0.502628 0.168112 0.000000
0.573651 0.160646 0.000000
0.643838 0.151283 0.001559
0.712995 0.139607 0.009790
0.780885 0.125008 0.019141
0.847246 0.106479 0.029570
0.911796 0.082087 0.041004
0.972482 0.048546 0.052969
1.000000 0.014704 0.063481
1.000000 0.000000 0.071661
1.000000 0.000000 0.077888
1.000000 0.000000 0.082504
1.000000 0.000000 0.085802
1.000000 0.000000 0.088040
1.000000 0.000000 0.089465
1.000000 0.000000 0.090313
1.000000 0.000000 0.090815
1.000000 0.000000 0.091200
1.000000 0.000000 0.091697
1.000000 0.000000 0.092532
0.000000 0.231744 0.000000
0.000000 0.231636 0.000000
0.000000 0.231516 0.000000
0.000000 0.231379 0.000000
0.000000 0.231219 0.000000
0.000000 0.231008 0.000000
0.030456 0.230699 0.000000
0.095271 0.230246 0.000000
0.152611 0.229580 0.000000
0.212014 0.228545 0.000000
0.279292 0.226865 0.000000
0.351370 0.224360 0.000000
0.425310 0.220905 0.000000
0.498294 0.216461 0.000000
0.570084 0.210918 0.000000
0.640837 0.204119 0.000000
0.710425 0.195892 0.000000
0.778649 0.186035 0.005359
0.845274 0.174291 0.015788
0.910037 0.160317 0.027222
0.970893 0.144135 0.039187
1.000000 0.127705 0.049999
1.000000 0.111785 0.059202
1.000000 0.096972 0.066260
1.000000 0.083855 0.071435
1.000000 0.072945 0.075104
1.000000 0.064563 0.077583
1.000000 0.058706 0.079157
1.000000 0.055002 0.080092
1.000000 0.052774 0.080645
1.000000 0.051058 0.081069
1.000000 0.048838 0.081615
1.000000 0.045083 0.082531
0.000000 0.286206 0.000000
0.000000 0.286123 0.000000
0.000000 0.286031 0.000000
0.000000 0.285926 0.000000
0.000000 0.285804 0.000000
0.000000 0.285641 0.000000
0.000000 0.285404 0.000000
0.031374 0.285057 0.000000
0.116900 0.284548 0.000000
0.188767 0.283757 0.000000
0.263209 0.282477 0.000000
0.339655 0.280577 0.000000
0.416376 0.277967 0.000000
0.491197 0.274640 0.000000
0.564269 0.270532 0.000000
0.635959 0.265558 0.000000
0.706254 0.259643 0.000000
0.775026 0.252711 0.000000
0.842084 0.244689 0.000000
0.907195 0.235503 0.005023
0.968324 0.225397 0.016988
1.000000 0.215771 0.027800
1.000000 0.207106 0.037052
1.000000 0.199673 0.044636
1.000000 0.193627 0.050568
1.000000 0.188997 0.054969
1.000000 0.185692 0.058018
1.000000 0.183515 0.059944
1.000000 0.182192 0.061083
1.000000 0.181399 0.061755
1.000000 0.180785 0.062270
1.000000 0.179988 0.062931
1.000000 0.178629 0.064038
0.000000 0.348038 0.000000
0.000000 0.347974 0.000000
0.000000 0.347902 0.000000
0.000000 0.347821 0.000000
0.000000 0.347727 0.000000
0.000000 0.347602 0.000000
0.000000 0.347419 0.000000
0.000000 0.347151 0.000000
0.031972 0.346758 0.000000
0.146968 0.346149 0.000000
0.236962 0.345165 0.000000
0.321330 0.343707 0.000000
0.402700 0.341713 0.000000
0.480460 0.339182 0.000000
0.555534 0.336076 0.000000
0.628665 0.332345 0.000000
0.700038 0.327949 0.000000
0.769639 0.322858 0.000000
0.837347 0.317052 0.000000
0.902979 0.310520 0.000000
0.964520 0.303486 0.000000
1.000000 0.296942 0.000000
1.000000 0.291188 0.004336
1.000000 0.286360 0.011919
1.000000 0.282509 0.017852
1.000000 0.279608 0.022252
1.000000 0.277563 0.025320
1.000000 0.276229 0.027305
1.000000 0.275422 0.028500
1.000000 0.274940 0.029212
1.000000 0.274568 0.029760
1.000000 0.274086 0.030469
1.000000 0.273267 0.031669
0.000000 0.413664 0.000000
0.000000 0.413614 0.000000
0.000000 0.413558 0.000000
0.000000 0.413493 0.000000
0.000000 0.413419 0.000000
0.000000 0.413320 0.000000
0.000000 0.413176 0.000000
0.000000 0.412965 0.000000
0.000000 0.412657 0.000000
0.053571 0.412176 0.000000
0.194291 0.411402 0.000000
0.293966 0.410258 0.000000
0.383018 0.408695 0.000000
0.465299 0.406717 0.000000
0.543335 0.404299 0.000000
0.618551 0.401407 0.000000
0.691458 0.398019 0.000000
0.762228 0.394120 0.000000
0.830847 0.389709 0.000000
0.897202 0.384791 0.000000
0.959313 0.379550 0.000000
1.000000 0.374727 0.000000
1.000000 0.370532 0.000000
1.000000 0.367044 0.000000
1.000000 0.364284 0.000000
1.000000 0.362218 0.000000
1.000000 0.360769 0.000000
1.000000 0.359825 0.000000
1.000000 0.359256 0.000000
1.000000 0.358917 0.000000
1.000000 0.358655 0.000000
1.000000 0.358316 0.000000
1.000000 0.357742 0.000000
0.000000 0.479771 0.000000
0.000000 0.479729 0.000000
0.000000 0.479684 0.000000
0.000000 0.479632 0.000000
0.000000 0.479572 0.000000
0.000000 0.479491 0.000000
0.000000 0.479375 0.000000
0.000000 0.479204 0.000000
0.000000 0.478953 0.000000
0.000000 0.478565 0.000000
0.117069 0.477939 0.000000
0.253981 0.477013 0.000000
0.356080 0.475752 0.000000
0.445157 0.474158 0.000000
0.527391 0.472214 0.000000
0.605462 0.469894 0.000000
0.680428 0.467185 0.000000
0.752742 0.464080 0.000000
0.822553 0.460583 0.000000
0.889850 0.456703 0.000000
0.952696 0.452593 0.000000
1.000000 0.448833 0.000000
1.000000 0.445579 0.000000
1.000000 0.442887 0.000000
1.000000 0.440765 0.000000
1.000000 0.439181 0.000000
1.000000 0.438072 0.000000
1.000000 0.437353 0.000000
1.000000 0.436919 0.000000
1.000000 0.436660 0.000000
1.000000 0.436460 0.000000
1.000000 0.436203 0.000000
1.000000 0.435765 0.000000
0.000000 0.545614 0.000000
0.000000 0.545580 0.000000
0.000000 0.545542 0.000000
0.000000 0.545499 0.000000
0.000000 0.545450 0.000000
0.000000 0.545383 0.000000
0.000000 0.545286 0.000000
0.000000 0.545144 0.000000
0.000000 0.544936 0.000000
0.000000 0.544615 0.000000
0.000000 0.544095 0.000000
0.191345 0.543329 0.000000
0.319149 0.542284 0.000000
0.418837 0.540966 0.000000
0.507049 0.539361 0.000000
0.588993 0.537449 0.000000
0.666671 0.535221 0.000000
0.740980 0.532673 0.000000
0.812313 0.529810 0.000000
0.880800 0.526646 0.000000
0.944571 0.523304 0.000000
0.996896 0.520258 0.000000
1.000000 0.517630 0.000000
1.000000 0.515461 0.000000
1.000000 0.513755 0.000000
1.000000 0.512485 0.000000
1.000000 0.511596 0.000000
1.000000 0.511020 0.000000
1.000000 0.510673 0.000000
1.000000 0.510466 0.000000
1.000000 0.510307 0.000000
1.000000 0.510100 0.000000
1.000000 0.509750 0.000000
0.000000 0.611038 0.000000
0.000000 0.611009 0.000000
0.000000 0.610977 0.000000
0.000000 0.610940 0.000000
0.000000 0.610898 0.000000
0.000000 0.610842 0.000000
0.000000 0.610760 0.000000
0.000000 0.610640 0.000000
0.000000 0.610464 0.000000
0.000000 0.610192 0.000000
0.000000 0.609753 0.000000
0.050461 0.609105 0.000000
0.266364 0.608223 0.000000
0.384294 0.607111 0.000000
0.481298 0.605757 0.000000
0.568546 0.604148 0.000000
0.649791 0.602274 0.000000
0.726661 0.600135 0.000000
0.799915 0.597735 0.000000
0.869884 0.595088 0.000000
0.934798 0.592299 0.000000
0.987925 0.589762 0.000000
1.000000 0.587578 0.000000
1.000000 0.585778 0.000000
1.000000 0.584365 0.000000
1.000000 0.583314 0.000000
1.000000 0.582579 0.000000
1.000000 0.582103 0.000000
1.000000 0.581816 0.000000
1.000000 0.581645 0.000000
1.000000 0.581513 0.000000
1.000000 0.581342 0.000000
1.000000 0.581054 0.000000
0.000000 0.675742 0.000000
0.000000 0.675717 0.000000
0.000000 0.675690 0.000000
0.000000 0.675658 0.000000
0.000000 0.675622 0.000000
0.000000 0.675573 0.000000
0.000000 0.675503 0.000000
0.000000 0.675400 0.000000
0.000000 0.675249 0.000000
0.000000 0.675015 0.000000
0.000000 0.674638 0.000000
0.000000 0.674081 0.000000
0.180935 0.673324 0.000000
0.337985 0.672369 0.000000
0.448735 0.671208 0.000000
0.543405 0.669828 0.000000
0.629367 0.668222 0.000000
0.709511 0.666392 0.000000
0.785164 0.664342 0.000000
0.856961 0.662083 0.000000
0.923267 0.659707 0.000000
0.977363 0.657548 0.000000
1.000000 0.655693 0.000000
1.000000 0.654166 0.000000
1.000000 0.652968 0.000000
1.000000 0.652077 0.000000
1.000000 0.651455 0.000000
1.000000 0.651052 0.000000
1.000000 0.650809 0.000000
1.000000 0.650664 0.000000
1.000000 0.650553 0.000000
1.000000 0.650408 0.000000
1.000000 0.650165 0.000000
0.000000 0.739428 0.000000
0.000000 0.739407 0.000000
0.000000 0.739383 0.000000
0.000000 0.739355 0.000000
0.000000 0.739324 0.000000
0.000000 0.739282 0.000000
0.000000 0.739220 0.000000
0.000000 0.739130 0.000000
0.000000 0.738998 0.000000
0.000000 0.738795 0.000000
0.000000 0.738466 0.000000
0.000000 0.737980 0.000000
0.000000 0.737320 0.000000
0.272148 0.736489 0.000000
0.407127 0.735477 0.000000
0.512606 0.734275 0.000000
0.604894 0.732880 0.000000
0.689232 0.731289 0.000000
0.767875 0.729509 0.000000
0.841905 0.727550 0.000000
0.909889 0.725490 0.000000
0.965145 0.723622 0.000000
1.000000 0.722017 0.000000
1.000000 0.720698 0.000000
1.000000 0.719663 0.000000
1.000000 0.718894 0.000000
1.000000 0.718358 0.000000
1.000000 0.718010 0.000000
1.000000 0.717801 0.000000
1.000000 0.717675 0.000000
1.000000 0.717579 0.000000
1.000000 0.717455 0.000000
1.000000 0.717244 0.000000
0.000000 0.801799 0.000000
0.000000 0.801780 0.000000
0.000000 0.801759 0.000000
0.000000 0.801735 0.000000
0.000000 0.801707 0.000000
0.000000 0.801669 0.000000
0.000000 0.801615 0.000000
0.000000 0.801536 0.000000
0.000000 0.801420 0.000000
0.000000 0.801239 0.000000
0.000000 0.800949 0.000000
0.000000 0.800520 0.000000
0.000000 0.799938 0.000000
0.159552 0.799204 0.000000
0.352354 0.798311 0.000000
0.474742 0.797252 0.000000
0.575735 0.796022 0.000000
0.665493 0.794621 0.000000
0.747860 0.793054 0.000000
0.824604 0.791330 0.000000
0.894597 0.789520 0.000000
0.951224 0.787878 0.000000
0.995808 0.786470 0.000000
1.000000 0.785312 0.000000
1.000000 0.784405 0.000000
1.000000 0.783731 0.000000
1.000000 0.783260 0.000000
1.000000 0.782956 0.000000
1.000000 0.782772 0.000000
1.000000 0.782663 0.000000
1.000000 0.782579 0.000000
1.000000 0.782470 0.000000
1.000000 0.782285 0.000000
0.000000 0.862555 0.000000
0.000000 0.862539 0.000000
0.000000 0.862519 0.000000
0.000000 0.862498 0.000000
0.000000 0.862473 0.000000
0.000000 0.862440 0.000000
0.000000 0.862391 0.000000
0.000000 0.862320 0.000000
0.000000 0.862216 0.000000
0.000000 0.862055 0.000000
0.000000 0.861796 0.000000
0.000000 0.861413 0.000000
0.000000 0.860893 0.000000
0.000000 0.860238 0.000000
0.274730 0.859441 0.000000
0.427524 0.858496 0.000000
0.541035 0.857399 0.000000
0.637911 0.856150 0.000000
0.724932 0.854753 0.000000
0.804970 0.853218 0.000000
0.877350 0.851607 0.000000
0.935587 0.850147 0.000000
0.981275 0.848895 0.000000
1.000000 0.847866 0.000000
1.000000 0.847061 0.000000
1.000000 0.846461 0.000000
1.000000 0.846044 0.000000
1.000000 0.845774 0.000000
1.000000 0.845610 0.000000
1.000000 0.845513 0.000000
1.000000 0.845439 0.000000
1.000000 0.845342 0.000000
1.000000 0.845178 0.000000
0.000000 0.919736 0.000000
0.000000 0.919721 0.000000
0.000000 0.919704 0.000000
0.000000 0.919684 0.000000
0.000000 0.919662 0.000000
0.000000 0.919632 0.000000
0.000000 0.919588 0.000000
0.000000 0.919524 0.000000
0.000000 0.919430 0.000000
0.000000 0.919284 0.000000
0.000000 0.919049 0.000000
0.000000 0.918703 0.000000
0.000000 0.918232 0.000000
0.000000 0.917639 0.000000
0.139590 0.916920 0.000000
0.368648 0.916065 0.000000
0.500846 0.915073 0.000000
0.606992 0.913945 0.000000
0.699694 0.912683 0.000000
0.783600 0.911297 0.000000
0.858719 0.909843 0.000000
0.918773 0.908526 0.000000
0.965696 0.907397 0.000000
1.000000 0.906469 0.000000
1.000000 0.905742 0.000000
1.000000 0.905203 0.000000
1.000000 0.904827 0.000000
1.000000 0.904583 0.000000
1.000000 0.904436 0.000000
1.000000 0.904349 0.000000
1.000000 0.904281 0.000000
1.000000 0.904194 0.000000
1.000000 0.904047 0.000000
0.000000 0.967011 0.000000
0.000000 0.966997 0.000000
0.000000 0.966981 0.000000
0.000000 0.966963 0.000000
0.000000 0.966942 0.000000
0.000000 0.966914 0.000000
0.000000 0.966873 0.000000
0.000000 0.966814 0.000000
0.000000 0.966727 0.000000
0.000000 0.966592 0.000000
0.000000 0.966376 0.000000
0.000000 0.966055 0.000000
0.000000 0.965621 0.000000
0.000000 0.965072 0.000000
0.000000 0.964407 0.000000
0.301393 0.963618 0.000000
0.460033 0.962701 0.000000
0.576889 0.961659 0.000000
0.675641 0.960494 0.000000
0.763493 0.959215 0.000000
0.841329 0.957872 0.000000
0.903156 0.956657 0.000000
0.951272 0.955616 0.000000
0.988044 0.954760 0.000000
1.000000 0.954090 0.000000
1.000000 0.953593 0.000000
1.000000 0.953246 0.000000
1.000000 0.953022 0.000000
1.000000 0.952887 0.000000
1.000000 0.952806 0.000000
1.000000 0.952743 0.000000
1.000000 0.952664 0.000000
1.000000 0.952528 0.000000
0.000000 1.000000 0.000000
0.000000 1.000000 0.000000
0.000000 1.000000 0.000000
0.000000 1.000000 0.000000
0.000000 1.000000 0.000000
0.000000 1.000000 0.000000
0.000000 1.000000 0.000000
0.000000 1.000000 0.000000
0.000000 1.000000 0.000000
0.000000 1.000000 0.000000
0.000000 1.000000 0.000000
0.000000 1.000000 0.000000
0.000000 1.000000 0.000000
0.000000 1.000000 0.000000
0.000000 1.000000 0.000000
0.222198 1.000000 0.000000
0.420476 1.000000 0.000000
0.549148 0.999734 0.000000
0.653979 0.998638 0.000000
0.745616 0.997434 0.000000
0.825992 0.996172 0.000000
0.889449 0.995029 0.000000
0.938651 0.994051 0.000000
0.976162 0.993246 0.000000
1.000000 0.992617 0.000000
1.000000 0.992149 0.000000
1.000000 0.991824 0.000000
1.000000 0.991612 0.000000
1.000000 0.991485 0.000000
1.000000 0.991410 0.000000
1.000000 0.991351 0.000000
1.000000 0.991276 0.000000
1.000000 0.991148 0.000000
0.000000 1.000000 0.000000
0.000000 1.000000 0.000000
0.000000 1.000000 0.000000
0.000000 1.000000 0.000000
0.000000 1.000000 0.000000
0.000000 1.000000 0.000000
0.000000 1.000000 0.000000
0.000000 1.000000 0.000000
0.000000 1.000000 0.000000
0.000000 1.000000 0.000000
0.000000 1.000000 0.000000
0.000000 1.000000 0.000000
0.000000 1.000000 0.000000
0.000000 1.000000 0.000000
0.000000 1.000000 0.000000
0.113187 1.000000 0.000000
0.383656 1.000000 0.000000
0.524773 1.000000 0.000000
0.635384 1.000000 0.000000
0.730460 1.000000 0.000000
0.813086 1.000000 0.000000
0.877965 1.000000 0.000000
0.928104 1.000000 0.000000
0.966251 1.000000 0.000000
0.994523 1.000000 0.000000
1.000000 1.000000 0.000000
1.000000 1.000000 0.000000
1.000000 1.000000 0.000000
1.000000 1.000000 0.000000
1.000000 1.000000 0.000000
1.000000 1.000000 0.000000
1.000000 1.000000 0.000000
1.000000 1.000000 0.000000
0.000000 1.000000 0.000000
0.000000 1.000000 0.000000
0.000000 1.000000 0.000000
0.000000 1.000000 0.000000
0.000000 1.000000 0.000000
0.000000 1.000000 0.000000
0.000000 1.000000 0.000000
0.000000 1.000000 0.000000
0.000000 1.000000 0.000000
0.000000 1.000000 0.000000
0.000000 1.000000 0.000000
0.000000 1.000000 0.000000
0.000000 1.000000 0.000000
0.000000 1.000000 0.000000
0.000000 1.000000 0.000000
0.000000 1.000000 0.000000
0.351038 1.000000 0.000000
0.504490 1.000000 0.000000
0.620250 1.000000 0.000000
0.718262 1.000000 0.000000
0.802766 1.000000 0.000000
0.868816 1.000000 0.000000
0.919722 1.000000 0.000000
0.958387 1.000000 0.000000
0.987010 1.000000 0.000000
1.000000 1.000000 0.000000
1.000000 1.000000 0.000000
1.000000 1.000000 0.000000
1.000000 1.000000 0.000000
1.000000 1.000000 0.000000
1.000000 1.000000 0.000000
1.000000 1.000000 0.000000
1.000000 1.000000 0.000000
0.000000 1.000000 0.000000
0.000000 1.000000 0.000000
0.000000 1.000000 0.000000
0.000000 1.000000 0.000000
0.000000 1.000000 0.000000
0.000000 1.000000 0.000000
0.000000 1.000000 0.000000
0.000000 1.000000 0.000000
0.000000 1.000000 0.000000
0.000000 1.000000 0.000000
0.000000 1.000000 0.000000
0.000000 1.000000 0.000000
0.000000 1.000000 0.000000
0.000000 1.000000 0.000000
0.000000 1.000000 0.000000
0.000000 1.000000 0.000000
0.323898 1.000000 0.000000
0.488644 1.000000 0.000000
0.608656 1.000000 0.000000
0.709006 1.000000 0.000000
0.794976 1.000000 0.000000
0.861931 1.000000 0.000000
0.913426 1.000000 0.000000
0.952486 1.000000 0.000000
0.981378 1.000000 0.000000
1.000000 1.000000 0.000000
1.000000 1.000000 0.000000
1.000000 1.000000 0.000000
1.000000 1.000000 0.000000
1.000000 1.000000 0.000000
1.000000 1.000000 0.000000
1.000000 1.000000 0.000000
1.000000 1.000000 0.000000
0.000000 1.000000 0.000000
0.000000 1.000000 0.000000
0.000000 1.000000 0.000000
0.000000 1.000000 0.000000
0.000000 1.000000 0.000000
0.000000 1.000000 0.000000
0.000000 1.000000 0.000000
0.000000 1.000000 0.000000
0.000000 1.000000 0.000000
0.000000 1.000000 0.000000
0.000000 1.000000 0.000000
0.000000 1.000000 0.000000
0.000000 1.000000 0.000000
0.000000 1.000000 0.000000
0.000000 1.000000 0.000000
0.000000 1.000000 0.000000
0.303034 1.000000 0.000000
0.477147 1.000000 0.000000
0.600378 1.000000 0.000000
0.702444 1.000000 0.000000
0.789476 1.000000 0.000000
0.857081 1.000000 0.000000
0.908998 1.000000 0.000000
0.948340 1.000000 0.000000
0.977422 1.000000 0.000000
0.998149 1.000000 0.000000
