Tests/Test LUTs/AlexaV3_K1S1_LogC2Video_Rec709_EE_33.cube
# Alexa conversion LUT, logc2video, itu709. Full in/full out.
# created by alexalutconv (2.09)
LUT_3D_SIZE 9
0.000000 0.000000 0.000000
0.082073 0.000000 0.000624
0.203789 0.000000 0.002564
0.441831 0.000000 0.012556
0.718365 0.000000 0.038821
0.975817 0.000000 0.078983
1.000000 0.000000 0.102607
1.000000 0.000000 0.109168
1.000000 0.000000 0.111052
0.000000 0.072712 0.000000
0.062527 0.071061 0.000000
0.196375 0.065738 0.000000
0.439165 0.034977 0.005491
0.717064 0.000000 0.031756
0.975008 0.000000 0.073260
1.000000 0.000000 0.098040
1.000000 0.000000 0.104856
1.000000 0.000000 0.106809
0.000000 0.188065 0.000000
0.000000 0.187395 0.000000
0.170958 0.185292 0.000000
0.430726 0.174004 0.000000
0.712995 0.139607 0.009790
0.972482 0.048546 0.052969
1.000000 0.000000 0.082504
1.000000 0.000000 0.090313
1.000000 0.000000 0.092532
0.000000 0.413664 0.000000
0.000000 0.413419 0.000000
0.000000 0.412657 0.000000
0.383018 0.408695 0.000000
0.691458 0.398019 0.000000
0.959313 0.379550 0.000000
1.000000 0.364284 0.000000
1.000000 0.359256 0.000000
1.000000 0.357742 0.000000
0.000000 0.675742 0.000000
0.000000 0.675622 0.000000
0.000000 0.675249 0.000000
0.180935 0.673324 0.000000
0.629367 0.668222 0.000000
0.923267 0.659707 0.000000
1.000000 0.652968 0.000000
1.000000 0.650809 0.000000
1.000000 0.650165 0.000000
0.000000 0.919736 0.000000
0.000000 0.919662 0.000000
0.000000 0.919430 0.000000
0.000000 0.918232 0.000000
0.500846 0.915073 0.000000
0.858719 0.909843 0.000000
1.000000 0.905742 0.000000
1.000000 0.904436 0.000000
1.000000 0.904047 0.000000
0.000000 1.000000 0.000000
0.000000 1.000000 0.000000
0.000000 1.000000 0.000000
0.000000 1.000000 0.000000
0.351038 1.000000 0.000000
0.802766 1.000000 0.000000
0.987010 1.000000 0.000000
1.000000 1.000000 0.000000
1.000000 1.000000 0.000000
0.000000 1.000000 0.000000
0.000000 1.000000 0.000000
0.000000 1.000000 0.000000
0.000000 1.000000 0.000000
0.279203 1.000000 0.000000
0.783710 1.000000 0.000000
0.973293 1.000000 0.000000
1.000000 1.000000 0.000000
1.000000 1.000000 0.000000
0.000000 1.000000 0.000000
0.000000 1.000000 0.000000
0.000000 1.000000 0.000000
0.000000 1.000000 0.000000
0.252544 1.000000 0.000000
0.777899 1.000000 0.000000
0.969152 1.000000 0.000000
1.000000 1.000000 0.000000
1.000000 1.000000 0.000000
0.000000 0.000000 0.063998
0.078297 0.000000 0.064569
0.202267 0.000000 0.066323
0.441276 0.000000 0.074883
0.718093 0.000000 0.094453
0.975648 0.000000 0.120663
1.000000 0.000000 0.137805
1.000000 0.000000 0.142812
1.000000 0.000000 0.144268
0.000000 0.059782 0.057271
0.057885 0.057885 0.057885
0.194785 0.051828 0.059770
0.438606 0.020551 0.068910
0.716791 0.000000 0.089533
0.974838 0.000000 0.116747
1.000000 0.000000 0.134379
1.000000 0.000000 0.139511
1.000000 0.000000 0.141001
0.000000 0.183045 0.035310
0.000000 0.182353 0.035935
0.169096 0.180183 0.037875
0.430150 0.168513 0.047866
0.712720 0.132612 0.072588
0.972313 0.034119 0.103699
1.000000 0.000000 0.123122
1.000000 0.000000 0.128700
1.000000 0.000000 0.130314
0.000000 0.411850 0.000000
0.000000 0.411604 0.000000
0.000000 0.410836 0.000000
0.382340 0.406850 0.000000
0.691171 0.396104 0.000000
0.959138 0.377505 0.004172
1.000000 0.362120 0.037751
1.000000 0.357051 0.048400
1.000000 0.355523 0.051569
0.000000 0.674856 0.000000
0.000000 0.674735 0.000000
0.000000 0.674362 0.000000
0.179188 0.672433 0.000000
0.629036 0.667322 0.000000
0.923082 0.658788 0.000000
1.000000 0.652034 0.000000
1.000000 0.649871 0.000000
1.000000 0.649226 0.000000
0.000000 0.919184 0.000000
0.000000 0.919110 0.000000
0.000000 0.918878 0.000000
0.000000 0.917679 0.000000
0.500383 0.914518 0.000000
0.858512 0.909282 0.000000
1.000000 0.905178 0.000000
1.000000 0.903870 0.000000
1.000000 0.903481 0.000000
0.000000 1.000000 0.000000
0.000000 1.000000 0.000000
0.000000 1.000000 0.000000
0.000000 1.000000 0.000000
0.350276 1.000000 0.000000
0.802537 1.000000 0.000000
0.986844 1.000000 0.000000
1.000000 1.000000 0.000000
1.000000 1.000000 0.000000
0.000000 1.000000 0.000000
0.000000 1.000000 0.000000
0.000000 1.000000 0.000000
0.000000 1.000000 0.000000
0.278171 1.000000 0.000000
0.783472 1.000000 0.000000
0.973123 1.000000 0.000000
1.000000 1.000000 0.000000
1.000000 1.000000 0.000000
0.000000 1.000000 0.000000
0.000000 1.000000 0.000000
0.000000 1.000000 0.000000
0.000000 1.000000 0.000000
0.251371 1.000000 0.000000
0.777659 1.000000 0.000000
0.968981 1.000000 0.000000
1.000000 1.000000 0.000000
1.000000 1.000000 0.000000
0.000000 0.000000 0.173429
0.065551 0.000000 0.173663
0.197446 0.000000 0.174388
0.439545 0.000000 0.178072
0.717248 0.000000 0.187372
0.975123 0.000000 0.201611
1.000000 0.000000 0.211924
1.000000 0.000000 0.215074
1.000000 0.000000 0.216000
0.000000 0.015000 0.170754
0.042817 0.013047 0.170992
0.189744 0.006974 0.171730
0.436859 0.000000 0.175476
0.715944 0.000000 0.184922
0.974312 0.000000 0.199362
1.000000 0.000000 0.209804
1.000000 0.000000 0.212990
1.000000 0.000000 0.213928
0.000000 0.166347 0.162128
0.000000 0.165579 0.162380
0.163161 0.163161 0.163161
0.428355 0.150048 0.167118
0.711866 0.108085 0.177061
0.971784 0.000000 0.192172
1.000000 0.000000 0.203044
1.000000 0.000000 0.206353
1.000000 0.000000 0.207326
0.000000 0.406137 0.106742
0.000000 0.405886 0.107123
0.000000 0.405103 0.108300
0.380223 0.401037 0.114186
0.690276 0.390067 0.128445
0.958598 0.371046 0.148979
1.000000 0.355276 0.163112
1.000000 0.350071 0.167327
1.000000 0.348502 0.168559
0.000000 0.672090 0.000000
0.000000 0.671969 0.000000
0.000000 0.671593 0.000000
0.173632 0.669652 0.000000
0.628004 0.664508 0.000000
0.922509 0.655919 0.000000
1.000000 0.649121 0.000000
1.000000 0.646943 0.000000
1.000000 0.646292 0.000000
0.000000 0.917467 0.000000
0.000000 0.917391 0.000000
0.000000 0.917158 0.000000
0.000000 0.915956 0.000000
0.498937 0.912785 0.000000
0.857871 0.907534 0.000000
1.000000 0.903418 0.000000
1.000000 0.902106 0.000000
1.000000 0.901715 0.000000
0.000000 1.000000 0.000000
0.000000 1.000000 0.000000
0.000000 1.000000 0.000000
0.000000 1.000000 0.000000
0.347887 1.000000 0.000000
0.801824 1.000000 0.000000
0.986327 1.000000 0.000000
1.000000 1.000000 0.000000
1.000000 1.000000 0.000000
0.000000 1.000000 0.000000
0.000000 1.000000 0.000000
0.000000 1.000000 0.000000
0.000000 1.000000 0.000000
0.274928 1.000000 0.000000
0.782732 1.000000 0.000000
0.972595 1.000000 0.000000
1.000000 1.000000 0.000000
1.000000 1.000000 0.000000
0.000000 1.000000 0.000000
0.000000 1.000000 0.000000
0.000000 1.000000 0.000000
0.000000 1.000000 0.000000
0.247679 1.000000 0.000000
0.776911 1.000000 0.000000
0.968449 1.000000 0.000000
1.000000 1.000000 0.000000
1.000000 1.000000 0.000000
0.000000 0.000000 0.387445
0.000000 0.000000 0.387530
0.170128 0.000000 0.387796
0.430468 0.000000 0.389163
0.712872 0.000000 0.392724
0.972406 0.000000 0.398485
1.000000 0.000000 0.402886
1.000000 0.000000 0.404268
1.000000 0.000000 0.404678
0.000000 0.000000 0.386473
0.000000 0.000000 0.386559
0.160952 0.000000 0.386825
0.427702 0.000000 0.388197
0.711556 0.000000 0.391771
0.971593 0.000000 0.397551
1.000000 0.000000 0.401966
1.000000 0.000000 0.403352
1.000000 0.000000 0.403763
0.000000 0.014926 0.383430
0.000000 0.012972 0.383517
0.128028 0.006900 0.383786
0.418935 0.000000 0.385173
0.707439 0.000000 0.388785
0.969053 0.000000 0.394625
1.000000 0.000000 0.399085
1.000000 0.000000 0.400485
1.000000 0.000000 0.400901
0.000000 0.374759 0.367202
0.000000 0.374479 0.367294
0.000000 0.373604 0.367581
0.369051 0.369051 0.369051
0.685635 0.356702 0.372879
0.955809 0.335040 0.379058
1.000000 0.316799 0.383770
1.000000 0.310715 0.385247
1.000000 0.308874 0.385685
0.000000 0.657562 0.319047
0.000000 0.657437 0.319158
0.000000 0.657049 0.319504
0.141266 0.655042 0.321278
0.622649 0.649724 0.325880
0.919546 0.640835 0.333264
1.000000 0.633792 0.338858
1.000000 0.631534 0.340607
1.000000 0.630859 0.341124
0.000000 0.908535 0.207789
0.000000 0.908459 0.207980
0.000000 0.908222 0.208571
0.000000 0.907001 0.211583
0.491392 0.903781 0.219268
0.854551 0.898447 0.231244
1.000000 0.894266 0.240062
1.000000 0.892933 0.242776
1.000000 0.892536 0.243577
0.000000 1.000000 0.000000
0.000000 1.000000 0.000000
0.000000 1.000000 0.000000
0.000000 1.000000 0.000000
0.335222 1.000000 0.024870
0.798137 1.000000 0.067343
0.983660 1.000000 0.093404
1.000000 1.000000 0.100495
1.000000 1.000000 0.102522
0.000000 1.000000 0.000000
0.000000 1.000000 0.000000
0.000000 1.000000 0.000000
0.000000 1.000000 0.000000
0.257393 1.000000 0.000000
0.778906 1.000000 0.000000
0.969868 1.000000 0.000000
1.000000 1.000000 0.000000
1.000000 1.000000 0.000000
0.000000 1.000000 0.000000
0.000000 1.000000 0.000000
0.000000 1.000000 0.000000
0.000000 1.000000 0.000000
0.227483 1.000000 0.000000
0.773041 1.000000 0.000000
0.965704 1.000000 0.000000
1.000000 1.000000 0.000000
1.000000 1.000000 0.000000
0.000000 0.000000 0.636066
0.000000 0.000000 0.636107
0.051459 0.000000 0.636237
0.405225 0.000000 0.636908
0.701170 0.000000 0.638666
0.965211 0.000000 0.641540
1.000000 0.000000 0.643762
1.000000 0.000000 0.644464
1.000000 0.000000 0.644673
0.000000 0.000000 0.635591
0.000000 0.000000 0.635633
0.028228 0.000000 0.635763
0.402212 0.000000 0.636434
0.699821 0.000000 0.638194
0.964386 0.000000 0.641071
1.000000 0.000000 0.643295
1.000000 0.000000 0.643999
1.000000 0.000000 0.644207
0.000000 0.000000 0.634110
0.000000 0.000000 0.634152
0.000000 0.000000 0.634283
0.392638 0.000000 0.634957
0.695598 0.000000 0.636723
0.961818 0.000000 0.639610
1.000000 0.000000 0.641842
1.000000 0.000000 0.642547
1.000000 0.000000 0.642757
0.000000 0.267676 0.626402
0.000000 0.267238 0.626445
0.000000 0.265870 0.626578
0.337230 0.258678 0.627265
0.673207 0.238465 0.629063
0.948414 0.199734 0.632003
1.000000 0.162135 0.634275
1.000000 0.148013 0.634992
1.000000 0.143528 0.635206
0.000000 0.616871 0.605434
0.000000 0.616733 0.605479
0.000000 0.616305 0.605619
0.000000 0.614096 0.606341
0.608232 0.608232 0.608232
0.911685 0.598405 0.611322
1.000000 0.590593 0.613710
1.000000 0.588084 0.614464
1.000000 0.587334 0.614688
0.000000 0.884378 0.568407
0.000000 0.884299 0.568456
0.000000 0.884053 0.568611
0.000000 0.882780 0.569403
0.470718 0.879420 0.571478
0.845730 0.873853 0.574865
1.000000 0.869485 0.577479
1.000000 0.868093 0.578303
1.000000 0.867679 0.578549
0.000000 1.000000 0.536943
0.000000 1.000000 0.536997
0.000000 1.000000 0.537164
0.000000 1.000000 0.538025
0.298439 1.000000 0.540279
0.788322 1.000000 0.543955
0.976594 1.000000 0.546789
1.000000 1.000000 0.547684
1.000000 1.000000 0.547949
0.000000 1.000000 0.526381
0.000000 1.000000 0.526437
0.000000 1.000000 0.526609
0.000000 1.000000 0.527496
0.202172 1.000000 0.529815
0.768710 1.000000 0.533597
0.962642 1.000000 0.536511
1.000000 1.000000 0.537431
1.000000 1.000000 0.537703
0.000000 1.000000 0.523178
0.000000 1.000000 0.523234
0.000000 1.000000 0.523408
0.000000 1.000000 0.524302
0.160022 1.000000 0.526643
0.762722 1.000000 0.530457
0.958429 1.000000 0.533397
1.000000 1.000000 0.534323
1.000000 1.000000 0.534599
0.000000 0.000000 0.867532
0.000000 0.000000 0.867559
0.000000 0.000000 0.867639
0.358192 0.000000 0.868058
0.681263 0.000000 0.869154
0.953194 0.000000 0.870954
1.000000 0.000000 0.872350
1.000000 0.000000 0.872792
1.000000 0.000000 0.872923
0.000000 0.000000 0.867236
0.000000 0.000000 0.867262
0.000000 0.000000 0.867344
0.354616 0.000000 0.867762
0.679852 0.000000 0.868860
0.952354 0.000000 0.870660
1.000000 0.000000 0.872056
1.000000 0.000000 0.872498
1.000000 0.000000 0.872630
0.000000 0.000000 0.866316
0.000000 0.000000 0.866342
0.000000 0.000000 0.866423
0.343175 0.000000 0.866842
0.675440 0.000000 0.867942
0.949734 0.000000 0.869745
1.000000 0.000000 0.871143
1.000000 0.000000 0.871586
1.000000 0.000000 0.871718
0.000000 0.000000 0.861549
0.000000 0.000000 0.861575
0.000000 0.000000 0.861658
0.273860 0.000000 0.862080
0.651988 0.000000 0.863189
0.936057 0.000000 0.865008
1.000000 0.000000 0.866418
1.000000 0.000000 0.866864
1.000000 0.000000 0.866997
0.000000 0.539620 0.848821
0.000000 0.539453 0.848847
0.000000 0.538932 0.848932
0.000000 0.536236 0.849364
0.583363 0.529054 0.850499
0.898528 0.516928 0.852359
1.000000 0.507204 0.853802
1.000000 0.504064 0.854259
1.000000 0.503123 0.854395
0.000000 0.842276 0.827229
0.000000 0.842191 0.827257
0.000000 0.841925 0.827344
0.000000 0.840551 0.827794
0.433592 0.836925 0.828975
0.830911 0.830911 0.830911
1.000000 0.826186 0.832411
1.000000 0.824679 0.832886
1.000000 0.824230 0.833027
0.000000 0.995152 0.809815
0.000000 0.995086 0.809844
0.000000 0.994881 0.809935
0.000000 0.993823 0.810400
0.220352 0.991034 0.811620
0.771763 0.986421 0.813619
0.964800 0.982810 0.815170
1.000000 0.981660 0.815660
1.000000 0.981318 0.815806
0.000000 1.000000 0.804171
0.000000 1.000000 0.804201
0.000000 1.000000 0.804292
0.000000 1.000000 0.804762
0.012416 1.000000 0.805995
0.751480 1.000000 0.808017
0.950574 1.000000 0.809583
1.000000 1.000000 0.810079
1.000000 1.000000 0.810226
0.000000 1.000000 0.802480
0.000000 1.000000 0.802509
0.000000 1.000000 0.802601
0.000000 1.000000 0.803072
0.000000 1.000000 0.804310
0.745281 1.000000 0.806337
0.946276 1.000000 0.807909
0.997711 1.000000 0.808406
1.000000 1.000000 0.808554
0.000000 0.000000 0.997006
0.000000 0.000000 0.997027
0.000000 0.000000 0.997092
0.314788 0.000000 0.997429
0.665151 0.000000 0.998312
0.943682 0.000000 0.999762
1.000000 0.000000 1.000000
1.000000 0.000000 1.000000
1.000000 0.000000 1.000000
0.000000 0.000000 0.996768
0.000000 0.000000 0.996789
0.000000 0.000000 0.996854
0.310529 0.000000 0.997191
0.663689 0.000000 0.998074
0.942828 0.000000 0.999525
1.000000 0.000000 1.000000
1.000000 0.000000 1.000000
1.000000 0.000000 1.000000
0.000000 0.000000 0.996027
0.000000 0.000000 0.996048
0.000000 0.000000 0.996114
0.296768 0.000000 0.996451
0.659112 0.000000 0.997336
0.940167 0.000000 0.998788
1.000000 0.000000 0.999914
1.000000 0.000000 1.000000
1.000000 0.000000 1.000000
0.000000 0.000000 0.992199
0.000000 0.000000 0.992220
0.000000 0.000000 0.992286
0.207117 0.000000 0.992625
0.634740 0.000000 0.993515
0.926269 0.000000 0.994976
1.000000 0.000000 0.996110
1.000000 0.000000 0.996468
1.000000 0.000000 0.996575
0.000000 0.465924 0.982023
0.000000 0.465717 0.982044
0.000000 0.465073 0.982111
0.000000 0.461732 0.982456
0.562879 0.452783 0.983360
0.888085 0.437499 0.984845
1.000000 0.425071 0.985997
1.000000 0.421021 0.986362
1.000000 0.419805 0.986470
0.000000 0.807132 0.964925
0.000000 0.807041 0.964947
0.000000 0.806756 0.965016
0.000000 0.805289 0.965370
0.401278 0.801414 0.966300
0.819097 0.794980 0.967826
0.998926 0.789919 0.969010
1.000000 0.788304 0.969384
1.000000 0.787822 0.969496
0.000000 0.968360 0.951292
0.000000 0.968291 0.951315
0.000000 0.968077 0.951385
0.000000 0.966973 0.951747
0.121448 0.964060 0.952698
0.758499 0.959242 0.954258
0.955469 0.955469 0.955469
1.000000 0.954267 0.955852
1.000000 0.953909 0.955966
0.000000 1.000000 0.946905
0.000000 1.000000 0.946928
0.000000 1.000000 0.946999
0.000000 1.000000 0.947363
0.000000 1.000000 0.948321
0.737652 1.000000 0.949892
0.941021 0.999513 0.951111
0.992878 0.998394 0.951497
1.000000 0.998060 0.951612
0.000000 1.000000 0.945593
0.000000 1.000000 0.945616
0.000000 1.000000 0.945687
0.000000 1.000000 0.946053
0.000000 1.000000 0.947012
0.731272 1.000000 0.948587
0.936655 1.000000 0.949809
0.988864 1.000000 0.950195
1.000000 1.000000 0.950310
0.000000 0.000000 1.000000
0.000000 0.000000 1.000000
0.000000 0.000000 1.000000
0.299240 0.000000 1.000000
0.659918 0.000000 1.000000
0.940635 0.000000 1.000000
1.000000 0.000000 1.000000
1.000000 0.000000 1.000000
1.000000 0.000000 1.000000
0.000000 0.000000 1.000000
0.000000 0.000000 1.000000
0.000000 0.000000 1.000000
0.294683 0.000000 1.000000
0.658438 0.000000 1.000000
0.939777 0.000000 1.000000
1.000000 0.000000 1.000000
1.000000 0.000000 1.000000
1.000000 0.000000 1.000000
0.000000 0.000000 1.000000
0.000000 0.000000 1.000000
0.000000 0.000000 1.000000
0.279897 0.000000 1.000000
0.653805 0.000000 1.000000
0.937102 0.000000 1.000000
1.000000 0.000000 1.000000
1.000000 0.000000 1.000000
1.000000 0.000000 1.000000
0.000000 0.000000 1.000000
0.000000 0.000000 1.000000
0.000000 0.000000 1.000000
0.179641 0.000000 1.000000
0.629122 0.000000 1.000000
0.923130 0.000000 1.000000
1.000000 0.000000 1.000000
1.000000 0.000000 1.000000
1.000000 0.000000 1.000000
0.000000 0.438711 1.000000
0.000000 0.438486 1.000000
0.000000 0.437784 1.000000
0.000000 0.434140 1.000000
0.556149 0.424353 1.000000
0.884733 0.407539 1.000000
1.000000 0.393761 1.000000
1.000000 0.389250 1.000000
1.000000 0.387893 1.000000
0.000000 0.795481 1.000000
0.000000 0.795387 1.000000
0.000000 0.795097 1.000000
0.000000 0.793597 1.000000
0.390238 0.789632 1.000000
0.815296 0.783048 1.000000
0.996140 0.777868 1.000000
1.000000 0.776214 1.000000
1.000000 0.775721 1.000000
0.000000 0.959617 0.989871
0.000000 0.959547 0.989893
0.000000 0.959330 0.989958
0.000000 0.958209 0.990298
0.064587 0.955255 0.991193
0.754218 0.950366 0.992658
0.952479 0.946538 0.993796
1.000000 0.945318 0.994157
1.000000 0.944955 0.994264
0.000000 1.000000 0.985750
0.000000 1.000000 0.985771
0.000000 1.000000 0.985838
0.000000 1.000000 0.986181
0.000000 0.999314 0.987080
0.733184 0.994761 0.988556
0.937960 0.991198 0.989701
0.990064 0.990064 0.990064
1.000000 0.989726 0.990172
0.000000 1.000000 0.984519
0.000000 1.000000 0.984540
0.000000 1.000000 0.984607
0.000000 1.000000 0.984950
0.000000 1.000000 0.985851
0.726744 1.000000 0.987330
0.933570 1.000000 0.988477
0.986033 1.000000 0.988840
1.000000 1.000000 0.988949
0.000000 0.000000 1.000000
0.000000 0.000000 1.000000
0.000000 0.000000 1.000000
0.294404 0.000000 1.000000
0.658348 0.000000 1.000000
0.939724 0.000000 1.000000
1.000000 0.000000 1.000000
1.000000 0.000000 1.000000
1.000000 0.000000 1.000000
0.000000 0.000000 1.000000
0.000000 0.000000 1.000000
0.000000 0.000000 1.000000
0.289748 0.000000 1.000000
0.656863 0.000000 1.000000
0.938866 0.000000 1.000000
1.000000 0.000000 1.000000
1.000000 0.000000 1.000000
1.000000 0.000000 1.000000
0.000000 0.000000 1.000000
0.000000 0.000000 1.000000
0.000000 0.000000 1.000000
0.274616 0.000000 1.000000
0.652213 0.000000 1.000000
0.936186 0.000000 1.000000
1.000000 0.000000 1.000000
1.000000 0.000000 1.000000
1.000000 0.000000 1.000000
0.000000 0.000000 1.000000
0.000000 0.000000 1.000000
0.000000 0.000000 1.000000
0.170489 0.000000 1.000000
0.627435 0.000000 1.000000
0.922193 0.000000 1.000000
1.000000 0.000000 1.000000
1.000000 0.000000 1.000000
1.000000 0.000000 1.000000
0.000000 0.430135 1.000000
0.000000 0.429904 1.000000
0.000000 0.429181 1.000000
0.000000 0.425434 1.000000
0.554123 0.415357 1.000000
0.883731 0.398006 1.000000
1.000000 0.383748 1.000000
1.000000 0.379071 1.000000
1.000000 0.377664 1.000000
0.000000 0.791962 1.000000
0.000000 0.791868 1.000000
0.000000 0.791575 1.000000
0.000000 0.790065 1.000000
0.386868 0.786073 1.000000
0.814159 0.779442 1.000000
0.995308 0.774225 1.000000
1.000000 0.772560 1.000000
1.000000 0.772063 1.000000
0.000000 0.956991 1.000000
0.000000 0.956921 1.000000
0.000000 0.956702 1.000000
0.000000 0.955577 1.000000
0.040345 0.952610 1.000000
0.752936 0.947700 1.000000
0.951587 0.943854 1.000000
1.000000 0.942629 1.000000
1.000000 0.942264 1.000000
0.000000 1.000000 0.996857
0.000000 1.000000 0.996878
0.000000 1.000000 0.996944
0.000000 0.999614 0.997280
0.000000 0.996850 0.998164
0.731846 0.992280 0.999614
0.937046 0.988703 1.000000
0.989224 0.987563 1.000000
1.000000 0.987224 1.000000
0.000000 1.000000 0.995647
0.000000 1.000000 0.995668
0.000000 1.000000 0.995734
0.000000 1.000000 0.996071
0.000000 1.000000 0.996956
0.725388 1.000000 0.998409
0.932650 1.000000 0.999537
0.985188 1.000000 0.999894
1.000000 1.000000 1.000000
