Project/CocoaLUTTests/Test LUTs/OpenColorIO/cube/crosstalk.cube
TITLE "Generated by Foundry::LUT"
LUT_3D_SIZE 17
-0.000746 0.000000 0.000000
0.032571 0.003716 0.000000
0.065889 0.007432 0.000000
0.099207 0.011147 0.000000
0.132525 0.014863 0.000000
0.165842 0.018579 0.000000
0.199160 0.022295 0.000000
0.232478 0.026011 0.000000
0.265795 0.029726 0.000000
0.299113 0.033442 0.000000
0.332431 0.037158 0.000000
0.365749 0.040874 0.000000
0.399066 0.044590 0.000000
0.432384 0.048305 0.000000
0.465702 0.052021 0.000000
0.499020 0.055737 0.000000
0.532337 0.059453 0.000000
-0.000746 0.030220 0.003889
0.032571 0.033936 0.003889
0.065889 0.037652 0.003889
0.099207 0.041367 0.003889
0.132525 0.045083 0.003889
0.165842 0.048799 0.003889
0.199160 0.052515 0.003889
0.232478 0.056231 0.003889
0.265795 0.059946 0.003889
0.299113 0.063662 0.003889
0.332431 0.067378 0.003889
0.365749 0.071094 0.003889
0.399066 0.074810 0.003889
0.432384 0.078525 0.003889
0.465702 0.082241 0.003889
0.499020 0.085957 0.003889
0.532337 0.089673 0.003889
-0.000746 0.060440 0.007778
0.032571 0.064156 0.007778
0.065889 0.067872 0.007778
0.099207 0.071587 0.007778
0.132525 0.075303 0.007778
0.165842 0.079019 0.007778
0.199160 0.082735 0.007778
0.232478 0.086451 0.007778
0.265795 0.090166 0.007778
0.299113 0.093882 0.007778
0.332431 0.097598 0.007778
0.365749 0.101314 0.007778
0.399066 0.105030 0.007778
0.432384 0.108745 0.007778
0.465702 0.112461 0.007778
0.499020 0.116177 0.007778
0.532337 0.119893 0.007778
-0.000746 0.090660 0.011667
0.032571 0.094376 0.011667
0.065889 0.098091 0.011667
0.099207 0.101807 0.011667
0.132525 0.105523 0.011667
0.165842 0.109239 0.011667
0.199160 0.112955 0.011667
0.232478 0.116670 0.011667
0.265795 0.120386 0.011667
0.299113 0.124102 0.011667
0.332431 0.127818 0.011667
0.365749 0.131534 0.011667
0.399066 0.135250 0.011667
0.432384 0.138965 0.011667
0.465702 0.142681 0.011667
0.499020 0.146397 0.011667
0.532337 0.150113 0.011667
-0.000746 0.120880 0.015556
0.032571 0.124596 0.015556
0.065889 0.128311 0.015556
0.099207 0.132027 0.015556
0.132525 0.135743 0.015556
0.165842 0.139459 0.015556
0.199160 0.143175 0.015556
0.232478 0.146890 0.015556
0.265795 0.150606 0.015556
0.299113 0.154322 0.015556
0.332431 0.158038 0.015556
0.365749 0.161754 0.015556
0.399066 0.165469 0.015556
0.432384 0.169185 0.015556
0.465702 0.172901 0.015556
0.499020 0.176617 0.015556
0.532337 0.180333 0.015556
-0.000746 0.151100 0.019445
0.032571 0.154816 0.019445
0.065889 0.158531 0.019445
0.099207 0.162247 0.019445
0.132525 0.165963 0.019445
0.165842 0.169679 0.019445
0.199160 0.173395 0.019445
0.232478 0.177110 0.019445
0.265795 0.180826 0.019445
0.299113 0.184542 0.019445
0.332431 0.188258 0.019445
0.365749 0.191974 0.019445
0.399066 0.195689 0.019445
0.432384 0.199405 0.019445
0.465702 0.203121 0.019445
0.499020 0.206837 0.019445
0.532337 0.210553 0.019445
-0.000746 0.181320 0.023334
0.032571 0.185036 0.023334
0.065889 0.188751 0.023334
0.099207 0.192467 0.023334
0.132525 0.196183 0.023334
0.165842 0.199899 0.023334
0.199160 0.203615 0.023334
0.232478 0.207330 0.023334
0.265795 0.211046 0.023334
0.299113 0.214762 0.023334
0.332431 0.218478 0.023334
0.365749 0.222194 0.023334
0.399066 0.225909 0.023334
0.432384 0.229625 0.023334
0.465702 0.233341 0.023334
0.499020 0.237057 0.023334
0.532337 0.240773 0.023334
-0.000746 0.211540 0.027223
0.032571 0.215256 0.027223
0.065889 0.218971 0.027223
0.099207 0.222687 0.027223
0.132525 0.226403 0.027223
0.165842 0.230119 0.027223
0.199160 0.233835 0.027223
0.232478 0.237550 0.027223
0.265795 0.241266 0.027223
0.299113 0.244982 0.027223
0.332431 0.248698 0.027223
0.365749 0.252414 0.027223
0.399066 0.256129 0.027223
0.432384 0.259845 0.027223
0.465702 0.263561 0.027223
0.499020 0.267277 0.027223
0.532337 0.270993 0.027223
-0.000746 0.241760 0.031112
0.032571 0.245475 0.031112
0.065889 0.249191 0.031112
0.099207 0.252907 0.031112
0.132525 0.256623 0.031112
0.165842 0.260339 0.031112
0.199160 0.264055 0.031112
0.232478 0.267770 0.031112
0.265795 0.271486 0.031112
0.299113 0.275202 0.031112
0.332431 0.278918 0.031112
0.365749 0.282634 0.031112
0.399066 0.286349 0.031112
0.432384 0.290065 0.031112
0.465702 0.293781 0.031112
0.499020 0.297497 0.031112
0.532337 0.301213 0.031112
-0.000746 0.271980 0.035001
0.032571 0.275695 0.035001
0.065889 0.279411 0.035001
0.099207 0.283127 0.035001
0.132525 0.286843 0.035001
0.165842 0.290559 0.035001
0.199160 0.294274 0.035001
0.232478 0.297990 0.035001
0.265795 0.301706 0.035001
0.299113 0.305422 0.035001
0.332431 0.309138 0.035001
0.365749 0.312853 0.035001
0.399066 0.316569 0.035001
0.432384 0.320285 0.035001
0.465702 0.324001 0.035001
0.499020 0.327717 0.035001
0.532337 0.331432 0.035001
-0.000746 0.302200 0.038890
0.032571 0.305915 0.038890
0.065889 0.309631 0.038890
0.099207 0.313347 0.038890
0.132525 0.317063 0.038890
0.165842 0.320779 0.038890
0.199160 0.324494 0.038890
0.232478 0.328210 0.038890
0.265795 0.331926 0.038890
0.299113 0.335642 0.038890
0.332431 0.339358 0.038890
0.365749 0.343073 0.038890
0.399066 0.346789 0.038890
0.432384 0.350505 0.038890
0.465702 0.354221 0.038890
0.499020 0.357937 0.038890
0.532337 0.361652 0.038890
-0.000746 0.332420 0.042779
0.032571 0.336135 0.042779
0.065889 0.339851 0.042779
0.099207 0.343567 0.042779
0.132525 0.347283 0.042779
0.165842 0.350999 0.042779
0.199160 0.354714 0.042779
0.232478 0.358430 0.042779
0.265795 0.362146 0.042779
0.299113 0.365862 0.042779
0.332431 0.369578 0.042779
0.365749 0.373293 0.042779
0.399066 0.377009 0.042779
0.432384 0.380725 0.042779
0.465702 0.384441 0.042779
0.499020 0.388157 0.042779
0.532337 0.391872 0.042779
-0.000746 0.362640 0.046668
0.032571 0.366355 0.046668
0.065889 0.370071 0.046668
0.099207 0.373787 0.046668
0.132525 0.377503 0.046668
0.165842 0.381219 0.046668
0.199160 0.384934 0.046668
0.232478 0.388650 0.046668
0.265795 0.392366 0.046668
0.299113 0.396082 0.046668
0.332431 0.399798 0.046668
0.365749 0.403513 0.046668
0.399066 0.407229 0.046668
0.432384 0.410945 0.046668
0.465702 0.414661 0.046668
0.499020 0.418377 0.046668
0.532337 0.422092 0.046668
-0.000746 0.392859 0.050557
0.032571 0.396575 0.050557
0.065889 0.400291 0.050557
0.099207 0.404007 0.050557
0.132525 0.407723 0.050557
0.165842 0.411438 0.050557
0.199160 0.415154 0.050557
0.232478 0.418870 0.050557
0.265795 0.422586 0.050557
0.299113 0.426302 0.050557
0.332431 0.430018 0.050557
0.365749 0.433733 0.050557
0.399066 0.437449 0.050557
0.432384 0.441165 0.050557
0.465702 0.444881 0.050557
0.499020 0.448597 0.050557
0.532337 0.452312 0.050557
-0.000746 0.423079 0.054446
0.032571 0.426795 0.054446
0.065889 0.430511 0.054446
0.099207 0.434227 0.054446
0.132525 0.437943 0.054446
0.165842 0.441658 0.054446
0.199160 0.445374 0.054446
0.232478 0.449090 0.054446
0.265795 0.452806 0.054446
0.299113 0.456522 0.054446
0.332431 0.460237 0.054446
0.365749 0.463953 0.054446
0.399066 0.467669 0.054446
0.432384 0.471385 0.054446
0.465702 0.475101 0.054446
0.499020 0.478816 0.054446
0.532337 0.482532 0.054446
-0.000746 0.453299 0.058335
0.032571 0.457015 0.058335
0.065889 0.460731 0.058335
0.099207 0.464447 0.058335
0.132525 0.468163 0.058335
0.165842 0.471878 0.058335
0.199160 0.475594 0.058335
0.232478 0.479310 0.058335
0.265795 0.483026 0.058335
0.299113 0.486742 0.058335
0.332431 0.490457 0.058335
0.365749 0.494173 0.058335
0.399066 0.497889 0.058335
0.432384 0.501605 0.058335
0.465702 0.505321 0.058335
0.499020 0.509036 0.058335
0.532337 0.512752 0.058335
-0.000746 0.483519 0.062224
0.032571 0.487235 0.062224
0.065889 0.490951 0.062224
0.099207 0.494667 0.062224
0.132525 0.498383 0.062224
0.165842 0.502098 0.062224
0.199160 0.505814 0.062224
0.232478 0.509530 0.062224
0.265795 0.513246 0.062224
0.299113 0.516962 0.062224
0.332431 0.520677 0.062224
0.365749 0.524393 0.062224
0.399066 0.528109 0.062224
0.432384 0.531825 0.062224
0.465702 0.535541 0.062224
0.499020 0.539256 0.062224
0.532337 0.542972 0.062224
-0.009589 0.000000 0.036222
0.023729 0.003716 0.036222
0.057047 0.007432 0.036222
0.090364 0.011147 0.036222
0.123682 0.014863 0.036222
0.157000 0.018579 0.036222
0.190317 0.022295 0.036222
0.223635 0.026011 0.036222
0.256953 0.029726 0.036222
0.290271 0.033442 0.036222
0.323588 0.037158 0.036222
0.356906 0.040874 0.036222
0.390224 0.044590 0.036222
0.423542 0.048305 0.036222
0.456859 0.052021 0.036222
0.490177 0.055737 0.036222
0.523495 0.059453 0.036222
-0.009589 0.030220 0.040111
0.023729 0.033936 0.040111
0.057047 0.037652 0.040111
0.090364 0.041367 0.040111
0.123682 0.045083 0.040111
0.157000 0.048799 0.040111
0.190317 0.052515 0.040111
0.223635 0.056231 0.040111
0.256953 0.059946 0.040111
0.290271 0.063662 0.040111
0.323588 0.067378 0.040111
0.356906 0.071094 0.040111
0.390224 0.074810 0.040111
0.423542 0.078525 0.040111
0.456859 0.082241 0.040111
0.490177 0.085957 0.040111
0.523495 0.089673 0.040111
-0.009589 0.060440 0.044000
0.023729 0.064156 0.044000
0.057047 0.067872 0.044000
0.090364 0.071587 0.044000
0.123682 0.075303 0.044000
0.157000 0.079019 0.044000
0.190317 0.082735 0.044000
0.223635 0.086451 0.044000
0.256953 0.090166 0.044000
0.290271 0.093882 0.044000
0.323588 0.097598 0.044000
0.356906 0.101314 0.044000
0.390224 0.105030 0.044000
0.423542 0.108745 0.044000
0.456859 0.112461 0.044000
0.490177 0.116177 0.044000
0.523495 0.119893 0.044000
-0.009589 0.090660 0.047889
0.023729 0.094376 0.047889
0.057047 0.098091 0.047889
0.090364 0.101807 0.047889
0.123682 0.105523 0.047889
0.157000 0.109239 0.047889
0.190317 0.112955 0.047889
0.223635 0.116670 0.047889
0.256953 0.120386 0.047889
0.290271 0.124102 0.047889
0.323588 0.127818 0.047889
0.356906 0.131534 0.047889
0.390224 0.135250 0.047889
0.423542 0.138965 0.047889
0.456859 0.142681 0.047889
0.490177 0.146397 0.047889
0.523495 0.150113 0.047889
-0.009589 0.120880 0.051778
0.023729 0.124596 0.051778
0.057047 0.128311 0.051778
0.090364 0.132027 0.051778
0.123682 0.135743 0.051778
0.157000 0.139459 0.051778
0.190317 0.143175 0.051778
0.223635 0.146890 0.051778
0.256953 0.150606 0.051778
0.290271 0.154322 0.051778
0.323588 0.158038 0.051778
0.356906 0.161754 0.051778
0.390224 0.165469 0.051778
0.423542 0.169185 0.051778
0.456859 0.172901 0.051778
0.490177 0.176617 0.051778
0.523495 0.180333 0.051778
-0.009589 0.151100 0.055667
0.023729 0.154816 0.055667
0.057047 0.158531 0.055667
0.090364 0.162247 0.055667
0.123682 0.165963 0.055667
0.157000 0.169679 0.055667
0.190317 0.173395 0.055667
0.223635 0.177110 0.055667
0.256953 0.180826 0.055667
0.290271 0.184542 0.055667
0.323588 0.188258 0.055667
0.356906 0.191974 0.055667
0.390224 0.195689 0.055667
0.423542 0.199405 0.055667
0.456859 0.203121 0.055667
0.490177 0.206837 0.055667
0.523495 0.210553 0.055667
-0.009589 0.181320 0.059556
0.023729 0.185036 0.059556
0.057047 0.188751 0.059556
0.090364 0.192467 0.059556
0.123682 0.196183 0.059556
0.157000 0.199899 0.059556
0.190317 0.203615 0.059556
0.223635 0.207330 0.059556
0.256953 0.211046 0.059556
0.290271 0.214762 0.059556
0.323588 0.218478 0.059556
0.356906 0.222194 0.059556
0.390224 0.225909 0.059556
0.423542 0.229625 0.059556
0.456859 0.233341 0.059556
0.490177 0.237057 0.059556
0.523495 0.240773 0.059556
-0.009589 0.211540 0.063445
0.023729 0.215256 0.063445
0.057047 0.218971 0.063445
0.090364 0.222687 0.063445
0.123682 0.226403 0.063445
0.157000 0.230119 0.063445
0.190317 0.233835 0.063445
0.223635 0.237550 0.063445
0.256953 0.241266 0.063445
0.290271 0.244982 0.063445
0.323588 0.248698 0.063445
0.356906 0.252414 0.063445
0.390224 0.256129 0.063445
0.423542 0.259845 0.063445
0.456859 0.263561 0.063445
0.490177 0.267277 0.063445
0.523495 0.270993 0.063445
-0.009589 0.241760 0.067334
0.023729 0.245475 0.067334
0.057047 0.249191 0.067334
0.090364 0.252907 0.067334
0.123682 0.256623 0.067334
0.157000 0.260339 0.067334
0.190317 0.264055 0.067334
0.223635 0.267770 0.067334
0.256953 0.271486 0.067334
0.290271 0.275202 0.067334
0.323588 0.278918 0.067334
0.356906 0.282634 0.067334
0.390224 0.286349 0.067334
0.423542 0.290065 0.067334
0.456859 0.293781 0.067334
0.490177 0.297497 0.067334
0.523495 0.301213 0.067334
-0.009589 0.271980 0.071223
0.023729 0.275695 0.071223
0.057047 0.279411 0.071223
0.090364 0.283127 0.071223
0.123682 0.286843 0.071223
0.157000 0.290559 0.071223
0.190317 0.294274 0.071223
0.223635 0.297990 0.071223
0.256953 0.301706 0.071223
0.290271 0.305422 0.071223
0.323588 0.309138 0.071223
0.356906 0.312853 0.071223
0.390224 0.316569 0.071223
0.423542 0.320285 0.071223
0.456859 0.324001 0.071223
0.490177 0.327717 0.071223
0.523495 0.331432 0.071223
-0.009589 0.302200 0.075112
0.023729 0.305915 0.075112
0.057047 0.309631 0.075112
0.090364 0.313347 0.075112
0.123682 0.317063 0.075112
0.157000 0.320779 0.075112
0.190317 0.324494 0.075112
0.223635 0.328210 0.075112
0.256953 0.331926 0.075112
0.290271 0.335642 0.075112
0.323588 0.339358 0.075112
0.356906 0.343073 0.075112
0.390224 0.346789 0.075112
0.423542 0.350505 0.075112
0.456859 0.354221 0.075112
0.490177 0.357937 0.075112
0.523495 0.361652 0.075112
-0.009589 0.332420 0.079001
0.023729 0.336135 0.079001
0.057047 0.339851 0.079001
0.090364 0.343567 0.079001
0.123682 0.347283 0.079001
0.157000 0.350999 0.079001
0.190317 0.354714 0.079001
0.223635 0.358430 0.079001
0.256953 0.362146 0.079001
0.290271 0.365862 0.079001
0.323588 0.369578 0.079001
0.356906 0.373293 0.079001
0.390224 0.377009 0.079001
0.423542 0.380725 0.079001
0.456859 0.384441 0.079001
0.490177 0.388157 0.079001
0.523495 0.391872 0.079001
-0.009589 0.362640 0.082890
0.023729 0.366355 0.082890
0.057047 0.370071 0.082890
0.090364 0.373787 0.082890
0.123682 0.377503 0.082890
0.157000 0.381219 0.082890
0.190317 0.384934 0.082890
0.223635 0.388650 0.082890
0.256953 0.392366 0.082890
0.290271 0.396082 0.082890
0.323588 0.399798 0.082890
0.356906 0.403513 0.082890
0.390224 0.407229 0.082890
0.423542 0.410945 0.082890
0.456859 0.414661 0.082890
0.490177 0.418377 0.082890
0.523495 0.422092 0.082890
-0.009589 0.392859 0.086779
0.023729 0.396575 0.086779
0.057047 0.400291 0.086779
0.090364 0.404007 0.086779
0.123682 0.407723 0.086779
0.157000 0.411438 0.086779
0.190317 0.415154 0.086779
0.223635 0.418870 0.086779
0.256953 0.422586 0.086779
0.290271 0.426302 0.086779
0.323588 0.430018 0.086779
0.356906 0.433733 0.086779
0.390224 0.437449 0.086779
0.423542 0.441165 0.086779
0.456859 0.444881 0.086779
0.490177 0.448597 0.086779
0.523495 0.452312 0.086779
-0.009589 0.423079 0.090668
0.023729 0.426795 0.090668
0.057047 0.430511 0.090668
0.090364 0.434227 0.090668
0.123682 0.437943 0.090668
0.157000 0.441658 0.090668
0.190317 0.445374 0.090668
0.223635 0.449090 0.090668
0.256953 0.452806 0.090668
0.290271 0.456522 0.090668
0.323588 0.460237 0.090668
0.356906 0.463953 0.090668
0.390224 0.467669 0.090668
0.423542 0.471385 0.090668
0.456859 0.475101 0.090668
0.490177 0.478816 0.090668
0.523495 0.482532 0.090668
-0.009589 0.453299 0.094557
0.023729 0.457015 0.094557
0.057047 0.460731 0.094557
0.090364 0.464447 0.094557
0.123682 0.468163 0.094557
0.157000 0.471878 0.094557
0.190317 0.475594 0.094557
0.223635 0.479310 0.094557
0.256953 0.483026 0.094557
0.290271 0.486742 0.094557
0.323588 0.490457 0.094557
0.356906 0.494173 0.094557
0.390224 0.497889 0.094557
0.423542 0.501605 0.094557
0.456859 0.505321 0.094557
0.490177 0.509036 0.094557
0.523495 0.512752 0.094557
-0.009589 0.483519 0.098446
0.023729 0.487235 0.098446
0.057047 0.490951 0.098446
0.090364 0.494667 0.098446
0.123682 0.498383 0.098446
0.157000 0.502098 0.098446
0.190317 0.505814 0.098446
0.223635 0.509530 0.098446
0.256953 0.513246 0.098446
0.290271 0.516962 0.098446
0.323588 0.520677 0.098446
0.356906 0.524393 0.098446
0.390224 0.528109 0.098446
0.423542 0.531825 0.098446
0.456859 0.535541 0.098446
0.490177 0.539256 0.098446
0.523495 0.542972 0.098446
-0.018431 0.000000 0.072444
0.014886 0.003716 0.072444
0.048204 0.007432 0.072444
0.081522 0.011147 0.072444
0.114839 0.014863 0.072444
0.148157 0.018579 0.072444
0.181475 0.022295 0.072444
0.214793 0.026011 0.072444
0.248110 0.029726 0.072444
0.281428 0.033442 0.072444
0.314746 0.037158 0.072444
0.348063 0.040874 0.072444
0.381381 0.044590 0.072444
0.414699 0.048305 0.072444
0.448017 0.052021 0.072444
0.481334 0.055737 0.072444
0.514652 0.059453 0.072444
-0.018431 0.030220 0.076333
0.014886 0.033936 0.076333
0.048204 0.037652 0.076333
0.081522 0.041367 0.076333
0.114839 0.045083 0.076333
0.148157 0.048799 0.076333
0.181475 0.052515 0.076333
0.214793 0.056231 0.076333
0.248110 0.059946 0.076333
0.281428 0.063662 0.076333
0.314746 0.067378 0.076333
0.348063 0.071094 0.076333
0.381381 0.074810 0.076333
0.414699 0.078525 0.076333
0.448017 0.082241 0.076333
0.481334 0.085957 0.076333
0.514652 0.089673 0.076333
-0.018431 0.060440 0.080222
0.014886 0.064156 0.080222
0.048204 0.067872 0.080222
0.081522 0.071587 0.080222
0.114839 0.075303 0.080222
0.148157 0.079019 0.080222
0.181475 0.082735 0.080222
0.214793 0.086451 0.080222
0.248110 0.090166 0.080222
0.281428 0.093882 0.080222
0.314746 0.097598 0.080222
0.348063 0.101314 0.080222
0.381381 0.105030 0.080222
0.414699 0.108745 0.080222
0.448017 0.112461 0.080222
0.481334 0.116177 0.080222
0.514652 0.119893 0.080222
-0.018431 0.090660 0.084111
0.014886 0.094376 0.084111
0.048204 0.098091 0.084111
0.081522 0.101807 0.084111
0.114839 0.105523 0.084111
0.148157 0.109239 0.084111
0.181475 0.112955 0.084111
0.214793 0.116670 0.084111
0.248110 0.120386 0.084111
0.281428 0.124102 0.084111
0.314746 0.127818 0.084111
0.348063 0.131534 0.084111
0.381381 0.135250 0.084111
0.414699 0.138965 0.084111
0.448017 0.142681 0.084111
0.481334 0.146397 0.084111
0.514652 0.150113 0.084111
-0.018431 0.120880 0.088000
0.014886 0.124596 0.088000
0.048204 0.128311 0.088000
0.081522 0.132027 0.088000
0.114839 0.135743 0.088000
0.148157 0.139459 0.088000
0.181475 0.143175 0.088000
0.214793 0.146890 0.088000
0.248110 0.150606 0.088000
0.281428 0.154322 0.088000
0.314746 0.158038 0.088000
0.348063 0.161754 0.088000
0.381381 0.165469 0.088000
0.414699 0.169185 0.088000
0.448017 0.172901 0.088000
0.481334 0.176617 0.088000
0.514652 0.180333 0.088000
-0.018431 0.151100 0.091889
0.014886 0.154816 0.091889
0.048204 0.158531 0.091889
0.081522 0.162247 0.091889
0.114839 0.165963 0.091889
0.148157 0.169679 0.091889
0.181475 0.173395 0.091889
0.214793 0.177110 0.091889
0.248110 0.180826 0.091889
0.281428 0.184542 0.091889
0.314746 0.188258 0.091889
0.348063 0.191974 0.091889
0.381381 0.195689 0.091889
0.414699 0.199405 0.091889
0.448017 0.203121 0.091889
0.481334 0.206837 0.091889
0.514652 0.210553 0.091889
-0.018431 0.181320 0.095778
0.014886 0.185036 0.095778
0.048204 0.188751 0.095778
0.081522 0.192467 0.095778
0.114839 0.196183 0.095778
0.148157 0.199899 0.095778
0.181475 0.203615 0.095778
0.214793 0.207330 0.095778
0.248110 0.211046 0.095778
0.281428 0.214762 0.095778
0.314746 0.218478 0.095778
0.348063 0.222194 0.095778
0.381381 0.225909 0.095778
0.414699 0.229625 0.095778
0.448017 0.233341 0.095778
0.481334 0.237057 0.095778
0.514652 0.240773 0.095778
-0.018431 0.211540 0.099667
0.014886 0.215256 0.099667
0.048204 0.218971 0.099667
0.081522 0.222687 0.099667
0.114839 0.226403 0.099667
0.148157 0.230119 0.099667
0.181475 0.233835 0.099667
0.214793 0.237550 0.099667
0.248110 0.241266 0.099667
0.281428 0.244982 0.099667
0.314746 0.248698 0.099667
0.348063 0.252414 0.099667
0.381381 0.256129 0.099667
0.414699 0.259845 0.099667
0.448017 0.263561 0.099667
0.481334 0.267277 0.099667
0.514652 0.270993 0.099667
-0.018431 0.241760 0.103556
0.014886 0.245475 0.103556
0.048204 0.249191 0.103556
0.081522 0.252907 0.103556
0.114839 0.256623 0.103556
0.148157 0.260339 0.103556
0.181475 0.264055 0.103556
0.214793 0.267770 0.103556
0.248110 0.271486 0.103556
0.281428 0.275202 0.103556
0.314746 0.278918 0.103556
0.348063 0.282634 0.103556
0.381381 0.286349 0.103556
0.414699 0.290065 0.103556
0.448017 0.293781 0.103556
0.481334 0.297497 0.103556
0.514652 0.301213 0.103556
-0.018431 0.271980 0.107445
0.014886 0.275695 0.107445
0.048204 0.279411 0.107445
0.081522 0.283127 0.107445
0.114839 0.286843 0.107445
0.148157 0.290559 0.107445
0.181475 0.294274 0.107445
0.214793 0.297990 0.107445
0.248110 0.301706 0.107445
0.281428 0.305422 0.107445
0.314746 0.309138 0.107445
0.348063 0.312853 0.107445
0.381381 0.316569 0.107445
0.414699 0.320285 0.107445
0.448017 0.324001 0.107445
0.481334 0.327717 0.107445
0.514652 0.331432 0.107445
-0.018431 0.302200 0.111334
0.014886 0.305915 0.111334
0.048204 0.309631 0.111334
0.081522 0.313347 0.111334
0.114839 0.317063 0.111334
0.148157 0.320779 0.111334
0.181475 0.324494 0.111334
0.214793 0.328210 0.111334
0.248110 0.331926 0.111334
0.281428 0.335642 0.111334
0.314746 0.339358 0.111334
0.348063 0.343073 0.111334
0.381381 0.346789 0.111334
0.414699 0.350505 0.111334
0.448017 0.354221 0.111334
0.481334 0.357937 0.111334
0.514652 0.361652 0.111334
-0.018431 0.332420 0.115223
0.014886 0.336135 0.115223
0.048204 0.339851 0.115223
0.081522 0.343567 0.115223
0.114839 0.347283 0.115223
0.148157 0.350999 0.115223
0.181475 0.354714 0.115223
0.214793 0.358430 0.115223
0.248110 0.362146 0.115223
0.281428 0.365862 0.115223
0.314746 0.369578 0.115223
0.348063 0.373293 0.115223
0.381381 0.377009 0.115223
0.414699 0.380725 0.115223
0.448017 0.384441 0.115223
0.481334 0.388157 0.115223
0.514652 0.391872 0.115223
-0.018431 0.362640 0.119112
0.014886 0.366355 0.119112
0.048204 0.370071 0.119112
0.081522 0.373787 0.119112
0.114839 0.377503 0.119112
0.148157 0.381219 0.119112
0.181475 0.384934 0.119112
0.214793 0.388650 0.119112
0.248110 0.392366 0.119112
0.281428 0.396082 0.119112
0.314746 0.399798 0.119112
0.348063 0.403513 0.119112
0.381381 0.407229 0.119112
0.414699 0.410945 0.119112
0.448017 0.414661 0.119112
0.481334 0.418377 0.119112
0.514652 0.422092 0.119112
-0.018431 0.392859 0.123001
0.014886 0.396575 0.123001
0.048204 0.400291 0.123001
0.081522 0.404007 0.123001
0.114839 0.407723 0.123001
0.148157 0.411438 0.123001
0.181475 0.415154 0.123001
0.214793 0.418870 0.123001
0.248110 0.422586 0.123001
0.281428 0.426302 0.123001
0.314746 0.430018 0.123001
0.348063 0.433733 0.123001
0.381381 0.437449 0.123001
0.414699 0.441165 0.123001
0.448017 0.444881 0.123001
0.481334 0.448597 0.123001
0.514652 0.452312 0.123001
-0.018431 0.423079 0.126890
0.014886 0.426795 0.126890
0.048204 0.430511 0.126890
0.081522 0.434227 0.126890
0.114839 0.437943 0.126890
0.148157 0.441658 0.126890
0.181475 0.445374 0.126890
0.214793 0.449090 0.126890
0.248110 0.452806 0.126890
0.281428 0.456522 0.126890
0.314746 0.460237 0.126890
0.348063 0.463953 0.126890
0.381381 0.467669 0.126890
0.414699 0.471385 0.126890
0.448017 0.475101 0.126890
0.481334 0.478816 0.126890
0.514652 0.482532 0.126890
-0.018431 0.453299 0.130779
0.014886 0.457015 0.130779
0.048204 0.460731 0.130779
0.081522 0.464447 0.130779
0.114839 0.468163 0.130779
0.148157 0.471878 0.130779
0.181475 0.475594 0.130779
0.214793 0.479310 0.130779
0.248110 0.483026 0.130779
0.281428 0.486742 0.130779
0.314746 0.490457 0.130779
0.348063 0.494173 0.130779
0.381381 0.497889 0.130779
0.414699 0.501605 0.130779
0.448017 0.505321 0.130779
0.481334 0.509036 0.130779
0.514652 0.512752 0.130779
-0.018431 0.483519 0.134668
0.014886 0.487235 0.134668
0.048204 0.490951 0.134668
0.081522 0.494667 0.134668
0.114839 0.498383 0.134668
0.148157 0.502098 0.134668
0.181475 0.505814 0.134668
0.214793 0.509530 0.134668
0.248110 0.513246 0.134668
0.281428 0.516962 0.134668
0.314746 0.520677 0.134668
0.348063 0.524393 0.134668
0.381381 0.528109 0.134668
0.414699 0.531825 0.134668
0.448017 0.535541 0.134668
0.481334 0.539256 0.134668
0.514652 0.542972 0.134668
-0.027274 0.000000 0.108666
0.006044 0.003716 0.108666
0.039361 0.007432 0.108666
0.072679 0.011147 0.108666
0.105997 0.014863 0.108666
0.139315 0.018579 0.108666
0.172632 0.022295 0.108666
0.205950 0.026011 0.108666
0.239268 0.029726 0.108666
0.272585 0.033442 0.108666
0.305903 0.037158 0.108666
0.339221 0.040874 0.108666
0.372539 0.044590 0.108666
0.405856 0.048305 0.108666
0.439174 0.052021 0.108666
0.472492 0.055737 0.108666
0.505809 0.059453 0.108666
-0.027274 0.030220 0.112555
