Project/CocoaLUTTests/Test LUTs/OpenColorIO/cube/crosstalk.cube
TITLE "Generated by Foundry::LUT"
LUT_3D_SIZE 5
-0.000746 0.000000 0.000000
0.132525 0.014863 0.000000
0.265795 0.029726 0.000000
0.399066 0.044590 0.000000
0.532337 0.059453 0.000000
-0.000746 0.120880 0.015556
0.132525 0.135743 0.015556
0.265795 0.150606 0.015556
0.399066 0.165469 0.015556
0.532337 0.180333 0.015556
-0.000746 0.241760 0.031112
0.132525 0.256623 0.031112
0.265795 0.271486 0.031112
0.399066 0.286349 0.031112
0.532337 0.301213 0.031112
-0.000746 0.362640 0.046668
0.132525 0.377503 0.046668
0.265795 0.392366 0.046668
0.399066 0.407229 0.046668
0.532337 0.422092 0.046668
-0.000746 0.483519 0.062224
0.132525 0.498383 0.062224
0.265795 0.513246 0.062224
0.399066 0.528109 0.062224
0.532337 0.542972 0.062224
-0.036117 0.000000 0.144887
0.097154 0.014863 0.144887
0.230425 0.029726 0.144887
0.363696 0.044590 0.144887
0.496967 0.059453 0.144887
-0.036117 0.120880 0.160444
0.097154 0.135743 0.160444
0.230425 0.150606 0.160444
0.363696 0.165469 0.160444
0.496967 0.180333 0.160444
-0.036117 0.241760 0.176000
0.097154 0.256623 0.176000
0.230425 0.271486 0.176000
0.363696 0.286349 0.176000
0.496967 0.301213 0.176000
-0.036117 0.362640 0.191556
0.097154 0.377503 0.191556
0.230425 0.392366 0.191556
0.363696 0.407229 0.191556
0.496967 0.422092 0.191556
-0.036117 0.483519 0.207112
0.097154 0.498383 0.207112
0.230425 0.513246 0.207112
0.363696 0.528109 0.207112
0.496967 0.542972 0.207112
-0.071487 0.000000 0.289775
0.061784 0.014863 0.289775
0.195055 0.029726 0.289775
0.328326 0.044590 0.289775
0.461597 0.059453 0.289775
-0.071487 0.120880 0.305331
0.061784 0.135743 0.305331
0.195055 0.150606 0.305331
0.328326 0.165469 0.305331
0.461597 0.180333 0.305331
-0.071487 0.241760 0.320887
0.061784 0.256623 0.320887
0.195055 0.271486 0.320887
0.328326 0.286349 0.320887
0.461597 0.301213 0.320887
-0.071487 0.362640 0.336443
0.061784 0.377503 0.336443
0.195055 0.392366 0.336443
0.328326 0.407229 0.336443
0.461597 0.422092 0.336443
-0.071487 0.483519 0.351999
0.061784 0.498383 0.351999
0.195055 0.513246 0.351999
0.328326 0.528109 0.351999
0.461597 0.542972 0.351999
-0.106857 0.000000 0.434662
0.026414 0.014863 0.434662
0.159684 0.029726 0.434662
0.292955 0.044590 0.434662
0.426226 0.059453 0.434662
-0.106857 0.120880 0.450218
0.026414 0.135743 0.450218
0.159684 0.150606 0.450218
0.292955 0.165469 0.450218
0.426226 0.180333 0.450218
-0.106857 0.241760 0.465775
0.026414 0.256623 0.465775
0.159684 0.271486 0.465775
0.292955 0.286349 0.465775
0.426226 0.301213 0.465775
-0.106857 0.362640 0.481331
0.026414 0.377503 0.481331
0.159684 0.392366 0.481331
0.292955 0.407229 0.481331
0.426226 0.422092 0.481331
-0.106857 0.483519 0.496887
0.026414 0.498383 0.496887
0.159684 0.513246 0.496887
0.292955 0.528109 0.496887
0.426226 0.542972 0.496887
-0.142228 0.000000 0.579550
-0.008957 0.014863 0.579550
0.124314 0.029726 0.579550
0.257585 0.044590 0.579550
0.390856 0.059453 0.579550
-0.142228 0.120880 0.595106
-0.008957 0.135743 0.595106
0.124314 0.150606 0.595106
0.257585 0.165469 0.595106
0.390856 0.180333 0.595106
-0.142228 0.241760 0.610662
-0.008957 0.256623 0.610662
0.124314 0.271486 0.610662
0.257585 0.286349 0.610662
0.390856 0.301213 0.610662
-0.142228 0.362640 0.626218
-0.008957 0.377503 0.626218
0.124314 0.392366 0.626218
0.257585 0.407229 0.626218
0.390856 0.422092 0.626218
-0.142228 0.483519 0.641774
-0.008957 0.498383 0.641774
0.124314 0.513246 0.641774
0.257585 0.528109 0.641774
0.390856 0.542972 0.641774
