Project/CocoaLUTTests/Test LUTs/OpenColorIO/cube/crosstalk.cube
TITLE "Generated by Foundry::LUT"
LUT_3D_SIZE 9
-0.000746 0.000000 0.000000
0.065889 0.007432 0.000000
0.132525 0.014863 0.000000
0.199160 0.022295 0.000000
0.265795 0.029726 0.000000
0.332431 0.037158 0.000000
0.399066 0.044590 0.000000
0.465702 0.052021 0.000000
0.532337 0.059453 0.000000
-0.000746 0.060440 0.007778
0.065889 0.067872 0.007778
0.132525 0.075303 0.007778
0.199160 0.082735 0.007778
0.265795 0.090166 0.007778
0.332431 0.097598 0.007778
0.399066 0.105030 0.007778
0.465702 0.112461 0.007778
0.532337 0.119893 0.007778
-0.000746 0.120880 0.015556
0.065889 0.128311 0.015556
0.132525 0.135743 0.015556
0.199160 0.143175 0.015556
0.265795 0.150606 0.015556
0.332431 0.158038 0.015556
0.399066 0.165469 0.015556
0.465702 0.172901 0.015556
0.532337 0.180333 0.015556
-0.000746 0.181320 0.023334
0.065889 0.188751 0.023334
0.132525 0.196183 0.023334
0.199160 0.203615 0.023334
0.265795 0.211046 0.023334
0.332431 0.218478 0.023334
0.399066 0.225909 0.023334
0.465702 0.233341 0.023334
0.532337 0.240773 0.023334
-0.000746 0.241760 0.031112
0.065889 0.249191 0.031112
0.132525 0.256623 0.031112
0.199160 0.264055 0.031112
0.265795 0.271486 0.031112
0.332431 0.278918 0.031112
0.399066 0.286349 0.031112
0.465702 0.293781 0.031112
0.532337 0.301213 0.031112
-0.000746 0.302200 0.038890
0.065889 0.309631 0.038890
0.132525 0.317063 0.038890
0.199160 0.324494 0.038890
0.265795 0.331926 0.038890
0.332431 0.339358 0.038890
0.399066 0.346789 0.038890
0.465702 0.354221 0.038890
0.532337 0.361652 0.038890
-0.000746 0.362640 0.046668
0.065889 0.370071 0.046668
0.132525 0.377503 0.046668
0.199160 0.384934 0.046668
0.265795 0.392366 0.046668
0.332431 0.399798 0.046668
0.399066 0.407229 0.046668
0.465702 0.414661 0.046668
0.532337 0.422092 0.046668
-0.000746 0.423079 0.054446
0.065889 0.430511 0.054446
0.132525 0.437943 0.054446
0.199160 0.445374 0.054446
0.265795 0.452806 0.054446
0.332431 0.460237 0.054446
0.399066 0.467669 0.054446
0.465702 0.475101 0.054446
0.532337 0.482532 0.054446
-0.000746 0.483519 0.062224
0.065889 0.490951 0.062224
0.132525 0.498383 0.062224
0.199160 0.505814 0.062224
0.265795 0.513246 0.062224
0.332431 0.520677 0.062224
0.399066 0.528109 0.062224
0.465702 0.535541 0.062224
0.532337 0.542972 0.062224
-0.018431 0.000000 0.072444
0.048204 0.007432 0.072444
0.114839 0.014863 0.072444
0.181475 0.022295 0.072444
0.248110 0.029726 0.072444
0.314746 0.037158 0.072444
0.381381 0.044590 0.072444
0.448017 0.052021 0.072444
0.514652 0.059453 0.072444
-0.018431 0.060440 0.080222
0.048204 0.067872 0.080222
0.114839 0.075303 0.080222
0.181475 0.082735 0.080222
0.248110 0.090166 0.080222
0.314746 0.097598 0.080222
0.381381 0.105030 0.080222
0.448017 0.112461 0.080222
0.514652 0.119893 0.080222
-0.018431 0.120880 0.088000
0.048204 0.128311 0.088000
0.114839 0.135743 0.088000
0.181475 0.143175 0.088000
0.248110 0.150606 0.088000
0.314746 0.158038 0.088000
0.381381 0.165469 0.088000
0.448017 0.172901 0.088000
0.514652 0.180333 0.088000
-0.018431 0.181320 0.095778
0.048204 0.188751 0.095778
0.114839 0.196183 0.095778
0.181475 0.203615 0.095778
0.248110 0.211046 0.095778
0.314746 0.218478 0.095778
0.381381 0.225909 0.095778
0.448017 0.233341 0.095778
0.514652 0.240773 0.095778
-0.018431 0.241760 0.103556
0.048204 0.249191 0.103556
0.114839 0.256623 0.103556
0.181475 0.264055 0.103556
0.248110 0.271486 0.103556
0.314746 0.278918 0.103556
0.381381 0.286349 0.103556
0.448017 0.293781 0.103556
0.514652 0.301213 0.103556
-0.018431 0.302200 0.111334
0.048204 0.309631 0.111334
0.114839 0.317063 0.111334
0.181475 0.324494 0.111334
0.248110 0.331926 0.111334
0.314746 0.339358 0.111334
0.381381 0.346789 0.111334
0.448017 0.354221 0.111334
0.514652 0.361652 0.111334
-0.018431 0.362640 0.119112
0.048204 0.370071 0.119112
0.114839 0.377503 0.119112
0.181475 0.384934 0.119112
0.248110 0.392366 0.119112
0.314746 0.399798 0.119112
0.381381 0.407229 0.119112
0.448017 0.414661 0.119112
0.514652 0.422092 0.119112
-0.018431 0.423079 0.126890
0.048204 0.430511 0.126890
0.114839 0.437943 0.126890
0.181475 0.445374 0.126890
0.248110 0.452806 0.126890
0.314746 0.460237 0.126890
0.381381 0.467669 0.126890
0.448017 0.475101 0.126890
0.514652 0.482532 0.126890
-0.018431 0.483519 0.134668
0.048204 0.490951 0.134668
0.114839 0.498383 0.134668
0.181475 0.505814 0.134668
0.248110 0.513246 0.134668
0.314746 0.520677 0.134668
0.381381 0.528109 0.134668
0.448017 0.535541 0.134668
0.514652 0.542972 0.134668
-0.036117 0.000000 0.144887
0.030519 0.007432 0.144887
0.097154 0.014863 0.144887
0.163790 0.022295 0.144887
0.230425 0.029726 0.144887
0.297061 0.037158 0.144887
0.363696 0.044590 0.144887
0.430331 0.052021 0.144887
0.496967 0.059453 0.144887
-0.036117 0.060440 0.152666
0.030519 0.067872 0.152666
0.097154 0.075303 0.152666
0.163790 0.082735 0.152666
0.230425 0.090166 0.152666
0.297061 0.097598 0.152666
0.363696 0.105030 0.152666
0.430331 0.112461 0.152666
0.496967 0.119893 0.152666
-0.036117 0.120880 0.160444
0.030519 0.128311 0.160444
0.097154 0.135743 0.160444
0.163790 0.143175 0.160444
0.230425 0.150606 0.160444
0.297061 0.158038 0.160444
0.363696 0.165469 0.160444
0.430331 0.172901 0.160444
0.496967 0.180333 0.160444
-0.036117 0.181320 0.168222
0.030519 0.188751 0.168222
0.097154 0.196183 0.168222
0.163790 0.203615 0.168222
0.230425 0.211046 0.168222
0.297061 0.218478 0.168222
0.363696 0.225909 0.168222
0.430331 0.233341 0.168222
0.496967 0.240773 0.168222
-0.036117 0.241760 0.176000
0.030519 0.249191 0.176000
0.097154 0.256623 0.176000
0.163790 0.264055 0.176000
0.230425 0.271486 0.176000
0.297061 0.278918 0.176000
0.363696 0.286349 0.176000
0.430331 0.293781 0.176000
0.496967 0.301213 0.176000
-0.036117 0.302200 0.183778
0.030519 0.309631 0.183778
0.097154 0.317063 0.183778
0.163790 0.324494 0.183778
0.230425 0.331926 0.183778
0.297061 0.339358 0.183778
0.363696 0.346789 0.183778
0.430331 0.354221 0.183778
0.496967 0.361652 0.183778
-0.036117 0.362640 0.191556
0.030519 0.370071 0.191556
0.097154 0.377503 0.191556
0.163790 0.384934 0.191556
0.230425 0.392366 0.191556
0.297061 0.399798 0.191556
0.363696 0.407229 0.191556
0.430331 0.414661 0.191556
0.496967 0.422092 0.191556
-0.036117 0.423079 0.199334
0.030519 0.430511 0.199334
0.097154 0.437943 0.199334
0.163790 0.445374 0.199334
0.230425 0.452806 0.199334
0.297061 0.460237 0.199334
0.363696 0.467669 0.199334
0.430331 0.475101 0.199334
0.496967 0.482532 0.199334
-0.036117 0.483519 0.207112
0.030519 0.490951 0.207112
0.097154 0.498383 0.207112
0.163790 0.505814 0.207112
0.230425 0.513246 0.207112
0.297061 0.520677 0.207112
0.363696 0.528109 0.207112
0.430331 0.535541 0.207112
0.496967 0.542972 0.207112
-0.053802 0.000000 0.217331
0.012834 0.007432 0.217331
0.079469 0.014863 0.217331
0.146105 0.022295 0.217331
0.212740 0.029726 0.217331
0.279375 0.037158 0.217331
0.346011 0.044590 0.217331
0.412646 0.052021 0.217331
0.479282 0.059453 0.217331
-0.053802 0.060440 0.225109
0.012834 0.067872 0.225109
0.079469 0.075303 0.225109
0.146105 0.082735 0.225109
0.212740 0.090166 0.225109
0.279375 0.097598 0.225109
0.346011 0.105030 0.225109
0.412646 0.112461 0.225109
0.479282 0.119893 0.225109
-0.053802 0.120880 0.232887
0.012834 0.128311 0.232887
0.079469 0.135743 0.232887
0.146105 0.143175 0.232887
0.212740 0.150606 0.232887
0.279375 0.158038 0.232887
0.346011 0.165469 0.232887
0.412646 0.172901 0.232887
0.479282 0.180333 0.232887
-0.053802 0.181320 0.240665
0.012834 0.188751 0.240665
0.079469 0.196183 0.240665
0.146105 0.203615 0.240665
0.212740 0.211046 0.240665
0.279375 0.218478 0.240665
0.346011 0.225909 0.240665
0.412646 0.233341 0.240665
0.479282 0.240773 0.240665
-0.053802 0.241760 0.248443
0.012834 0.249191 0.248443
0.079469 0.256623 0.248443
0.146105 0.264055 0.248443
0.212740 0.271486 0.248443
0.279375 0.278918 0.248443
0.346011 0.286349 0.248443
0.412646 0.293781 0.248443
0.479282 0.301213 0.248443
-0.053802 0.302200 0.256221
0.012834 0.309631 0.256221
0.079469 0.317063 0.256221
0.146105 0.324494 0.256221
0.212740 0.331926 0.256221
0.279375 0.339358 0.256221
0.346011 0.346789 0.256221
0.412646 0.354221 0.256221
0.479282 0.361652 0.256221
-0.053802 0.362640 0.263999
0.012834 0.370071 0.263999
0.079469 0.377503 0.263999
0.146105 0.384934 0.263999
0.212740 0.392366 0.263999
0.279375 0.399798 0.263999
0.346011 0.407229 0.263999
0.412646 0.414661 0.263999
0.479282 0.422092 0.263999
-0.053802 0.423079 0.271778
0.012834 0.430511 0.271778
0.079469 0.437943 0.271778
0.146105 0.445374 0.271778
0.212740 0.452806 0.271778
0.279375 0.460237 0.271778
0.346011 0.467669 0.271778
0.412646 0.475101 0.271778
0.479282 0.482532 0.271778
-0.053802 0.483519 0.279556
0.012834 0.490951 0.279556
0.079469 0.498383 0.279556
0.146105 0.505814 0.279556
0.212740 0.513246 0.279556
0.279375 0.520677 0.279556
0.346011 0.528109 0.279556
0.412646 0.535541 0.279556
0.479282 0.542972 0.279556
-0.071487 0.000000 0.289775
-0.004852 0.007432 0.289775
0.061784 0.014863 0.289775
0.128419 0.022295 0.289775
0.195055 0.029726 0.289775
0.261690 0.037158 0.289775
0.328326 0.044590 0.289775
0.394961 0.052021 0.289775
0.461597 0.059453 0.289775
-0.071487 0.060440 0.297553
-0.004852 0.067872 0.297553
0.061784 0.075303 0.297553
0.128419 0.082735 0.297553
0.195055 0.090166 0.297553
0.261690 0.097598 0.297553
0.328326 0.105030 0.297553
0.394961 0.112461 0.297553
0.461597 0.119893 0.297553
-0.071487 0.120880 0.305331
-0.004852 0.128311 0.305331
0.061784 0.135743 0.305331
0.128419 0.143175 0.305331
0.195055 0.150606 0.305331
0.261690 0.158038 0.305331
0.328326 0.165469 0.305331
0.394961 0.172901 0.305331
0.461597 0.180333 0.305331
-0.071487 0.181320 0.313109
-0.004852 0.188751 0.313109
0.061784 0.196183 0.313109
0.128419 0.203615 0.313109
0.195055 0.211046 0.313109
0.261690 0.218478 0.313109
0.328326 0.225909 0.313109
0.394961 0.233341 0.313109
0.461597 0.240773 0.313109
-0.071487 0.241760 0.320887
-0.004852 0.249191 0.320887
0.061784 0.256623 0.320887
0.128419 0.264055 0.320887
0.195055 0.271486 0.320887
0.261690 0.278918 0.320887
0.328326 0.286349 0.320887
0.394961 0.293781 0.320887
0.461597 0.301213 0.320887
-0.071487 0.302200 0.328665
-0.004852 0.309631 0.328665
0.061784 0.317063 0.328665
0.128419 0.324494 0.328665
0.195055 0.331926 0.328665
0.261690 0.339358 0.328665
0.328326 0.346789 0.328665
0.394961 0.354221 0.328665
0.461597 0.361652 0.328665
-0.071487 0.362640 0.336443
-0.004852 0.370071 0.336443
0.061784 0.377503 0.336443
0.128419 0.384934 0.336443
0.195055 0.392366 0.336443
0.261690 0.399798 0.336443
0.328326 0.407229 0.336443
0.394961 0.414661 0.336443
0.461597 0.422092 0.336443
-0.071487 0.423079 0.344221
-0.004852 0.430511 0.344221
0.061784 0.437943 0.344221
0.128419 0.445374 0.344221
0.195055 0.452806 0.344221
0.261690 0.460237 0.344221
0.328326 0.467669 0.344221
0.394961 0.475101 0.344221
0.461597 0.482532 0.344221
-0.071487 0.483519 0.351999
-0.004852 0.490951 0.351999
0.061784 0.498383 0.351999
0.128419 0.505814 0.351999
0.195055 0.513246 0.351999
0.261690 0.520677 0.351999
0.328326 0.528109 0.351999
0.394961 0.535541 0.351999
0.461597 0.542972 0.351999
-0.089172 0.000000 0.362219
-0.022537 0.007432 0.362219
0.044099 0.014863 0.362219
0.110734 0.022295 0.362219
0.177370 0.029726 0.362219
0.244005 0.037158 0.362219
0.310641 0.044590 0.362219
0.377276 0.052021 0.362219
0.443911 0.059453 0.362219
-0.089172 0.060440 0.369997
-0.022537 0.067872 0.369997
0.044099 0.075303 0.369997
0.110734 0.082735 0.369997
0.177370 0.090166 0.369997
0.244005 0.097598 0.369997
0.310641 0.105030 0.369997
0.377276 0.112461 0.369997
0.443911 0.119893 0.369997
-0.089172 0.120880 0.377775
-0.022537 0.128311 0.377775
0.044099 0.135743 0.377775
0.110734 0.143175 0.377775
0.177370 0.150606 0.377775
0.244005 0.158038 0.377775
0.310641 0.165469 0.377775
0.377276 0.172901 0.377775
0.443911 0.180333 0.377775
-0.089172 0.181320 0.385553
-0.022537 0.188751 0.385553
0.044099 0.196183 0.385553
0.110734 0.203615 0.385553
0.177370 0.211046 0.385553
0.244005 0.218478 0.385553
0.310641 0.225909 0.385553
0.377276 0.233341 0.385553
0.443911 0.240773 0.385553
-0.089172 0.241760 0.393331
-0.022537 0.249191 0.393331
0.044099 0.256623 0.393331
0.110734 0.264055 0.393331
0.177370 0.271486 0.393331
0.244005 0.278918 0.393331
0.310641 0.286349 0.393331
0.377276 0.293781 0.393331
0.443911 0.301213 0.393331
-0.089172 0.302200 0.401109
-0.022537 0.309631 0.401109
0.044099 0.317063 0.401109
0.110734 0.324494 0.401109
0.177370 0.331926 0.401109
0.244005 0.339358 0.401109
0.310641 0.346789 0.401109
0.377276 0.354221 0.401109
0.443911 0.361652 0.401109
-0.089172 0.362640 0.408887
-0.022537 0.370071 0.408887
0.044099 0.377503 0.408887
0.110734 0.384934 0.408887
0.177370 0.392366 0.408887
0.244005 0.399798 0.408887
0.310641 0.407229 0.408887
0.377276 0.414661 0.408887
0.443911 0.422092 0.408887
-0.089172 0.423079 0.416665
-0.022537 0.430511 0.416665
0.044099 0.437943 0.416665
0.110734 0.445374 0.416665
0.177370 0.452806 0.416665
0.244005 0.460237 0.416665
0.310641 0.467669 0.416665
0.377276 0.475101 0.416665
0.443911 0.482532 0.416665
-0.089172 0.483519 0.424443
-0.022537 0.490951 0.424443
0.044099 0.498383 0.424443
0.110734 0.505814 0.424443
0.177370 0.513246 0.424443
0.244005 0.520677 0.424443
0.310641 0.528109 0.424443
0.377276 0.535541 0.424443
0.443911 0.542972 0.424443
-0.106857 0.000000 0.434662
-0.040222 0.007432 0.434662
0.026414 0.014863 0.434662
0.093049 0.022295 0.434662
0.159684 0.029726 0.434662
0.226320 0.037158 0.434662
0.292955 0.044590 0.434662
0.359591 0.052021 0.434662
0.426226 0.059453 0.434662
-0.106857 0.060440 0.442440
-0.040222 0.067872 0.442440
0.026414 0.075303 0.442440
0.093049 0.082735 0.442440
0.159684 0.090166 0.442440
0.226320 0.097598 0.442440
0.292955 0.105030 0.442440
0.359591 0.112461 0.442440
0.426226 0.119893 0.442440
-0.106857 0.120880 0.450218
-0.040222 0.128311 0.450218
0.026414 0.135743 0.450218
0.093049 0.143175 0.450218
0.159684 0.150606 0.450218
0.226320 0.158038 0.450218
0.292955 0.165469 0.450218
0.359591 0.172901 0.450218
0.426226 0.180333 0.450218
-0.106857 0.181320 0.457997
-0.040222 0.188751 0.457997
0.026414 0.196183 0.457997
0.093049 0.203615 0.457997
0.159684 0.211046 0.457997
0.226320 0.218478 0.457997
0.292955 0.225909 0.457997
0.359591 0.233341 0.457997
0.426226 0.240773 0.457997
-0.106857 0.241760 0.465775
-0.040222 0.249191 0.465775
0.026414 0.256623 0.465775
0.093049 0.264055 0.465775
0.159684 0.271486 0.465775
0.226320 0.278918 0.465775
0.292955 0.286349 0.465775
0.359591 0.293781 0.465775
0.426226 0.301213 0.465775
-0.106857 0.302200 0.473553
-0.040222 0.309631 0.473553
0.026414 0.317063 0.473553
0.093049 0.324494 0.473553
0.159684 0.331926 0.473553
0.226320 0.339358 0.473553
0.292955 0.346789 0.473553
0.359591 0.354221 0.473553
0.426226 0.361652 0.473553
-0.106857 0.362640 0.481331
-0.040222 0.370071 0.481331
0.026414 0.377503 0.481331
0.093049 0.384934 0.481331
0.159684 0.392366 0.481331
0.226320 0.399798 0.481331
0.292955 0.407229 0.481331
0.359591 0.414661 0.481331
0.426226 0.422092 0.481331
-0.106857 0.423079 0.489109
-0.040222 0.430511 0.489109
0.026414 0.437943 0.489109
0.093049 0.445374 0.489109
0.159684 0.452806 0.489109
0.226320 0.460237 0.489109
0.292955 0.467669 0.489109
0.359591 0.475101 0.489109
0.426226 0.482532 0.489109
-0.106857 0.483519 0.496887
-0.040222 0.490951 0.496887
0.026414 0.498383 0.496887
0.093049 0.505814 0.496887
0.159684 0.513246 0.496887
0.226320 0.520677 0.496887
0.292955 0.528109 0.496887
0.359591 0.535541 0.496887
0.426226 0.542972 0.496887
-0.124542 0.000000 0.507106
-0.057907 0.007432 0.507106
0.008728 0.014863 0.507106
0.075364 0.022295 0.507106
0.141999 0.029726 0.507106
0.208635 0.037158 0.507106
0.275270 0.044590 0.507106
0.341906 0.052021 0.507106
0.408541 0.059453 0.507106
-0.124542 0.060440 0.514884
-0.057907 0.067872 0.514884
0.008728 0.075303 0.514884
0.075364 0.082735 0.514884
0.141999 0.090166 0.514884
0.208635 0.097598 0.514884
0.275270 0.105030 0.514884
0.341906 0.112461 0.514884
0.408541 0.119893 0.514884
-0.124542 0.120880 0.522662
-0.057907 0.128311 0.522662
0.008728 0.135743 0.522662
0.075364 0.143175 0.522662
0.141999 0.150606 0.522662
0.208635 0.158038 0.522662
0.275270 0.165469 0.522662
0.341906 0.172901 0.522662
0.408541 0.180333 0.522662
-0.124542 0.181320 0.530440
-0.057907 0.188751 0.530440
0.008728 0.196183 0.530440
0.075364 0.203615 0.530440
0.141999 0.211046 0.530440
0.208635 0.218478 0.530440
0.275270 0.225909 0.530440
0.341906 0.233341 0.530440
0.408541 0.240773 0.530440
-0.124542 0.241760 0.538218
-0.057907 0.249191 0.538218
0.008728 0.256623 0.538218
0.075364 0.264055 0.538218
0.141999 0.271486 0.538218
0.208635 0.278918 0.538218
0.275270 0.286349 0.538218
0.341906 0.293781 0.538218
0.408541 0.301213 0.538218
-0.124542 0.302200 0.545996
-0.057907 0.309631 0.545996
0.008728 0.317063 0.545996
0.075364 0.324494 0.545996
0.141999 0.331926 0.545996
0.208635 0.339358 0.545996
0.275270 0.346789 0.545996
0.341906 0.354221 0.545996
0.408541 0.361652 0.545996
-0.124542 0.362640 0.553774
-0.057907 0.370071 0.553774
0.008728 0.377503 0.553774
0.075364 0.384934 0.553774
0.141999 0.392366 0.553774
0.208635 0.399798 0.553774
0.275270 0.407229 0.553774
0.341906 0.414661 0.553774
0.408541 0.422092 0.553774
-0.124542 0.423079 0.561552
-0.057907 0.430511 0.561552
0.008728 0.437943 0.561552
0.075364 0.445374 0.561552
0.141999 0.452806 0.561552
0.208635 0.460237 0.561552
0.275270 0.467669 0.561552
0.341906 0.475101 0.561552
0.408541 0.482532 0.561552
-0.124542 0.483519 0.569331
-0.057907 0.490951 0.569331
0.008728 0.498383 0.569331
0.075364 0.505814 0.569331
0.141999 0.513246 0.569331
0.208635 0.520677 0.569331
0.275270 0.528109 0.569331
0.341906 0.535541 0.569331
0.408541 0.542972 0.569331
-0.142228 0.000000 0.579550
-0.075592 0.007432 0.579550
-0.008957 0.014863 0.579550
0.057679 0.022295 0.579550
0.124314 0.029726 0.579550
0.190950 0.037158 0.579550
0.257585 0.044590 0.579550
0.324220 0.052021 0.579550
0.390856 0.059453 0.579550
-0.142228 0.060440 0.587328
-0.075592 0.067872 0.587328
-0.008957 0.075303 0.587328
0.057679 0.082735 0.587328
0.124314 0.090166 0.587328
0.190950 0.097598 0.587328
0.257585 0.105030 0.587328
0.324220 0.112461 0.587328
0.390856 0.119893 0.587328
-0.142228 0.120880 0.595106
-0.075592 0.128311 0.595106
-0.008957 0.135743 0.595106
0.057679 0.143175 0.595106
0.124314 0.150606 0.595106
0.190950 0.158038 0.595106
0.257585 0.165469 0.595106
0.324220 0.172901 0.595106
0.390856 0.180333 0.595106
-0.142228 0.181320 0.602884
-0.075592 0.188751 0.602884
-0.008957 0.196183 0.602884
0.057679 0.203615 0.602884
0.124314 0.211046 0.602884
0.190950 0.218478 0.602884
0.257585 0.225909 0.602884
0.324220 0.233341 0.602884
0.390856 0.240773 0.602884
-0.142228 0.241760 0.610662
-0.075592 0.249191 0.610662
-0.008957 0.256623 0.610662
0.057679 0.264055 0.610662
0.124314 0.271486 0.610662
0.190950 0.278918 0.610662
0.257585 0.286349 0.610662
0.324220 0.293781 0.610662
0.390856 0.301213 0.610662
-0.142228 0.302200 0.618440
-0.075592 0.309631 0.618440
-0.008957 0.317063 0.618440
0.057679 0.324494 0.618440
0.124314 0.331926 0.618440
0.190950 0.339358 0.618440
0.257585 0.346789 0.618440
0.324220 0.354221 0.618440
0.390856 0.361652 0.618440
-0.142228 0.362640 0.626218
-0.075592 0.370071 0.626218
-0.008957 0.377503 0.626218
0.057679 0.384934 0.626218
0.124314 0.392366 0.626218
0.190950 0.399798 0.626218
0.257585 0.407229 0.626218
0.324220 0.414661 0.626218
0.390856 0.422092 0.626218
-0.142228 0.423079 0.633996
-0.075592 0.430511 0.633996
-0.008957 0.437943 0.633996
0.057679 0.445374 0.633996
0.124314 0.452806 0.633996
0.190950 0.460237 0.633996
0.257585 0.467669 0.633996
0.324220 0.475101 0.633996
0.390856 0.482532 0.633996
-0.142228 0.483519 0.641774
-0.075592 0.490951 0.641774
-0.008957 0.498383 0.641774
0.057679 0.505814 0.641774
0.124314 0.513246 0.641774
0.190950 0.520677 0.641774
0.257585 0.528109 0.641774
0.324220 0.535541 0.641774
0.390856 0.542972 0.641774
