Project/CocoaLUTTests/Test LUTs/OpenColorIO/cube/halfred_iridas.cube
# FJDK FJDSK 
TITLE "Generated by Foundry::LUT"
LUT_3D_SIZE 17
# sdfjskldf
#Default input value range (domain) is 0.0 (black) to 1.0 (white)
#Specify other min/max values to map the cube to any custom input
#range you wish to use, for example if you're working with HDR data
DOMAIN_MIN 0.0 0.0 0.0
DOMAIN_MAX 1.0 1.0 1.0
0.000000 0.000000 0.000000
0.031250 0.000000 0.000000
0.062500 0.000000 0.000000
0.093750 0.000000 0.000000
0.125000 0.000000 0.000000
0.156250 0.000000 0.000000
0.187500 0.000000 0.000000
0.218750 0.000000 0.000000
0.250000 0.000000 0.000000
0.281250 0.000000 0.000000
0.312500 0.000000 0.000000
0.343750 0.000000 0.000000
0.375000 0.000000 0.000000
0.406250 0.000000 0.000000
0.437500 0.000000 0.000000
0.468750 0.000000 0.000000
0.500000 0.000000 0.000000
0.000000 0.062500 0.000000
0.031250 0.062500 0.000000
0.062500 0.062500 0.000000
0.093750 0.062500 0.000000
0.125000 0.062500 0.000000
0.156250 0.062500 0.000000
0.187500 0.062500 0.000000
0.218750 0.062500 0.000000
0.250000 0.062500 0.000000
0.281250 0.062500 0.000000
0.312500 0.062500 0.000000
0.343750 0.062500 0.000000
0.375000 0.062500 0.000000
0.406250 0.062500 0.000000
0.437500 0.062500 0.000000
0.468750 0.062500 0.000000
0.500000 0.062500 0.000000
0.000000 0.125000 0.000000
0.031250 0.125000 0.000000
0.062500 0.125000 0.000000
0.093750 0.125000 0.000000
0.125000 0.125000 0.000000
0.156250 0.125000 0.000000
0.187500 0.125000 0.000000
0.218750 0.125000 0.000000
0.250000 0.125000 0.000000
0.281250 0.125000 0.000000
0.312500 0.125000 0.000000
0.343750 0.125000 0.000000
0.375000 0.125000 0.000000
0.406250 0.125000 0.000000
0.437500 0.125000 0.000000
0.468750 0.125000 0.000000
0.500000 0.125000 0.000000
0.000000 0.187500 0.000000
0.031250 0.187500 0.000000
0.062500 0.187500 0.000000
0.093750 0.187500 0.000000
0.125000 0.187500 0.000000
0.156250 0.187500 0.000000
0.187500 0.187500 0.000000
0.218750 0.187500 0.000000
0.250000 0.187500 0.000000
0.281250 0.187500 0.000000
0.312500 0.187500 0.000000
0.343750 0.187500 0.000000
0.375000 0.187500 0.000000
0.406250 0.187500 0.000000
0.437500 0.187500 0.000000
0.468750 0.187500 0.000000
0.500000 0.187500 0.000000
0.000000 0.250000 0.000000
0.031250 0.250000 0.000000
0.062500 0.250000 0.000000
0.093750 0.250000 0.000000
0.125000 0.250000 0.000000
0.156250 0.250000 0.000000
0.187500 0.250000 0.000000
0.218750 0.250000 0.000000
0.250000 0.250000 0.000000
0.281250 0.250000 0.000000
0.312500 0.250000 0.000000
0.343750 0.250000 0.000000
0.375000 0.250000 0.000000
0.406250 0.250000 0.000000
0.437500 0.250000 0.000000
0.468750 0.250000 0.000000
0.500000 0.250000 0.000000
0.000000 0.312500 0.000000
0.031250 0.312500 0.000000
0.062500 0.312500 0.000000
0.093750 0.312500 0.000000
0.125000 0.312500 0.000000
0.156250 0.312500 0.000000
0.187500 0.312500 0.000000
0.218750 0.312500 0.000000
0.250000 0.312500 0.000000
0.281250 0.312500 0.000000
0.312500 0.312500 0.000000
0.343750 0.312500 0.000000
0.375000 0.312500 0.000000
0.406250 0.312500 0.000000
0.437500 0.312500 0.000000
0.468750 0.312500 0.000000
0.500000 0.312500 0.000000
0.000000 0.375000 0.000000
0.031250 0.375000 0.000000
0.062500 0.375000 0.000000
0.093750 0.375000 0.000000
0.125000 0.375000 0.000000
0.156250 0.375000 0.000000
0.187500 0.375000 0.000000
0.218750 0.375000 0.000000
0.250000 0.375000 0.000000
0.281250 0.375000 0.000000
0.312500 0.375000 0.000000
0.343750 0.375000 0.000000
0.375000 0.375000 0.000000
0.406250 0.375000 0.000000
0.437500 0.375000 0.000000
0.468750 0.375000 0.000000
0.500000 0.375000 0.000000
0.000000 0.437500 0.000000
0.031250 0.437500 0.000000
0.062500 0.437500 0.000000
0.093750 0.437500 0.000000
0.125000 0.437500 0.000000
0.156250 0.437500 0.000000
0.187500 0.437500 0.000000
0.218750 0.437500 0.000000
0.250000 0.437500 0.000000
0.281250 0.437500 0.000000
0.312500 0.437500 0.000000
0.343750 0.437500 0.000000
0.375000 0.437500 0.000000
0.406250 0.437500 0.000000
0.437500 0.437500 0.000000
0.468750 0.437500 0.000000
0.500000 0.437500 0.000000
0.000000 0.500000 0.000000
0.031250 0.500000 0.000000
0.062500 0.500000 0.000000
0.093750 0.500000 0.000000
0.125000 0.500000 0.000000
0.156250 0.500000 0.000000
0.187500 0.500000 0.000000
0.218750 0.500000 0.000000
0.250000 0.500000 0.000000
0.281250 0.500000 0.000000
0.312500 0.500000 0.000000
0.343750 0.500000 0.000000
0.375000 0.500000 0.000000
0.406250 0.500000 0.000000
0.437500 0.500000 0.000000
0.468750 0.500000 0.000000
0.500000 0.500000 0.000000
0.000000 0.562500 0.000000
0.031250 0.562500 0.000000
0.062500 0.562500 0.000000
0.093750 0.562500 0.000000
0.125000 0.562500 0.000000
0.156250 0.562500 0.000000
0.187500 0.562500 0.000000
0.218750 0.562500 0.000000
0.250000 0.562500 0.000000
0.281250 0.562500 0.000000
0.312500 0.562500 0.000000
0.343750 0.562500 0.000000
0.375000 0.562500 0.000000
0.406250 0.562500 0.000000
0.437500 0.562500 0.000000
0.468750 0.562500 0.000000
0.500000 0.562500 0.000000
0.000000 0.625000 0.000000
0.031250 0.625000 0.000000
0.062500 0.625000 0.000000
0.093750 0.625000 0.000000
0.125000 0.625000 0.000000
0.156250 0.625000 0.000000
0.187500 0.625000 0.000000
0.218750 0.625000 0.000000
0.250000 0.625000 0.000000
0.281250 0.625000 0.000000
0.312500 0.625000 0.000000
0.343750 0.625000 0.000000
0.375000 0.625000 0.000000
0.406250 0.625000 0.000000
0.437500 0.625000 0.000000
0.468750 0.625000 0.000000
0.500000 0.625000 0.000000
0.000000 0.687500 0.000000
0.031250 0.687500 0.000000
0.062500 0.687500 0.000000
0.093750 0.687500 0.000000
0.125000 0.687500 0.000000
0.156250 0.687500 0.000000
0.187500 0.687500 0.000000
0.218750 0.687500 0.000000
0.250000 0.687500 0.000000
0.281250 0.687500 0.000000
0.312500 0.687500 0.000000
0.343750 0.687500 0.000000
0.375000 0.687500 0.000000
0.406250 0.687500 0.000000
0.437500 0.687500 0.000000
0.468750 0.687500 0.000000
0.500000 0.687500 0.000000
0.000000 0.750000 0.000000
0.031250 0.750000 0.000000
0.062500 0.750000 0.000000
0.093750 0.750000 0.000000
0.125000 0.750000 0.000000
0.156250 0.750000 0.000000
0.187500 0.750000 0.000000
0.218750 0.750000 0.000000
0.250000 0.750000 0.000000
0.281250 0.750000 0.000000
0.312500 0.750000 0.000000
0.343750 0.750000 0.000000
0.375000 0.750000 0.000000
0.406250 0.750000 0.000000
0.437500 0.750000 0.000000
0.468750 0.750000 0.000000
0.500000 0.750000 0.000000
0.000000 0.812500 0.000000
0.031250 0.812500 0.000000
0.062500 0.812500 0.000000
0.093750 0.812500 0.000000
0.125000 0.812500 0.000000
0.156250 0.812500 0.000000
0.187500 0.812500 0.000000
0.218750 0.812500 0.000000
0.250000 0.812500 0.000000
0.281250 0.812500 0.000000
0.312500 0.812500 0.000000
0.343750 0.812500 0.000000
0.375000 0.812500 0.000000
0.406250 0.812500 0.000000
0.437500 0.812500 0.000000
0.468750 0.812500 0.000000
0.500000 0.812500 0.000000
0.000000 0.875000 0.000000
0.031250 0.875000 0.000000
0.062500 0.875000 0.000000
0.093750 0.875000 0.000000
0.125000 0.875000 0.000000
0.156250 0.875000 0.000000
0.187500 0.875000 0.000000
0.218750 0.875000 0.000000
0.250000 0.875000 0.000000
0.281250 0.875000 0.000000
0.312500 0.875000 0.000000
0.343750 0.875000 0.000000
0.375000 0.875000 0.000000
0.406250 0.875000 0.000000
0.437500 0.875000 0.000000
0.468750 0.875000 0.000000
0.500000 0.875000 0.000000
0.000000 0.937500 0.000000
0.031250 0.937500 0.000000
0.062500 0.937500 0.000000
0.093750 0.937500 0.000000
0.125000 0.937500 0.000000
0.156250 0.937500 0.000000
0.187500 0.937500 0.000000
0.218750 0.937500 0.000000
0.250000 0.937500 0.000000
0.281250 0.937500 0.000000
0.312500 0.937500 0.000000
0.343750 0.937500 0.000000
0.375000 0.937500 0.000000
0.406250 0.937500 0.000000
0.437500 0.937500 0.000000
0.468750 0.937500 0.000000
0.500000 0.937500 0.000000
0.000000 1.000000 0.000000
0.031250 1.000000 0.000000
0.062500 1.000000 0.000000
0.093750 1.000000 0.000000
0.125000 1.000000 0.000000
0.156250 1.000000 0.000000
0.187500 1.000000 0.000000
0.218750 1.000000 0.000000
0.250000 1.000000 0.000000
0.281250 1.000000 0.000000
0.312500 1.000000 0.000000
0.343750 1.000000 0.000000
0.375000 1.000000 0.000000
0.406250 1.000000 0.000000
0.437500 1.000000 0.000000
0.468750 1.000000 0.000000
0.500000 1.000000 0.000000
0.000000 0.000000 0.062500
0.031250 0.000000 0.062500
0.062500 0.000000 0.062500
0.093750 0.000000 0.062500
0.125000 0.000000 0.062500
0.156250 0.000000 0.062500
0.187500 0.000000 0.062500
0.218750 0.000000 0.062500
0.250000 0.000000 0.062500
0.281250 0.000000 0.062500
0.312500 0.000000 0.062500
0.343750 0.000000 0.062500
0.375000 0.000000 0.062500
0.406250 0.000000 0.062500
0.437500 0.000000 0.062500
0.468750 0.000000 0.062500
0.500000 0.000000 0.062500
0.000000 0.062500 0.062500
0.031250 0.062500 0.062500
0.062500 0.062500 0.062500
0.093750 0.062500 0.062500
0.125000 0.062500 0.062500
0.156250 0.062500 0.062500
0.187500 0.062500 0.062500
0.218750 0.062500 0.062500
0.250000 0.062500 0.062500
0.281250 0.062500 0.062500
0.312500 0.062500 0.062500
0.343750 0.062500 0.062500
0.375000 0.062500 0.062500
0.406250 0.062500 0.062500
0.437500 0.062500 0.062500
0.468750 0.062500 0.062500
0.500000 0.062500 0.062500
0.000000 0.125000 0.062500
0.031250 0.125000 0.062500
0.062500 0.125000 0.062500
0.093750 0.125000 0.062500
0.125000 0.125000 0.062500
0.156250 0.125000 0.062500
0.187500 0.125000 0.062500
0.218750 0.125000 0.062500
0.250000 0.125000 0.062500
0.281250 0.125000 0.062500
0.312500 0.125000 0.062500
0.343750 0.125000 0.062500
0.375000 0.125000 0.062500
0.406250 0.125000 0.062500
0.437500 0.125000 0.062500
0.468750 0.125000 0.062500
0.500000 0.125000 0.062500
0.000000 0.187500 0.062500
0.031250 0.187500 0.062500
0.062500 0.187500 0.062500
0.093750 0.187500 0.062500
0.125000 0.187500 0.062500
0.156250 0.187500 0.062500
0.187500 0.187500 0.062500
0.218750 0.187500 0.062500
0.250000 0.187500 0.062500
0.281250 0.187500 0.062500
0.312500 0.187500 0.062500
0.343750 0.187500 0.062500
0.375000 0.187500 0.062500
0.406250 0.187500 0.062500
0.437500 0.187500 0.062500
0.468750 0.187500 0.062500
0.500000 0.187500 0.062500
0.000000 0.250000 0.062500
0.031250 0.250000 0.062500
0.062500 0.250000 0.062500
0.093750 0.250000 0.062500
0.125000 0.250000 0.062500
0.156250 0.250000 0.062500
0.187500 0.250000 0.062500
0.218750 0.250000 0.062500
0.250000 0.250000 0.062500
0.281250 0.250000 0.062500
0.312500 0.250000 0.062500
0.343750 0.250000 0.062500
0.375000 0.250000 0.062500
0.406250 0.250000 0.062500
0.437500 0.250000 0.062500
0.468750 0.250000 0.062500
0.500000 0.250000 0.062500
0.000000 0.312500 0.062500
0.031250 0.312500 0.062500
0.062500 0.312500 0.062500
0.093750 0.312500 0.062500
0.125000 0.312500 0.062500
0.156250 0.312500 0.062500
0.187500 0.312500 0.062500
0.218750 0.312500 0.062500
0.250000 0.312500 0.062500
0.281250 0.312500 0.062500
0.312500 0.312500 0.062500
0.343750 0.312500 0.062500
0.375000 0.312500 0.062500
0.406250 0.312500 0.062500
0.437500 0.312500 0.062500
0.468750 0.312500 0.062500
0.500000 0.312500 0.062500
0.000000 0.375000 0.062500
0.031250 0.375000 0.062500
0.062500 0.375000 0.062500
0.093750 0.375000 0.062500
0.125000 0.375000 0.062500
0.156250 0.375000 0.062500
0.187500 0.375000 0.062500
0.218750 0.375000 0.062500
0.250000 0.375000 0.062500
0.281250 0.375000 0.062500
0.312500 0.375000 0.062500
0.343750 0.375000 0.062500
0.375000 0.375000 0.062500
0.406250 0.375000 0.062500
0.437500 0.375000 0.062500
0.468750 0.375000 0.062500
0.500000 0.375000 0.062500
0.000000 0.437500 0.062500
0.031250 0.437500 0.062500
0.062500 0.437500 0.062500
0.093750 0.437500 0.062500
0.125000 0.437500 0.062500
0.156250 0.437500 0.062500
0.187500 0.437500 0.062500
0.218750 0.437500 0.062500
0.250000 0.437500 0.062500
0.281250 0.437500 0.062500
0.312500 0.437500 0.062500
0.343750 0.437500 0.062500
0.375000 0.437500 0.062500
0.406250 0.437500 0.062500
0.437500 0.437500 0.062500
0.468750 0.437500 0.062500
0.500000 0.437500 0.062500
0.000000 0.500000 0.062500
0.031250 0.500000 0.062500
0.062500 0.500000 0.062500
0.093750 0.500000 0.062500
0.125000 0.500000 0.062500
0.156250 0.500000 0.062500
0.187500 0.500000 0.062500
0.218750 0.500000 0.062500
0.250000 0.500000 0.062500
0.281250 0.500000 0.062500
0.312500 0.500000 0.062500
0.343750 0.500000 0.062500
0.375000 0.500000 0.062500
0.406250 0.500000 0.062500
0.437500 0.500000 0.062500
0.468750 0.500000 0.062500
0.500000 0.500000 0.062500
0.000000 0.562500 0.062500
0.031250 0.562500 0.062500
0.062500 0.562500 0.062500
0.093750 0.562500 0.062500
0.125000 0.562500 0.062500
0.156250 0.562500 0.062500
0.187500 0.562500 0.062500
0.218750 0.562500 0.062500
0.250000 0.562500 0.062500
0.281250 0.562500 0.062500
0.312500 0.562500 0.062500
0.343750 0.562500 0.062500
0.375000 0.562500 0.062500
0.406250 0.562500 0.062500
0.437500 0.562500 0.062500
0.468750 0.562500 0.062500
0.500000 0.562500 0.062500
0.000000 0.625000 0.062500
0.031250 0.625000 0.062500
0.062500 0.625000 0.062500
0.093750 0.625000 0.062500
0.125000 0.625000 0.062500
0.156250 0.625000 0.062500
0.187500 0.625000 0.062500
0.218750 0.625000 0.062500
0.250000 0.625000 0.062500
0.281250 0.625000 0.062500
0.312500 0.625000 0.062500
0.343750 0.625000 0.062500
0.375000 0.625000 0.062500
0.406250 0.625000 0.062500
0.437500 0.625000 0.062500
0.468750 0.625000 0.062500
0.500000 0.625000 0.062500
0.000000 0.687500 0.062500
0.031250 0.687500 0.062500
0.062500 0.687500 0.062500
0.093750 0.687500 0.062500
0.125000 0.687500 0.062500
0.156250 0.687500 0.062500
0.187500 0.687500 0.062500
0.218750 0.687500 0.062500
0.250000 0.687500 0.062500
0.281250 0.687500 0.062500
0.312500 0.687500 0.062500
0.343750 0.687500 0.062500
0.375000 0.687500 0.062500
0.406250 0.687500 0.062500
0.437500 0.687500 0.062500
0.468750 0.687500 0.062500
0.500000 0.687500 0.062500
0.000000 0.750000 0.062500
0.031250 0.750000 0.062500
0.062500 0.750000 0.062500
0.093750 0.750000 0.062500
0.125000 0.750000 0.062500
0.156250 0.750000 0.062500
0.187500 0.750000 0.062500
0.218750 0.750000 0.062500
0.250000 0.750000 0.062500
0.281250 0.750000 0.062500
0.312500 0.750000 0.062500
0.343750 0.750000 0.062500
0.375000 0.750000 0.062500
0.406250 0.750000 0.062500
0.437500 0.750000 0.062500
0.468750 0.750000 0.062500
0.500000 0.750000 0.062500
0.000000 0.812500 0.062500
0.031250 0.812500 0.062500
0.062500 0.812500 0.062500
0.093750 0.812500 0.062500
0.125000 0.812500 0.062500
0.156250 0.812500 0.062500
0.187500 0.812500 0.062500
0.218750 0.812500 0.062500
0.250000 0.812500 0.062500
0.281250 0.812500 0.062500
0.312500 0.812500 0.062500
0.343750 0.812500 0.062500
0.375000 0.812500 0.062500
0.406250 0.812500 0.062500
0.437500 0.812500 0.062500
0.468750 0.812500 0.062500
0.500000 0.812500 0.062500
0.000000 0.875000 0.062500
0.031250 0.875000 0.062500
0.062500 0.875000 0.062500
0.093750 0.875000 0.062500
0.125000 0.875000 0.062500
0.156250 0.875000 0.062500
0.187500 0.875000 0.062500
0.218750 0.875000 0.062500
0.250000 0.875000 0.062500
0.281250 0.875000 0.062500
0.312500 0.875000 0.062500
0.343750 0.875000 0.062500
0.375000 0.875000 0.062500
0.406250 0.875000 0.062500
0.437500 0.875000 0.062500
0.468750 0.875000 0.062500
0.500000 0.875000 0.062500
0.000000 0.937500 0.062500
0.031250 0.937500 0.062500
0.062500 0.937500 0.062500
0.093750 0.937500 0.062500
0.125000 0.937500 0.062500
0.156250 0.937500 0.062500
0.187500 0.937500 0.062500
0.218750 0.937500 0.062500
0.250000 0.937500 0.062500
0.281250 0.937500 0.062500
0.312500 0.937500 0.062500
0.343750 0.937500 0.062500
0.375000 0.937500 0.062500
0.406250 0.937500 0.062500
0.437500 0.937500 0.062500
0.468750 0.937500 0.062500
0.500000 0.937500 0.062500
0.000000 1.000000 0.062500
0.031250 1.000000 0.062500
0.062500 1.000000 0.062500
0.093750 1.000000 0.062500
0.125000 1.000000 0.062500
0.156250 1.000000 0.062500
0.187500 1.000000 0.062500
0.218750 1.000000 0.062500
0.250000 1.000000 0.062500
0.281250 1.000000 0.062500
0.312500 1.000000 0.062500
0.343750 1.000000 0.062500
0.375000 1.000000 0.062500
0.406250 1.000000 0.062500
0.437500 1.000000 0.062500
0.468750 1.000000 0.062500
0.500000 1.000000 0.062500
0.000000 0.000000 0.125000
0.031250 0.000000 0.125000
0.062500 0.000000 0.125000
0.093750 0.000000 0.125000
0.125000 0.000000 0.125000
0.156250 0.000000 0.125000
0.187500 0.000000 0.125000
0.218750 0.000000 0.125000
0.250000 0.000000 0.125000
0.281250 0.000000 0.125000
0.312500 0.000000 0.125000
0.343750 0.000000 0.125000
0.375000 0.000000 0.125000
0.406250 0.000000 0.125000
0.437500 0.000000 0.125000
0.468750 0.000000 0.125000
0.500000 0.000000 0.125000
0.000000 0.062500 0.125000
0.031250 0.062500 0.125000
0.062500 0.062500 0.125000
0.093750 0.062500 0.125000
0.125000 0.062500 0.125000
0.156250 0.062500 0.125000
0.187500 0.062500 0.125000
0.218750 0.062500 0.125000
0.250000 0.062500 0.125000
0.281250 0.062500 0.125000
0.312500 0.062500 0.125000
0.343750 0.062500 0.125000
0.375000 0.062500 0.125000
0.406250 0.062500 0.125000
0.437500 0.062500 0.125000
0.468750 0.062500 0.125000
0.500000 0.062500 0.125000
0.000000 0.125000 0.125000
0.031250 0.125000 0.125000
0.062500 0.125000 0.125000
0.093750 0.125000 0.125000
0.125000 0.125000 0.125000
0.156250 0.125000 0.125000
0.187500 0.125000 0.125000
0.218750 0.125000 0.125000
0.250000 0.125000 0.125000
0.281250 0.125000 0.125000
0.312500 0.125000 0.125000
0.343750 0.125000 0.125000
0.375000 0.125000 0.125000
0.406250 0.125000 0.125000
0.437500 0.125000 0.125000
0.468750 0.125000 0.125000
0.500000 0.125000 0.125000
0.000000 0.187500 0.125000
0.031250 0.187500 0.125000
0.062500 0.187500 0.125000
0.093750 0.187500 0.125000
0.125000 0.187500 0.125000
0.156250 0.187500 0.125000
0.187500 0.187500 0.125000
0.218750 0.187500 0.125000
0.250000 0.187500 0.125000
0.281250 0.187500 0.125000
0.312500 0.187500 0.125000
0.343750 0.187500 0.125000
0.375000 0.187500 0.125000
0.406250 0.187500 0.125000
0.437500 0.187500 0.125000
0.468750 0.187500 0.125000
0.500000 0.187500 0.125000
0.000000 0.250000 0.125000
0.031250 0.250000 0.125000
0.062500 0.250000 0.125000
0.093750 0.250000 0.125000
0.125000 0.250000 0.125000
0.156250 0.250000 0.125000
0.187500 0.250000 0.125000
0.218750 0.250000 0.125000
0.250000 0.250000 0.125000
0.281250 0.250000 0.125000
0.312500 0.250000 0.125000
0.343750 0.250000 0.125000
0.375000 0.250000 0.125000
0.406250 0.250000 0.125000
0.437500 0.250000 0.125000
0.468750 0.250000 0.125000
0.500000 0.250000 0.125000
0.000000 0.312500 0.125000
0.031250 0.312500 0.125000
0.062500 0.312500 0.125000
0.093750 0.312500 0.125000
0.125000 0.312500 0.125000
0.156250 0.312500 0.125000
0.187500 0.312500 0.125000
0.218750 0.312500 0.125000
0.250000 0.312500 0.125000
0.281250 0.312500 0.125000
0.312500 0.312500 0.125000
0.343750 0.312500 0.125000
0.375000 0.312500 0.125000
0.406250 0.312500 0.125000
0.437500 0.312500 0.125000
0.468750 0.312500 0.125000
0.500000 0.312500 0.125000
0.000000 0.375000 0.125000
0.031250 0.375000 0.125000
0.062500 0.375000 0.125000
0.093750 0.375000 0.125000
0.125000 0.375000 0.125000
0.156250 0.375000 0.125000
0.187500 0.375000 0.125000
0.218750 0.375000 0.125000
0.250000 0.375000 0.125000
0.281250 0.375000 0.125000
0.312500 0.375000 0.125000
0.343750 0.375000 0.125000
0.375000 0.375000 0.125000
0.406250 0.375000 0.125000
0.437500 0.375000 0.125000
0.468750 0.375000 0.125000
0.500000 0.375000 0.125000
0.000000 0.437500 0.125000
0.031250 0.437500 0.125000
0.062500 0.437500 0.125000
0.093750 0.437500 0.125000
0.125000 0.437500 0.125000
0.156250 0.437500 0.125000
0.187500 0.437500 0.125000
0.218750 0.437500 0.125000
0.250000 0.437500 0.125000
0.281250 0.437500 0.125000
0.312500 0.437500 0.125000
0.343750 0.437500 0.125000
0.375000 0.437500 0.125000
0.406250 0.437500 0.125000
0.437500 0.437500 0.125000
0.468750 0.437500 0.125000
0.500000 0.437500 0.125000
0.000000 0.500000 0.125000
0.031250 0.500000 0.125000
0.062500 0.500000 0.125000
0.093750 0.500000 0.125000
0.125000 0.500000 0.125000
0.156250 0.500000 0.125000
0.187500 0.500000 0.125000
0.218750 0.500000 0.125000
0.250000 0.500000 0.125000
0.281250 0.500000 0.125000
0.312500 0.500000 0.125000
0.343750 0.500000 0.125000
0.375000 0.500000 0.125000
0.406250 0.500000 0.125000
0.437500 0.500000 0.125000
0.468750 0.500000 0.125000
0.500000 0.500000 0.125000
0.000000 0.562500 0.125000
0.031250 0.562500 0.125000
0.062500 0.562500 0.125000
0.093750 0.562500 0.125000
0.125000 0.562500 0.125000
0.156250 0.562500 0.125000
0.187500 0.562500 0.125000
0.218750 0.562500 0.125000
0.250000 0.562500 0.125000
0.281250 0.562500 0.125000
0.312500 0.562500 0.125000
0.343750 0.562500 0.125000
0.375000 0.562500 0.125000
0.406250 0.562500 0.125000
0.437500 0.562500 0.125000
0.468750 0.562500 0.125000
0.500000 0.562500 0.125000
0.000000 0.625000 0.125000
0.031250 0.625000 0.125000
0.062500 0.625000 0.125000
0.093750 0.625000 0.125000
0.125000 0.625000 0.125000
0.156250 0.625000 0.125000
0.187500 0.625000 0.125000
0.218750 0.625000 0.125000
0.250000 0.625000 0.125000
0.281250 0.625000 0.125000
0.312500 0.625000 0.125000
0.343750 0.625000 0.125000
0.375000 0.625000 0.125000
0.406250 0.625000 0.125000
0.437500 0.625000 0.125000
0.468750 0.625000 0.125000
0.500000 0.625000 0.125000
0.000000 0.687500 0.125000
0.031250 0.687500 0.125000
0.062500 0.687500 0.125000
0.093750 0.687500 0.125000
0.125000 0.687500 0.125000
0.156250 0.687500 0.125000
0.187500 0.687500 0.125000
0.218750 0.687500 0.125000
0.250000 0.687500 0.125000
0.281250 0.687500 0.125000
0.312500 0.687500 0.125000
0.343750 0.687500 0.125000
0.375000 0.687500 0.125000
0.406250 0.687500 0.125000
0.437500 0.687500 0.125000
0.468750 0.687500 0.125000
0.500000 0.687500 0.125000
0.000000 0.750000 0.125000
0.031250 0.750000 0.125000
0.062500 0.750000 0.125000
0.093750 0.750000 0.125000
0.125000 0.750000 0.125000
0.156250 0.750000 0.125000
0.187500 0.750000 0.125000
0.218750 0.750000 0.125000
0.250000 0.750000 0.125000
0.281250 0.750000 0.125000
0.312500 0.750000 0.125000
0.343750 0.750000 0.125000
0.375000 0.750000 0.125000
0.406250 0.750000 0.125000
0.437500 0.750000 0.125000
0.468750 0.750000 0.125000
0.500000 0.750000 0.125000
0.000000 0.812500 0.125000
0.031250 0.812500 0.125000
0.062500 0.812500 0.125000
0.093750 0.812500 0.125000
0.125000 0.812500 0.125000
0.156250 0.812500 0.125000
0.187500 0.812500 0.125000
0.218750 0.812500 0.125000
0.250000 0.812500 0.125000
0.281250 0.812500 0.125000
0.312500 0.812500 0.125000
0.343750 0.812500 0.125000
0.375000 0.812500 0.125000
0.406250 0.812500 0.125000
0.437500 0.812500 0.125000
0.468750 0.812500 0.125000
0.500000 0.812500 0.125000
0.000000 0.875000 0.125000
0.031250 0.875000 0.125000
0.062500 0.875000 0.125000
0.093750 0.875000 0.125000
0.125000 0.875000 0.125000
0.156250 0.875000 0.125000
0.187500 0.875000 0.125000
0.218750 0.875000 0.125000
0.250000 0.875000 0.125000
0.281250 0.875000 0.125000
0.312500 0.875000 0.125000
0.343750 0.875000 0.125000
0.375000 0.875000 0.125000
0.406250 0.875000 0.125000
0.437500 0.875000 0.125000
0.468750 0.875000 0.125000
0.500000 0.875000 0.125000
0.000000 0.937500 0.125000
0.031250 0.937500 0.125000
0.062500 0.937500 0.125000
0.093750 0.937500 0.125000
0.125000 0.937500 0.125000
0.156250 0.937500 0.125000
0.187500 0.937500 0.125000
0.218750 0.937500 0.125000
0.250000 0.937500 0.125000
0.281250 0.937500 0.125000
0.312500 0.937500 0.125000
0.343750 0.937500 0.125000
0.375000 0.937500 0.125000
0.406250 0.937500 0.125000
0.437500 0.937500 0.125000
0.468750 0.937500 0.125000
0.500000 0.937500 0.125000
0.000000 1.000000 0.125000
0.031250 1.000000 0.125000
0.062500 1.000000 0.125000
0.093750 1.000000 0.125000
0.125000 1.000000 0.125000
0.156250 1.000000 0.125000
0.187500 1.000000 0.125000
0.218750 1.000000 0.125000
0.250000 1.000000 0.125000
0.281250 1.000000 0.125000
0.312500 1.000000 0.125000
0.343750 1.000000 0.125000
0.375000 1.000000 0.125000
0.406250 1.000000 0.125000
0.437500 1.000000 0.125000
0.468750 1.000000 0.125000
0.500000 1.000000 0.125000
0.000000 0.000000 0.187500
0.031250 0.000000 0.187500
0.062500 0.000000 0.187500
0.093750 0.000000 0.187500
0.125000 0.000000 0.187500
0.156250 0.000000 0.187500
0.187500 0.000000 0.187500
0.218750 0.000000 0.187500
0.250000 0.000000 0.187500
0.281250 0.000000 0.187500
