Project/CocoaLUTTests/Test LUTs/OpenColorIO/cube/halfred_iridas.cube
# FJDK FJDSK 
TITLE "Generated by Foundry::LUT"
LUT_3D_SIZE 9
# sdfjskldf
#Default input value range (domain) is 0.0 (black) to 1.0 (white)
#Specify other min/max values to map the cube to any custom input
#range you wish to use, for example if you're working with HDR data
DOMAIN_MIN 0.0 0.0 0.0
DOMAIN_MAX 1.0 1.0 1.0
0.000000 0.000000 0.000000
0.062500 0.000000 0.000000
0.125000 0.000000 0.000000
0.187500 0.000000 0.000000
0.250000 0.000000 0.000000
0.312500 0.000000 0.000000
0.375000 0.000000 0.000000
0.437500 0.000000 0.000000
0.500000 0.000000 0.000000
0.000000 0.125000 0.000000
0.062500 0.125000 0.000000
0.125000 0.125000 0.000000
0.187500 0.125000 0.000000
0.250000 0.125000 0.000000
0.312500 0.125000 0.000000
0.375000 0.125000 0.000000
0.437500 0.125000 0.000000
0.500000 0.125000 0.000000
0.000000 0.250000 0.000000
0.062500 0.250000 0.000000
0.125000 0.250000 0.000000
0.187500 0.250000 0.000000
0.250000 0.250000 0.000000
0.312500 0.250000 0.000000
0.375000 0.250000 0.000000
0.437500 0.250000 0.000000
0.500000 0.250000 0.000000
0.000000 0.375000 0.000000
0.062500 0.375000 0.000000
0.125000 0.375000 0.000000
0.187500 0.375000 0.000000
0.250000 0.375000 0.000000
0.312500 0.375000 0.000000
0.375000 0.375000 0.000000
0.437500 0.375000 0.000000
0.500000 0.375000 0.000000
0.000000 0.500000 0.000000
0.062500 0.500000 0.000000
0.125000 0.500000 0.000000
0.187500 0.500000 0.000000
0.250000 0.500000 0.000000
0.312500 0.500000 0.000000
0.375000 0.500000 0.000000
0.437500 0.500000 0.000000
0.500000 0.500000 0.000000
0.000000 0.625000 0.000000
0.062500 0.625000 0.000000
0.125000 0.625000 0.000000
0.187500 0.625000 0.000000
0.250000 0.625000 0.000000
0.312500 0.625000 0.000000
0.375000 0.625000 0.000000
0.437500 0.625000 0.000000
0.500000 0.625000 0.000000
0.000000 0.750000 0.000000
0.062500 0.750000 0.000000
0.125000 0.750000 0.000000
0.187500 0.750000 0.000000
0.250000 0.750000 0.000000
0.312500 0.750000 0.000000
0.375000 0.750000 0.000000
0.437500 0.750000 0.000000
0.500000 0.750000 0.000000
0.000000 0.875000 0.000000
0.062500 0.875000 0.000000
0.125000 0.875000 0.000000
0.187500 0.875000 0.000000
0.250000 0.875000 0.000000
0.312500 0.875000 0.000000
0.375000 0.875000 0.000000
0.437500 0.875000 0.000000
0.500000 0.875000 0.000000
0.000000 1.000000 0.000000
0.062500 1.000000 0.000000
0.125000 1.000000 0.000000
0.187500 1.000000 0.000000
0.250000 1.000000 0.000000
0.312500 1.000000 0.000000
0.375000 1.000000 0.000000
0.437500 1.000000 0.000000
0.500000 1.000000 0.000000
0.000000 0.000000 0.125000
0.062500 0.000000 0.125000
0.125000 0.000000 0.125000
0.187500 0.000000 0.125000
0.250000 0.000000 0.125000
0.312500 0.000000 0.125000
0.375000 0.000000 0.125000
0.437500 0.000000 0.125000
0.500000 0.000000 0.125000
0.000000 0.125000 0.125000
0.062500 0.125000 0.125000
0.125000 0.125000 0.125000
0.187500 0.125000 0.125000
0.250000 0.125000 0.125000
0.312500 0.125000 0.125000
0.375000 0.125000 0.125000
0.437500 0.125000 0.125000
0.500000 0.125000 0.125000
0.000000 0.250000 0.125000
0.062500 0.250000 0.125000
0.125000 0.250000 0.125000
0.187500 0.250000 0.125000
0.250000 0.250000 0.125000
0.312500 0.250000 0.125000
0.375000 0.250000 0.125000
0.437500 0.250000 0.125000
0.500000 0.250000 0.125000
0.000000 0.375000 0.125000
0.062500 0.375000 0.125000
0.125000 0.375000 0.125000
0.187500 0.375000 0.125000
0.250000 0.375000 0.125000
0.312500 0.375000 0.125000
0.375000 0.375000 0.125000
0.437500 0.375000 0.125000
0.500000 0.375000 0.125000
0.000000 0.500000 0.125000
0.062500 0.500000 0.125000
0.125000 0.500000 0.125000
0.187500 0.500000 0.125000
0.250000 0.500000 0.125000
0.312500 0.500000 0.125000
0.375000 0.500000 0.125000
0.437500 0.500000 0.125000
0.500000 0.500000 0.125000
0.000000 0.625000 0.125000
0.062500 0.625000 0.125000
0.125000 0.625000 0.125000
0.187500 0.625000 0.125000
0.250000 0.625000 0.125000
0.312500 0.625000 0.125000
0.375000 0.625000 0.125000
0.437500 0.625000 0.125000
0.500000 0.625000 0.125000
0.000000 0.750000 0.125000
0.062500 0.750000 0.125000
0.125000 0.750000 0.125000
0.187500 0.750000 0.125000
0.250000 0.750000 0.125000
0.312500 0.750000 0.125000
0.375000 0.750000 0.125000
0.437500 0.750000 0.125000
0.500000 0.750000 0.125000
0.000000 0.875000 0.125000
0.062500 0.875000 0.125000
0.125000 0.875000 0.125000
0.187500 0.875000 0.125000
0.250000 0.875000 0.125000
0.312500 0.875000 0.125000
0.375000 0.875000 0.125000
0.437500 0.875000 0.125000
0.500000 0.875000 0.125000
0.000000 1.000000 0.125000
0.062500 1.000000 0.125000
0.125000 1.000000 0.125000
0.187500 1.000000 0.125000
0.250000 1.000000 0.125000
0.312500 1.000000 0.125000
0.375000 1.000000 0.125000
0.437500 1.000000 0.125000
0.500000 1.000000 0.125000
0.000000 0.000000 0.250000
0.062500 0.000000 0.250000
0.125000 0.000000 0.250000
0.187500 0.000000 0.250000
0.250000 0.000000 0.250000
0.312500 0.000000 0.250000
0.375000 0.000000 0.250000
0.437500 0.000000 0.250000
0.500000 0.000000 0.250000
0.000000 0.125000 0.250000
0.062500 0.125000 0.250000
0.125000 0.125000 0.250000
0.187500 0.125000 0.250000
0.250000 0.125000 0.250000
0.312500 0.125000 0.250000
0.375000 0.125000 0.250000
0.437500 0.125000 0.250000
0.500000 0.125000 0.250000
0.000000 0.250000 0.250000
0.062500 0.250000 0.250000
0.125000 0.250000 0.250000
0.187500 0.250000 0.250000
0.250000 0.250000 0.250000
0.312500 0.250000 0.250000
0.375000 0.250000 0.250000
0.437500 0.250000 0.250000
0.500000 0.250000 0.250000
0.000000 0.375000 0.250000
0.062500 0.375000 0.250000
0.125000 0.375000 0.250000
0.187500 0.375000 0.250000
0.250000 0.375000 0.250000
0.312500 0.375000 0.250000
0.375000 0.375000 0.250000
0.437500 0.375000 0.250000
0.500000 0.375000 0.250000
0.000000 0.500000 0.250000
0.062500 0.500000 0.250000
0.125000 0.500000 0.250000
0.187500 0.500000 0.250000
0.250000 0.500000 0.250000
0.312500 0.500000 0.250000
0.375000 0.500000 0.250000
0.437500 0.500000 0.250000
0.500000 0.500000 0.250000
0.000000 0.625000 0.250000
0.062500 0.625000 0.250000
0.125000 0.625000 0.250000
0.187500 0.625000 0.250000
0.250000 0.625000 0.250000
0.312500 0.625000 0.250000
0.375000 0.625000 0.250000
0.437500 0.625000 0.250000
0.500000 0.625000 0.250000
0.000000 0.750000 0.250000
0.062500 0.750000 0.250000
0.125000 0.750000 0.250000
0.187500 0.750000 0.250000
0.250000 0.750000 0.250000
0.312500 0.750000 0.250000
0.375000 0.750000 0.250000
0.437500 0.750000 0.250000
0.500000 0.750000 0.250000
0.000000 0.875000 0.250000
0.062500 0.875000 0.250000
0.125000 0.875000 0.250000
0.187500 0.875000 0.250000
0.250000 0.875000 0.250000
0.312500 0.875000 0.250000
0.375000 0.875000 0.250000
0.437500 0.875000 0.250000
0.500000 0.875000 0.250000
0.000000 1.000000 0.250000
0.062500 1.000000 0.250000
0.125000 1.000000 0.250000
0.187500 1.000000 0.250000
0.250000 1.000000 0.250000
0.312500 1.000000 0.250000
0.375000 1.000000 0.250000
0.437500 1.000000 0.250000
0.500000 1.000000 0.250000
0.000000 0.000000 0.375000
0.062500 0.000000 0.375000
0.125000 0.000000 0.375000
0.187500 0.000000 0.375000
0.250000 0.000000 0.375000
0.312500 0.000000 0.375000
0.375000 0.000000 0.375000
0.437500 0.000000 0.375000
0.500000 0.000000 0.375000
0.000000 0.125000 0.375000
0.062500 0.125000 0.375000
0.125000 0.125000 0.375000
0.187500 0.125000 0.375000
0.250000 0.125000 0.375000
0.312500 0.125000 0.375000
0.375000 0.125000 0.375000
0.437500 0.125000 0.375000
0.500000 0.125000 0.375000
0.000000 0.250000 0.375000
0.062500 0.250000 0.375000
0.125000 0.250000 0.375000
0.187500 0.250000 0.375000
0.250000 0.250000 0.375000
0.312500 0.250000 0.375000
0.375000 0.250000 0.375000
0.437500 0.250000 0.375000
0.500000 0.250000 0.375000
0.000000 0.375000 0.375000
0.062500 0.375000 0.375000
0.125000 0.375000 0.375000
0.187500 0.375000 0.375000
0.250000 0.375000 0.375000
0.312500 0.375000 0.375000
0.375000 0.375000 0.375000
0.437500 0.375000 0.375000
0.500000 0.375000 0.375000
0.000000 0.500000 0.375000
0.062500 0.500000 0.375000
0.125000 0.500000 0.375000
0.187500 0.500000 0.375000
0.250000 0.500000 0.375000
0.312500 0.500000 0.375000
0.375000 0.500000 0.375000
0.437500 0.500000 0.375000
0.500000 0.500000 0.375000
0.000000 0.625000 0.375000
0.062500 0.625000 0.375000
0.125000 0.625000 0.375000
0.187500 0.625000 0.375000
0.250000 0.625000 0.375000
0.312500 0.625000 0.375000
0.375000 0.625000 0.375000
0.437500 0.625000 0.375000
0.500000 0.625000 0.375000
0.000000 0.750000 0.375000
0.062500 0.750000 0.375000
0.125000 0.750000 0.375000
0.187500 0.750000 0.375000
0.250000 0.750000 0.375000
0.312500 0.750000 0.375000
0.375000 0.750000 0.375000
0.437500 0.750000 0.375000
0.500000 0.750000 0.375000
0.000000 0.875000 0.375000
0.062500 0.875000 0.375000
0.125000 0.875000 0.375000
0.187500 0.875000 0.375000
0.250000 0.875000 0.375000
0.312500 0.875000 0.375000
0.375000 0.875000 0.375000
0.437500 0.875000 0.375000
0.500000 0.875000 0.375000
0.000000 1.000000 0.375000
0.062500 1.000000 0.375000
0.125000 1.000000 0.375000
0.187500 1.000000 0.375000
0.250000 1.000000 0.375000
0.312500 1.000000 0.375000
0.375000 1.000000 0.375000
0.437500 1.000000 0.375000
0.500000 1.000000 0.375000
0.000000 0.000000 0.500000
0.062500 0.000000 0.500000
0.125000 0.000000 0.500000
0.187500 0.000000 0.500000
0.250000 0.000000 0.500000
0.312500 0.000000 0.500000
0.375000 0.000000 0.500000
0.437500 0.000000 0.500000
0.500000 0.000000 0.500000
0.000000 0.125000 0.500000
0.062500 0.125000 0.500000
0.125000 0.125000 0.500000
0.187500 0.125000 0.500000
0.250000 0.125000 0.500000
0.312500 0.125000 0.500000
0.375000 0.125000 0.500000
0.437500 0.125000 0.500000
0.500000 0.125000 0.500000
0.000000 0.250000 0.500000
0.062500 0.250000 0.500000
0.125000 0.250000 0.500000
0.187500 0.250000 0.500000
0.250000 0.250000 0.500000
0.312500 0.250000 0.500000
0.375000 0.250000 0.500000
0.437500 0.250000 0.500000
0.500000 0.250000 0.500000
0.000000 0.375000 0.500000
0.062500 0.375000 0.500000
0.125000 0.375000 0.500000
0.187500 0.375000 0.500000
0.250000 0.375000 0.500000
0.312500 0.375000 0.500000
0.375000 0.375000 0.500000
0.437500 0.375000 0.500000
0.500000 0.375000 0.500000
0.000000 0.500000 0.500000
0.062500 0.500000 0.500000
0.125000 0.500000 0.500000
0.187500 0.500000 0.500000
0.250000 0.500000 0.500000
0.312500 0.500000 0.500000
0.375000 0.500000 0.500000
0.437500 0.500000 0.500000
0.500000 0.500000 0.500000
0.000000 0.625000 0.500000
0.062500 0.625000 0.500000
0.125000 0.625000 0.500000
0.187500 0.625000 0.500000
0.250000 0.625000 0.500000
0.312500 0.625000 0.500000
0.375000 0.625000 0.500000
0.437500 0.625000 0.500000
0.500000 0.625000 0.500000
0.000000 0.750000 0.500000
0.062500 0.750000 0.500000
0.125000 0.750000 0.500000
0.187500 0.750000 0.500000
0.250000 0.750000 0.500000
0.312500 0.750000 0.500000
0.375000 0.750000 0.500000
0.437500 0.750000 0.500000
0.500000 0.750000 0.500000
0.000000 0.875000 0.500000
0.062500 0.875000 0.500000
0.125000 0.875000 0.500000
0.187500 0.875000 0.500000
0.250000 0.875000 0.500000
0.312500 0.875000 0.500000
0.375000 0.875000 0.500000
0.437500 0.875000 0.500000
0.500000 0.875000 0.500000
0.000000 1.000000 0.500000
0.062500 1.000000 0.500000
0.125000 1.000000 0.500000
0.187500 1.000000 0.500000
0.250000 1.000000 0.500000
0.312500 1.000000 0.500000
0.375000 1.000000 0.500000
0.437500 1.000000 0.500000
0.500000 1.000000 0.500000
0.000000 0.000000 0.625000
0.062500 0.000000 0.625000
0.125000 0.000000 0.625000
0.187500 0.000000 0.625000
0.250000 0.000000 0.625000
0.312500 0.000000 0.625000
0.375000 0.000000 0.625000
0.437500 0.000000 0.625000
0.500000 0.000000 0.625000
0.000000 0.125000 0.625000
0.062500 0.125000 0.625000
0.125000 0.125000 0.625000
0.187500 0.125000 0.625000
0.250000 0.125000 0.625000
0.312500 0.125000 0.625000
0.375000 0.125000 0.625000
0.437500 0.125000 0.625000
0.500000 0.125000 0.625000
0.000000 0.250000 0.625000
0.062500 0.250000 0.625000
0.125000 0.250000 0.625000
0.187500 0.250000 0.625000
0.250000 0.250000 0.625000
0.312500 0.250000 0.625000
0.375000 0.250000 0.625000
0.437500 0.250000 0.625000
0.500000 0.250000 0.625000
0.000000 0.375000 0.625000
0.062500 0.375000 0.625000
0.125000 0.375000 0.625000
0.187500 0.375000 0.625000
0.250000 0.375000 0.625000
0.312500 0.375000 0.625000
0.375000 0.375000 0.625000
0.437500 0.375000 0.625000
0.500000 0.375000 0.625000
0.000000 0.500000 0.625000
0.062500 0.500000 0.625000
0.125000 0.500000 0.625000
0.187500 0.500000 0.625000
0.250000 0.500000 0.625000
0.312500 0.500000 0.625000
0.375000 0.500000 0.625000
0.437500 0.500000 0.625000
0.500000 0.500000 0.625000
0.000000 0.625000 0.625000
0.062500 0.625000 0.625000
0.125000 0.625000 0.625000
0.187500 0.625000 0.625000
0.250000 0.625000 0.625000
0.312500 0.625000 0.625000
0.375000 0.625000 0.625000
0.437500 0.625000 0.625000
0.500000 0.625000 0.625000
0.000000 0.750000 0.625000
0.062500 0.750000 0.625000
0.125000 0.750000 0.625000
0.187500 0.750000 0.625000
0.250000 0.750000 0.625000
0.312500 0.750000 0.625000
0.375000 0.750000 0.625000
0.437500 0.750000 0.625000
0.500000 0.750000 0.625000
0.000000 0.875000 0.625000
0.062500 0.875000 0.625000
0.125000 0.875000 0.625000
0.187500 0.875000 0.625000
0.250000 0.875000 0.625000
0.312500 0.875000 0.625000
0.375000 0.875000 0.625000
0.437500 0.875000 0.625000
0.500000 0.875000 0.625000
0.000000 1.000000 0.625000
0.062500 1.000000 0.625000
0.125000 1.000000 0.625000
0.187500 1.000000 0.625000
0.250000 1.000000 0.625000
0.312500 1.000000 0.625000
0.375000 1.000000 0.625000
0.437500 1.000000 0.625000
0.500000 1.000000 0.625000
0.000000 0.000000 0.750000
0.062500 0.000000 0.750000
0.125000 0.000000 0.750000
0.187500 0.000000 0.750000
0.250000 0.000000 0.750000
0.312500 0.000000 0.750000
0.375000 0.000000 0.750000
0.437500 0.000000 0.750000
0.500000 0.000000 0.750000
0.000000 0.125000 0.750000
0.062500 0.125000 0.750000
0.125000 0.125000 0.750000
0.187500 0.125000 0.750000
0.250000 0.125000 0.750000
0.312500 0.125000 0.750000
0.375000 0.125000 0.750000
0.437500 0.125000 0.750000
0.500000 0.125000 0.750000
0.000000 0.250000 0.750000
0.062500 0.250000 0.750000
0.125000 0.250000 0.750000
0.187500 0.250000 0.750000
0.250000 0.250000 0.750000
0.312500 0.250000 0.750000
0.375000 0.250000 0.750000
0.437500 0.250000 0.750000
0.500000 0.250000 0.750000
0.000000 0.375000 0.750000
0.062500 0.375000 0.750000
0.125000 0.375000 0.750000
0.187500 0.375000 0.750000
0.250000 0.375000 0.750000
0.312500 0.375000 0.750000
0.375000 0.375000 0.750000
0.437500 0.375000 0.750000
0.500000 0.375000 0.750000
0.000000 0.500000 0.750000
0.062500 0.500000 0.750000
0.125000 0.500000 0.750000
0.187500 0.500000 0.750000
0.250000 0.500000 0.750000
0.312500 0.500000 0.750000
0.375000 0.500000 0.750000
0.437500 0.500000 0.750000
0.500000 0.500000 0.750000
0.000000 0.625000 0.750000
0.062500 0.625000 0.750000
0.125000 0.625000 0.750000
0.187500 0.625000 0.750000
0.250000 0.625000 0.750000
0.312500 0.625000 0.750000
0.375000 0.625000 0.750000
0.437500 0.625000 0.750000
0.500000 0.625000 0.750000
0.000000 0.750000 0.750000
0.062500 0.750000 0.750000
0.125000 0.750000 0.750000
0.187500 0.750000 0.750000
0.250000 0.750000 0.750000
0.312500 0.750000 0.750000
0.375000 0.750000 0.750000
0.437500 0.750000 0.750000
0.500000 0.750000 0.750000
0.000000 0.875000 0.750000
0.062500 0.875000 0.750000
0.125000 0.875000 0.750000
0.187500 0.875000 0.750000
0.250000 0.875000 0.750000
0.312500 0.875000 0.750000
0.375000 0.875000 0.750000
0.437500 0.875000 0.750000
0.500000 0.875000 0.750000
0.000000 1.000000 0.750000
0.062500 1.000000 0.750000
0.125000 1.000000 0.750000
0.187500 1.000000 0.750000
0.250000 1.000000 0.750000
0.312500 1.000000 0.750000
0.375000 1.000000 0.750000
0.437500 1.000000 0.750000
0.500000 1.000000 0.750000
0.000000 0.000000 0.875000
0.062500 0.000000 0.875000
0.125000 0.000000 0.875000
0.187500 0.000000 0.875000
0.250000 0.000000 0.875000
0.312500 0.000000 0.875000
0.375000 0.000000 0.875000
0.437500 0.000000 0.875000
0.500000 0.000000 0.875000
0.000000 0.125000 0.875000
0.062500 0.125000 0.875000
0.125000 0.125000 0.875000
0.187500 0.125000 0.875000
0.250000 0.125000 0.875000
0.312500 0.125000 0.875000
0.375000 0.125000 0.875000
0.437500 0.125000 0.875000
0.500000 0.125000 0.875000
0.000000 0.250000 0.875000
0.062500 0.250000 0.875000
0.125000 0.250000 0.875000
0.187500 0.250000 0.875000
0.250000 0.250000 0.875000
0.312500 0.250000 0.875000
0.375000 0.250000 0.875000
0.437500 0.250000 0.875000
0.500000 0.250000 0.875000
0.000000 0.375000 0.875000
0.062500 0.375000 0.875000
0.125000 0.375000 0.875000
0.187500 0.375000 0.875000
0.250000 0.375000 0.875000
0.312500 0.375000 0.875000
0.375000 0.375000 0.875000
0.437500 0.375000 0.875000
0.500000 0.375000 0.875000
0.000000 0.500000 0.875000
0.062500 0.500000 0.875000
0.125000 0.500000 0.875000
0.187500 0.500000 0.875000
0.250000 0.500000 0.875000
0.312500 0.500000 0.875000
0.375000 0.500000 0.875000
0.437500 0.500000 0.875000
0.500000 0.500000 0.875000
0.000000 0.625000 0.875000
0.062500 0.625000 0.875000
0.125000 0.625000 0.875000
0.187500 0.625000 0.875000
0.250000 0.625000 0.875000
0.312500 0.625000 0.875000
0.375000 0.625000 0.875000
0.437500 0.625000 0.875000
0.500000 0.625000 0.875000
0.000000 0.750000 0.875000
0.062500 0.750000 0.875000
0.125000 0.750000 0.875000
0.187500 0.750000 0.875000
0.250000 0.750000 0.875000
0.312500 0.750000 0.875000
0.375000 0.750000 0.875000
0.437500 0.750000 0.875000
0.500000 0.750000 0.875000
0.000000 0.875000 0.875000
0.062500 0.875000 0.875000
0.125000 0.875000 0.875000
0.187500 0.875000 0.875000
0.250000 0.875000 0.875000
0.312500 0.875000 0.875000
0.375000 0.875000 0.875000
0.437500 0.875000 0.875000
0.500000 0.875000 0.875000
0.000000 1.000000 0.875000
0.062500 1.000000 0.875000
0.125000 1.000000 0.875000
0.187500 1.000000 0.875000
0.250000 1.000000 0.875000
0.312500 1.000000 0.875000
0.375000 1.000000 0.875000
0.437500 1.000000 0.875000
0.500000 1.000000 0.875000
0.000000 0.000000 1.000000
0.062500 0.000000 1.000000
0.125000 0.000000 1.000000
0.187500 0.000000 1.000000
0.250000 0.000000 1.000000
0.312500 0.000000 1.000000
0.375000 0.000000 1.000000
0.437500 0.000000 1.000000
0.500000 0.000000 1.000000
0.000000 0.125000 1.000000
0.062500 0.125000 1.000000
0.125000 0.125000 1.000000
0.187500 0.125000 1.000000
0.250000 0.125000 1.000000
0.312500 0.125000 1.000000
0.375000 0.125000 1.000000
0.437500 0.125000 1.000000
0.500000 0.125000 1.000000
0.000000 0.250000 1.000000
0.062500 0.250000 1.000000
0.125000 0.250000 1.000000
0.187500 0.250000 1.000000
0.250000 0.250000 1.000000
0.312500 0.250000 1.000000
0.375000 0.250000 1.000000
0.437500 0.250000 1.000000
0.500000 0.250000 1.000000
0.000000 0.375000 1.000000
0.062500 0.375000 1.000000
0.125000 0.375000 1.000000
0.187500 0.375000 1.000000
0.250000 0.375000 1.000000
0.312500 0.375000 1.000000
0.375000 0.375000 1.000000
0.437500 0.375000 1.000000
0.500000 0.375000 1.000000
0.000000 0.500000 1.000000
0.062500 0.500000 1.000000
0.125000 0.500000 1.000000
0.187500 0.500000 1.000000
0.250000 0.500000 1.000000
0.312500 0.500000 1.000000
0.375000 0.500000 1.000000
0.437500 0.500000 1.000000
0.500000 0.500000 1.000000
0.000000 0.625000 1.000000
0.062500 0.625000 1.000000
0.125000 0.625000 1.000000
0.187500 0.625000 1.000000
0.250000 0.625000 1.000000
0.312500 0.625000 1.000000
0.375000 0.625000 1.000000
0.437500 0.625000 1.000000
0.500000 0.625000 1.000000
0.000000 0.750000 1.000000
0.062500 0.750000 1.000000
0.125000 0.750000 1.000000
0.187500 0.750000 1.000000
0.250000 0.750000 1.000000
0.312500 0.750000 1.000000
0.375000 0.750000 1.000000
0.437500 0.750000 1.000000
0.500000 0.750000 1.000000
0.000000 0.875000 1.000000
0.062500 0.875000 1.000000
0.125000 0.875000 1.000000
0.187500 0.875000 1.000000
0.250000 0.875000 1.000000
0.312500 0.875000 1.000000
0.375000 0.875000 1.000000
0.437500 0.875000 1.000000
0.500000 0.875000 1.000000
0.000000 1.000000 1.000000
0.062500 1.000000 1.000000
0.125000 1.000000 1.000000
0.187500 1.000000 1.000000
0.250000 1.000000 1.000000
0.312500 1.000000 1.000000
0.375000 1.000000 1.000000
0.437500 1.000000 1.000000
0.500000 1.000000 1.000000
