Assets/TransferFunctionLUTs/BMDFilm_to_Linear.cube
# DaVinci Resolve Cube (1D shaper LUT).

LUT_1D_SIZE 4096
LUT_1D_INPUT_RANGE 0.0000000000 1.0000000000

-0.0071215555 -0.0071215555 -0.0071215555
-0.0070724138 -0.0070724138 -0.0070724138
-0.0070232721 -0.0070232721 -0.0070232721
-0.0069741304 -0.0069741304 -0.0069741304
-0.0069249887 -0.0069249887 -0.0069249887
-0.0068758470 -0.0068758470 -0.0068758470
-0.0068267053 -0.0068267053 -0.0068267053
-0.0067775636 -0.0067775636 -0.0067775636
-0.0067284219 -0.0067284219 -0.0067284219
-0.0066792802 -0.0066792802 -0.0066792802
-0.0066301385 -0.0066301385 -0.0066301385
-0.0065809968 -0.0065809968 -0.0065809968
-0.0065318551 -0.0065318551 -0.0065318551
-0.0064827134 -0.0064827134 -0.0064827134
-0.0064335717 -0.0064335717 -0.0064335717
-0.0063844300 -0.0063844300 -0.0063844300
-0.0063352883 -0.0063352883 -0.0063352883
-0.0062861466 -0.0062861466 -0.0062861466
-0.0062370049 -0.0062370049 -0.0062370049
-0.0061878632 -0.0061878632 -0.0061878632
-0.0061387215 -0.0061387215 -0.0061387215
-0.0060895798 -0.0060895798 -0.0060895798
-0.0060404381 -0.0060404381 -0.0060404381
-0.0059912964 -0.0059912964 -0.0059912964
-0.0059421547 -0.0059421547 -0.0059421547
-0.0058930130 -0.0058930130 -0.0058930130
-0.0058438712 -0.0058438712 -0.0058438712
-0.0057947295 -0.0057947295 -0.0057947295
-0.0057455878 -0.0057455878 -0.0057455878
-0.0056964461 -0.0056964461 -0.0056964461
-0.0056473044 -0.0056473044 -0.0056473044
-0.0055981627 -0.0055981627 -0.0055981627
-0.0055490210 -0.0055490210 -0.0055490210
-0.0054998793 -0.0054998793 -0.0054998793
-0.0054507376 -0.0054507376 -0.0054507376
-0.0054015959 -0.0054015959 -0.0054015959
-0.0053524542 -0.0053524542 -0.0053524542
-0.0053033125 -0.0053033125 -0.0053033125
-0.0052541708 -0.0052541708 -0.0052541708
-0.0052050291 -0.0052050291 -0.0052050291
-0.0051558874 -0.0051558874 -0.0051558874
-0.0051067457 -0.0051067457 -0.0051067457
-0.0050576040 -0.0050576040 -0.0050576040
-0.0050084623 -0.0050084623 -0.0050084623
-0.0049593206 -0.0049593206 -0.0049593206
-0.0049101789 -0.0049101789 -0.0049101789
-0.0048610372 -0.0048610372 -0.0048610372
-0.0048118955 -0.0048118955 -0.0048118955
-0.0047627538 -0.0047627538 -0.0047627538
-0.0047136121 -0.0047136121 -0.0047136121
-0.0046644704 -0.0046644704 -0.0046644704
-0.0046153287 -0.0046153287 -0.0046153287
-0.0045661870 -0.0045661870 -0.0045661870
-0.0045170453 -0.0045170453 -0.0045170453
-0.0044679036 -0.0044679036 -0.0044679036
-0.0044187619 -0.0044187619 -0.0044187619
-0.0043696202 -0.0043696202 -0.0043696202
-0.0043204785 -0.0043204785 -0.0043204785
-0.0042713368 -0.0042713368 -0.0042713368
-0.0042221951 -0.0042221951 -0.0042221951
-0.0041730534 -0.0041730534 -0.0041730534
-0.0041239117 -0.0041239117 -0.0041239117
-0.0040747700 -0.0040747700 -0.0040747700
-0.0040256283 -0.0040256283 -0.0040256283
-0.0039764866 -0.0039764866 -0.0039764866
-0.0039273449 -0.0039273449 -0.0039273449
-0.0038782032 -0.0038782032 -0.0038782032
-0.0038290615 -0.0038290615 -0.0038290615
-0.0037799198 -0.0037799198 -0.0037799198
-0.0037307781 -0.0037307781 -0.0037307781
-0.0036816364 -0.0036816364 -0.0036816364
-0.0036324947 -0.0036324947 -0.0036324947
-0.0035833530 -0.0035833530 -0.0035833530
-0.0035342113 -0.0035342113 -0.0035342113
-0.0034850696 -0.0034850696 -0.0034850696
-0.0034359279 -0.0034359279 -0.0034359279
-0.0033867862 -0.0033867862 -0.0033867862
-0.0033376445 -0.0033376445 -0.0033376445
-0.0032885028 -0.0032885028 -0.0032885028
-0.0032393611 -0.0032393611 -0.0032393611
-0.0031902194 -0.0031902194 -0.0031902194
-0.0031410777 -0.0031410777 -0.0031410777
-0.0030919360 -0.0030919360 -0.0030919360
-0.0030427943 -0.0030427943 -0.0030427943
-0.0029936526 -0.0029936526 -0.0029936526
-0.0029445109 -0.0029445109 -0.0029445109
-0.0028953692 -0.0028953692 -0.0028953692
-0.0028462275 -0.0028462275 -0.0028462275
-0.0027970858 -0.0027970858 -0.0027970858
-0.0027479441 -0.0027479441 -0.0027479441
-0.0026988024 -0.0026988024 -0.0026988024
-0.0026496607 -0.0026496607 -0.0026496607
-0.0026005189 -0.0026005189 -0.0026005189
-0.0025513772 -0.0025513772 -0.0025513772
-0.0025022355 -0.0025022355 -0.0025022355
-0.0024530938 -0.0024530938 -0.0024530938
-0.0024039521 -0.0024039521 -0.0024039521
-0.0023548104 -0.0023548104 -0.0023548104
-0.0023056687 -0.0023056687 -0.0023056687
-0.0022565270 -0.0022565270 -0.0022565270
-0.0022073853 -0.0022073853 -0.0022073853
-0.0021582436 -0.0021582436 -0.0021582436
-0.0021091019 -0.0021091019 -0.0021091019
-0.0020599602 -0.0020599602 -0.0020599602
-0.0020108185 -0.0020108185 -0.0020108185
-0.0019616768 -0.0019616768 -0.0019616768
-0.0019125351 -0.0019125351 -0.0019125351
-0.0018633934 -0.0018633934 -0.0018633934
-0.0018142517 -0.0018142517 -0.0018142517
-0.0017651100 -0.0017651100 -0.0017651100
-0.0017159683 -0.0017159683 -0.0017159683
-0.0016668266 -0.0016668266 -0.0016668266
-0.0016176849 -0.0016176849 -0.0016176849
-0.0015685432 -0.0015685432 -0.0015685432
-0.0015194015 -0.0015194015 -0.0015194015
-0.0014702598 -0.0014702598 -0.0014702598
-0.0014211181 -0.0014211181 -0.0014211181
-0.0013719764 -0.0013719764 -0.0013719764
-0.0013228347 -0.0013228347 -0.0013228347
-0.0012736930 -0.0012736930 -0.0012736930
-0.0012245513 -0.0012245513 -0.0012245513
-0.0011754096 -0.0011754096 -0.0011754096
-0.0011262679 -0.0011262679 -0.0011262679
-0.0010771262 -0.0010771262 -0.0010771262
-0.0010279845 -0.0010279845 -0.0010279845
-0.0009788428 -0.0009788428 -0.0009788428
-0.0009297011 -0.0009297011 -0.0009297011
-0.0008805594 -0.0008805594 -0.0008805594
-0.0008314177 -0.0008314177 -0.0008314177
-0.0007822760 -0.0007822760 -0.0007822760
-0.0007331343 -0.0007331343 -0.0007331343
-0.0006839926 -0.0006839926 -0.0006839926
-0.0006348509 -0.0006348509 -0.0006348509
-0.0005857092 -0.0005857092 -0.0005857092
-0.0005365675 -0.0005365675 -0.0005365675
-0.0004874258 -0.0004874258 -0.0004874258
-0.0004382841 -0.0004382841 -0.0004382841
-0.0003891424 -0.0003891424 -0.0003891424
-0.0003400007 -0.0003400007 -0.0003400007
-0.0002908590 -0.0002908590 -0.0002908590
-0.0002417173 -0.0002417173 -0.0002417173
-0.0001925756 -0.0001925756 -0.0001925756
-0.0001434339 -0.0001434339 -0.0001434339
-0.0000942922 -0.0000942922 -0.0000942922
-0.0000451505 -0.0000451505 -0.0000451505
0.0000039912 0.0000039912 0.0000039912
0.0000531329 0.0000531329 0.0000531329
0.0001022746 0.0001022746 0.0001022746
0.0001514163 0.0001514163 0.0001514163
0.0002005580 0.0002005580 0.0002005580
0.0002496997 0.0002496997 0.0002496997
0.0002988414 0.0002988414 0.0002988414
0.0003479831 0.0003479831 0.0003479831
0.0003971248 0.0003971248 0.0003971248
0.0004462665 0.0004462665 0.0004462665
0.0004954082 0.0004954082 0.0004954082
0.0005445499 0.0005445499 0.0005445499
0.0005936916 0.0005936916 0.0005936916
0.0006428334 0.0006428334 0.0006428334
0.0006919751 0.0006919751 0.0006919751
0.0007411168 0.0007411168 0.0007411168
0.0007902585 0.0007902585 0.0007902585
0.0008394002 0.0008394002 0.0008394002
0.0008885419 0.0008885419 0.0008885419
0.0009376836 0.0009376836 0.0009376836
0.0009868253 0.0009868253 0.0009868253
0.0010359670 0.0010359670 0.0010359670
0.0010851087 0.0010851087 0.0010851087
0.0011342504 0.0011342504 0.0011342504
0.0011833921 0.0011833921 0.0011833921
0.0012325338 0.0012325338 0.0012325338
0.0012816755 0.0012816755 0.0012816755
0.0013308172 0.0013308172 0.0013308172
0.0013799589 0.0013799589 0.0013799589
0.0014291006 0.0014291006 0.0014291006
0.0014782423 0.0014782423 0.0014782423
0.0015273840 0.0015273840 0.0015273840
0.0015765257 0.0015765257 0.0015765257
0.0016256674 0.0016256674 0.0016256674
0.0016748091 0.0016748091 0.0016748091
0.0017239508 0.0017239508 0.0017239508
0.0017730925 0.0017730925 0.0017730925
0.0018222342 0.0018222342 0.0018222342
0.0018713759 0.0018713759 0.0018713759
0.0019205176 0.0019205176 0.0019205176
0.0019696593 0.0019696593 0.0019696593
0.0020188010 0.0020188010 0.0020188010
0.0020679427 0.0020679427 0.0020679427
0.0021170844 0.0021170844 0.0021170844
0.0021662261 0.0021662261 0.0021662261
0.0022153678 0.0022153678 0.0022153678
0.0022645095 0.0022645095 0.0022645095
0.0023136512 0.0023136512 0.0023136512
0.0023627929 0.0023627929 0.0023627929
0.0024119346 0.0024119346 0.0024119346
0.0024610763 0.0024610763 0.0024610763
0.0025102180 0.0025102180 0.0025102180
0.0025593597 0.0025593597 0.0025593597
0.0026085014 0.0026085014 0.0026085014
0.0026576431 0.0026576431 0.0026576431
0.0027067848 0.0027067848 0.0027067848
0.0027559265 0.0027559265 0.0027559265
0.0028050682 0.0028050682 0.0028050682
0.0028542099 0.0028542099 0.0028542099
0.0029033516 0.0029033516 0.0029033516
0.0029524933 0.0029524933 0.0029524933
0.0030016350 0.0030016350 0.0030016350
0.0030507767 0.0030507767 0.0030507767
0.0030999184 0.0030999184 0.0030999184
0.0031490601 0.0031490601 0.0031490601
0.0031982018 0.0031982018 0.0031982018
0.0032473435 0.0032473435 0.0032473435
0.0032964852 0.0032964852 0.0032964852
0.0033456269 0.0033456269 0.0033456269
0.0033947686 0.0033947686 0.0033947686
0.0034439103 0.0034439103 0.0034439103
0.0034930520 0.0034930520 0.0034930520
0.0035421937 0.0035421937 0.0035421937
0.0035913354 0.0035913354 0.0035913354
0.0036404771 0.0036404771 0.0036404771
0.0036896188 0.0036896188 0.0036896188
0.0037387605 0.0037387605 0.0037387605
0.0037879022 0.0037879022 0.0037879022
0.0038370439 0.0038370439 0.0038370439
0.0038861857 0.0038861857 0.0038861857
0.0039353274 0.0039353274 0.0039353274
0.0039844691 0.0039844691 0.0039844691
0.0040336108 0.0040336108 0.0040336108
0.0040827525 0.0040827525 0.0040827525
0.0041318942 0.0041318942 0.0041318942
0.0041810359 0.0041810359 0.0041810359
0.0042301776 0.0042301776 0.0042301776
0.0042793193 0.0042793193 0.0042793193
0.0043284610 0.0043284610 0.0043284610
0.0043776027 0.0043776027 0.0043776027
0.0044267444 0.0044267444 0.0044267444
0.0044758861 0.0044758861 0.0044758861
0.0045250278 0.0045250278 0.0045250278
0.0045741695 0.0045741695 0.0045741695
0.0046233112 0.0046233112 0.0046233112
0.0046724529 0.0046724529 0.0046724529
0.0047215946 0.0047215946 0.0047215946
0.0047707363 0.0047707363 0.0047707363
0.0048198780 0.0048198780 0.0048198780
0.0048690197 0.0048690197 0.0048690197
0.0049181614 0.0049181614 0.0049181614
0.0049673031 0.0049673031 0.0049673031
0.0050164596 0.0050164596 0.0050164596
0.0050656551 0.0050656551 0.0050656551
0.0051149150 0.0051149150 0.0051149150
0.0051642395 0.0051642395 0.0051642395
0.0052136287 0.0052136287 0.0052136287
0.0052630826 0.0052630826 0.0052630826
0.0053126013 0.0053126013 0.0053126013
0.0053621849 0.0053621849 0.0053621849
0.0054118335 0.0054118335 0.0054118335
0.0054615471 0.0054615471 0.0054615471
0.0055113260 0.0055113260 0.0055113260
0.0055611700 0.0055611700 0.0055611700
0.0056110794 0.0056110794 0.0056110794
0.0056610542 0.0056610542 0.0056610542
0.0057110945 0.0057110945 0.0057110945
0.0057612004 0.0057612004 0.0057612004
0.0058113720 0.0058113720 0.0058113720
0.0058616093 0.0058616093 0.0058616093
0.0059119125 0.0059119125 0.0059119125
0.0059622816 0.0059622816 0.0059622816
0.0060127167 0.0060127167 0.0060127167
0.0060632179 0.0060632179 0.0060632179
0.0061137853 0.0061137853 0.0061137853
0.0061644190 0.0061644190 0.0061644190
0.0062151191 0.0062151191 0.0062151191
0.0062658856 0.0062658856 0.0062658856
0.0063167186 0.0063167186 0.0063167186
0.0063676183 0.0063676183 0.0063676183
0.0064185846 0.0064185846 0.0064185846
0.0064696178 0.0064696178 0.0064696178
0.0065207179 0.0065207179 0.0065207179
0.0065718849 0.0065718849 0.0065718849
0.0066231190 0.0066231190 0.0066231190
0.0066744202 0.0066744202 0.0066744202
0.0067257887 0.0067257887 0.0067257887
0.0067772245 0.0067772245 0.0067772245
0.0068287278 0.0068287278 0.0068287278
0.0068802985 0.0068802985 0.0068802985
0.0069319368 0.0069319368 0.0069319368
0.0069836428 0.0069836428 0.0069836428
0.0070354166 0.0070354166 0.0070354166
0.0070872582 0.0070872582 0.0070872582
0.0071391678 0.0071391678 0.0071391678
0.0071911454 0.0071911454 0.0071911454
0.0072431911 0.0072431911 0.0072431911
0.0072953051 0.0072953051 0.0072953051
0.0073474873 0.0073474873 0.0073474873
0.0073997380 0.0073997380 0.0073997380
0.0074520571 0.0074520571 0.0074520571
0.0075044448 0.0075044448 0.0075044448
0.0075569012 0.0075569012 0.0075569012
0.0076094263 0.0076094263 0.0076094263
0.0076620202 0.0076620202 0.0076620202
0.0077146831 0.0077146831 0.0077146831
0.0077674150 0.0077674150 0.0077674150
0.0078202161 0.0078202161 0.0078202161
0.0078730863 0.0078730863 0.0078730863
0.0079260258 0.0079260258 0.0079260258
0.0079790347 0.0079790347 0.0079790347
0.0080321131 0.0080321131 0.0080321131
0.0080852611 0.0080852611 0.0080852611
0.0081384787 0.0081384787 0.0081384787
0.0081917660 0.0081917660 0.0081917660
0.0082451233 0.0082451233 0.0082451233
0.0082985504 0.0082985504 0.0082985504
0.0083520476 0.0083520476 0.0083520476
0.0084056148 0.0084056148 0.0084056148
0.0084592523 0.0084592523 0.0084592523
0.0085129601 0.0085129601 0.0085129601
0.0085667383 0.0085667383 0.0085667383
0.0086205870 0.0086205870 0.0086205870
0.0086745062 0.0086745062 0.0086745062
0.0087284961 0.0087284961 0.0087284961
0.0087825568 0.0087825568 0.0087825568
0.0088366883 0.0088366883 0.0088366883
0.0088908908 0.0088908908 0.0088908908
0.0089451643 0.0089451643 0.0089451643
0.0089995090 0.0089995090 0.0089995090
0.0090539248 0.0090539248 0.0090539248
0.0091084120 0.0091084120 0.0091084120
0.0091629707 0.0091629707 0.0091629707
0.0092176008 0.0092176008 0.0092176008
0.0092723025 0.0092723025 0.0092723025
0.0093270759 0.0093270759 0.0093270759
0.0093819211 0.0093819211 0.0093819211
0.0094368382 0.0094368382 0.0094368382
0.0094918273 0.0094918273 0.0094918273
0.0095468884 0.0095468884 0.0095468884
0.0096020217 0.0096020217 0.0096020217
0.0096572273 0.0096572273 0.0096572273
0.0097125052 0.0097125052 0.0097125052
0.0097678556 0.0097678556 0.0097678556
0.0098232785 0.0098232785 0.0098232785
0.0098787741 0.0098787741 0.0098787741
0.0099343424 0.0099343424 0.0099343424
0.0099899835 0.0099899835 0.0099899835
0.0100456975 0.0100456975 0.0100456975
0.0101014846 0.0101014846 0.0101014846
0.0101573448 0.0101573448 0.0101573448
0.0102132782 0.0102132782 0.0102132782
0.0102692849 0.0102692849 0.0102692849
0.0103253651 0.0103253651 0.0103253651
0.0103815187 0.0103815187 0.0103815187
0.0104377459 0.0104377459 0.0104377459
0.0104940468 0.0104940468 0.0104940468
0.0105504215 0.0105504215 0.0105504215
0.0106068701 0.0106068701 0.0106068701
0.0106633927 0.0106633927 0.0106633927
0.0107199894 0.0107199894 0.0107199894
0.0107766602 0.0107766602 0.0107766602
0.0108334053 0.0108334053 0.0108334053
0.0108902248 0.0108902248 0.0108902248
0.0109471188 0.0109471188 0.0109471188
0.0110040873 0.0110040873 0.0110040873
0.0110611305 0.0110611305 0.0110611305
0.0111182484 0.0111182484 0.0111182484
0.0111754413 0.0111754413 0.0111754413
0.0112327090 0.0112327090 0.0112327090
0.0112900519 0.0112900519 0.0112900519
0.0113474699 0.0113474699 0.0113474699
0.0114049631 0.0114049631 0.0114049631
0.0114625317 0.0114625317 0.0114625317
0.0115201758 0.0115201758 0.0115201758
0.0115778954 0.0115778954 0.0115778954
0.0116356907 0.0116356907 0.0116356907
0.0116935617 0.0116935617 0.0116935617
0.0117515085 0.0117515085 0.0117515085
0.0118095314 0.0118095314 0.0118095314
0.0118676302 0.0118676302 0.0118676302
0.0119258052 0.0119258052 0.0119258052
0.0119840565 0.0119840565 0.0119840565
0.0120423841 0.0120423841 0.0120423841
0.0121007881 0.0121007881 0.0121007881
0.0121592687 0.0121592687 0.0121592687
0.0122178259 0.0122178259 0.0122178259
0.0122764599 0.0122764599 0.0122764599
0.0123351708 0.0123351708 0.0123351708
0.0123939586 0.0123939586 0.0123939586
0.0124528234 0.0124528234 0.0124528234
0.0125117654 0.0125117654 0.0125117654
0.0125707846 0.0125707846 0.0125707846
0.0126298812 0.0126298812 0.0126298812
0.0126890553 0.0126890553 0.0126890553
0.0127483069 0.0127483069 0.0127483069
0.0128076362 0.0128076362 0.0128076362
0.0128670432 0.0128670432 0.0128670432
0.0129265281 0.0129265281 0.0129265281
0.0129860910 0.0129860910 0.0129860910
0.0130457319 0.0130457319 0.0130457319
0.0131054510 0.0131054510 0.0131054510
0.0131652483 0.0131652483 0.0131652483
0.0132251241 0.0132251241 0.0132251241
0.0132850783 0.0132850783 0.0132850783
0.0133451111 0.0133451111 0.0133451111
0.0134052225 0.0134052225 0.0134052225
0.0134654128 0.0134654128 0.0134654128
0.0135256820 0.0135256820 0.0135256820
0.0135860301 0.0135860301 0.0135860301
0.0136464573 0.0136464573 0.0136464573
0.0137069638 0.0137069638 0.0137069638
0.0137675495 0.0137675495 0.0137675495
0.0138282147 0.0138282147 0.0138282147
0.0138889593 0.0138889593 0.0138889593
0.0139497836 0.0139497836 0.0139497836
0.0140106876 0.0140106876 0.0140106876
0.0140716714 0.0140716714 0.0140716714
0.0141327352 0.0141327352 0.0141327352
0.0141938789 0.0141938789 0.0141938789
0.0142551029 0.0142551029 0.0142551029
0.0143164070 0.0143164070 0.0143164070
0.0143777915 0.0143777915 0.0143777915
0.0144392565 0.0144392565 0.0144392565
0.0145008020 0.0145008020 0.0145008020
0.0145624282 0.0145624282 0.0145624282
0.0146241352 0.0146241352 0.0146241352
0.0146859230 0.0146859230 0.0146859230
0.0147477918 0.0147477918 0.0147477918
0.0148097417 0.0148097417 0.0148097417
0.0148717728 0.0148717728 0.0148717728
0.0149338852 0.0149338852 0.0149338852
0.0149960791 0.0149960791 0.0149960791
0.0150583544 0.0150583544 0.0150583544
0.0151207113 0.0151207113 0.0151207113
0.0151831500 0.0151831500 0.0151831500
0.0152456705 0.0152456705 0.0152456705
0.0153082730 0.0153082730 0.0153082730
0.0153709575 0.0153709575 0.0153709575
0.0154337242 0.0154337242 0.0154337242
0.0154965731 0.0154965731 0.0154965731
0.0155595044 0.0155595044 0.0155595044
0.0156225182 0.0156225182 0.0156225182
0.0156856146 0.0156856146 0.0156856146
0.0157487936 0.0157487936 0.0157487936
0.0158120555 0.0158120555 0.0158120555
0.0158754003 0.0158754003 0.0158754003
0.0159388281 0.0159388281 0.0159388281
0.0160023391 0.0160023391 0.0160023391
0.0160659333 0.0160659333 0.0160659333
0.0161296108 0.0161296108 0.0161296108
0.0161933718 0.0161933718 0.0161933718
0.0162572164 0.0162572164 0.0162572164
0.0163211446 0.0163211446 0.0163211446
0.0163851567 0.0163851567 0.0163851567
0.0164492526 0.0164492526 0.0164492526
0.0165134325 0.0165134325 0.0165134325
0.0165776966 0.0165776966 0.0165776966
0.0166420449 0.0166420449 0.0166420449
0.0167064775 0.0167064775 0.0167064775
0.0167709946 0.0167709946 0.0167709946
0.0168355962 0.0168355962 0.0168355962
0.0169002825 0.0169002825 0.0169002825
0.0169650536 0.0169650536 0.0169650536
0.0170299096 0.0170299096 0.0170299096
0.0170948506 0.0170948506 0.0170948506
0.0171598767 0.0171598767 0.0171598767
0.0172249880 0.0172249880 0.0172249880
0.0172901847 0.0172901847 0.0172901847
0.0173554668 0.0173554668 0.0173554668
0.0174208345 0.0174208345 0.0174208345
0.0174862878 0.0174862878 0.0174862878
0.0175518270 0.0175518270 0.0175518270
0.0176174520 0.0176174520 0.0176174520
0.0176831630 0.0176831630 0.0176831630
0.0177489602 0.0177489602 0.0177489602
0.0178148436 0.0178148436 0.0178148436
0.0178808134 0.0178808134 0.0178808134
0.0179468696 0.0179468696 0.0179468696
0.0180130124 0.0180130124 0.0180130124
0.0180792419 0.0180792419 0.0180792419
0.0181455582 0.0181455582 0.0181455582
0.0182119614 0.0182119614 0.0182119614
0.0182784517 0.0182784517 0.0182784517
0.0183450291 0.0183450291 0.0183450291
0.0184116937 0.0184116937 0.0184116937
0.0184784458 0.0184784458 0.0184784458
0.0185452853 0.0185452853 0.0185452853
0.0186122124 0.0186122124 0.0186122124
0.0186792273 0.0186792273 0.0186792273
0.0187463299 0.0187463299 0.0187463299
0.0188135206 0.0188135206 0.0188135206
0.0188807992 0.0188807992 0.0188807992
0.0189481661 0.0189481661 0.0189481661
0.0190156213 0.0190156213 0.0190156213
0.0190831648 0.0190831648 0.0190831648
0.0191507969 0.0191507969 0.0191507969
0.0192185177 0.0192185177 0.0192185177
0.0192863272 0.0192863272 0.0192863272
0.0193542256 0.0193542256 0.0193542256
0.0194222129 0.0194222129 0.0194222129
0.0194902894 0.0194902894 0.0194902894
0.0195584551 0.0195584551 0.0195584551
0.0196267101 0.0196267101 0.0196267101
0.0196950546 0.0196950546 0.0196950546
0.0197634887 0.0197634887 0.0197634887
0.0198320125 0.0198320125 0.0198320125
0.0199006261 0.0199006261 0.0199006261
0.0199693296 0.0199693296 0.0199693296
0.0200381231 0.0200381231 0.0200381231
0.0201070068 0.0201070068 0.0201070068
0.0201759808 0.0201759808 0.0201759808
0.0202450453 0.0202450453 0.0202450453
0.0203142002 0.0203142002 0.0203142002
0.0203834457 0.0203834457 0.0203834457
0.0204527821 0.0204527821 0.0204527821
0.0205222093 0.0205222093 0.0205222093
0.0205917275 0.0205917275 0.0205917275
0.0206613368 0.0206613368 0.0206613368
0.0207310373 0.0207310373 0.0207310373
0.0208008292 0.0208008292 0.0208008292
0.0208707126 0.0208707126 0.0208707126
0.0209406875 0.0209406875 0.0209406875
0.0210107542 0.0210107542 0.0210107542
0.0210809127 0.0210809127 0.0210809127
0.0211511632 0.0211511632 0.0211511632
0.0212215057 0.0212215057 0.0212215057
0.0212919404 0.0212919404 0.0212919404
0.0213624675 0.0213624675 0.0213624675
0.0214330870 0.0214330870 0.0214330870
0.0215037990 0.0215037990 0.0215037990
0.0215746037 0.0215746037 0.0215746037
0.0216455012 0.0216455012 0.0216455012
0.0217164917 0.0217164917 0.0217164917
0.0217875752 0.0217875752 0.0217875752
0.0218587518 0.0218587518 0.0218587518
0.0219300218 0.0219300218 0.0219300218
0.0220013851 0.0220013851 0.0220013851
0.0220728420 0.0220728420 0.0220728420
0.0221443926 0.0221443926 0.0221443926
0.0222160369 0.0222160369 0.0222160369
0.0222877751 0.0222877751 0.0222877751
0.0223596073 0.0223596073 0.0223596073
0.0224315337 0.0224315337 0.0224315337
0.0225035544 0.0225035544 0.0225035544
0.0225756694 0.0225756694 0.0225756694
0.0226478790 0.0226478790 0.0226478790
0.0227201832 0.0227201832 0.0227201832
0.0227925822 0.0227925822 0.0227925822
0.0228650761 0.0228650761 0.0228650761
0.0229376650 0.0229376650 0.0229376650
0.0230103490 0.0230103490 0.0230103490
0.0230831283 0.0230831283 0.0230831283
0.0231560030 0.0231560030 0.0231560030
0.0232289732 0.0232289732 0.0232289732
0.0233020390 0.0233020390 0.0233020390
0.0233752006 0.0233752006 0.0233752006
0.0234484581 0.0234484581 0.0234484581
0.0235218116 0.0235218116 0.0235218116
0.0235952612 0.0235952612 0.0235952612
0.0236688072 0.0236688072 0.0236688072
0.0237424495 0.0237424495 0.0237424495
0.0238161883 0.0238161883 0.0238161883
0.0238900238 0.0238900238 0.0238900238
0.0239639560 0.0239639560 0.0239639560
0.0240379851 0.0240379851 0.0240379851
0.0241121113 0.0241121113 0.0241121113
0.0241863346 0.0241863346 0.0241863346
0.0242606552 0.0242606552 0.0242606552
0.0243350733 0.0243350733 0.0243350733
0.0244095888 0.0244095888 0.0244095888
0.0244842020 0.0244842020 0.0244842020
0.0245589130 0.0245589130 0.0245589130
0.0246337220 0.0246337220 0.0246337220
0.0247086289 0.0247086289 0.0247086289
0.0247836341 0.0247836341 0.0247836341
0.0248587375 0.0248587375 0.0248587375
0.0249339394 0.0249339394 0.0249339394
0.0250092399 0.0250092399 0.0250092399
0.0250846391 0.0250846391 0.0250846391
0.0251601370 0.0251601370 0.0251601370
0.0252357340 0.0252357340 0.0252357340
0.0253114300 0.0253114300 0.0253114300
0.0253872252 0.0253872252 0.0253872252
0.0254631197 0.0254631197 0.0254631197
0.0255391138 0.0255391138 0.0255391138
0.0256152074 0.0256152074 0.0256152074
0.0256914008 0.0256914008 0.0256914008
0.0257676940 0.0257676940 0.0257676940
0.0258440872 0.0258440872 0.0258440872
0.0259205806 0.0259205806 0.0259205806
0.0259971742 0.0259971742 0.0259971742
0.0260738682 0.0260738682 0.0260738682
0.0261506627 0.0261506627 0.0261506627
0.0262275579 0.0262275579 0.0262275579
0.0263045538 0.0263045538 0.0263045538
0.0263816507 0.0263816507 0.0263816507
0.0264588486 0.0264588486 0.0264588486
0.0265361477 0.0265361477 0.0265361477
0.0266135481 0.0266135481 0.0266135481
0.0266910500 0.0266910500 0.0266910500
0.0267686534 0.0267686534 0.0267686534
0.0268463585 0.0268463585 0.0268463585
0.0269241655 0.0269241655 0.0269241655
0.0270020745 0.0270020745 0.0270020745
0.0270800856 0.0270800856 0.0270800856
