Assets/TransferFunctionLUTs/BMDFilm4K_to_Linear.cube
# DaVinci Resolve Cube (1D shaper LUT).

LUT_1D_SIZE 4096
LUT_1D_INPUT_RANGE 0.0000000000 1.0000000000

-0.0101560429 -0.0101560429 -0.0101560429
-0.0100859620 -0.0100859620 -0.0100859620
-0.0100158811 -0.0100158811 -0.0100158811
-0.0099458001 -0.0099458001 -0.0099458001
-0.0098757192 -0.0098757192 -0.0098757192
-0.0098056383 -0.0098056383 -0.0098056383
-0.0097355573 -0.0097355573 -0.0097355573
-0.0096654764 -0.0096654764 -0.0096654764
-0.0095953955 -0.0095953955 -0.0095953955
-0.0095253146 -0.0095253146 -0.0095253146
-0.0094552336 -0.0094552336 -0.0094552336
-0.0093851527 -0.0093851527 -0.0093851527
-0.0093150718 -0.0093150718 -0.0093150718
-0.0092449908 -0.0092449908 -0.0092449908
-0.0091749099 -0.0091749099 -0.0091749099
-0.0091048290 -0.0091048290 -0.0091048290
-0.0090347480 -0.0090347480 -0.0090347480
-0.0089646671 -0.0089646671 -0.0089646671
-0.0088945862 -0.0088945862 -0.0088945862
-0.0088245053 -0.0088245053 -0.0088245053
-0.0087544243 -0.0087544243 -0.0087544243
-0.0086843434 -0.0086843434 -0.0086843434
-0.0086142625 -0.0086142625 -0.0086142625
-0.0085441815 -0.0085441815 -0.0085441815
-0.0084741006 -0.0084741006 -0.0084741006
-0.0084040197 -0.0084040197 -0.0084040197
-0.0083339387 -0.0083339387 -0.0083339387
-0.0082638578 -0.0082638578 -0.0082638578
-0.0081937769 -0.0081937769 -0.0081937769
-0.0081236960 -0.0081236960 -0.0081236960
-0.0080536150 -0.0080536150 -0.0080536150
-0.0079835341 -0.0079835341 -0.0079835341
-0.0079134532 -0.0079134532 -0.0079134532
-0.0078433722 -0.0078433722 -0.0078433722
-0.0077732913 -0.0077732913 -0.0077732913
-0.0077032104 -0.0077032104 -0.0077032104
-0.0076331295 -0.0076331295 -0.0076331295
-0.0075630485 -0.0075630485 -0.0075630485
-0.0074929676 -0.0074929676 -0.0074929676
-0.0074228867 -0.0074228867 -0.0074228867
-0.0073528057 -0.0073528057 -0.0073528057
-0.0072827248 -0.0072827248 -0.0072827248
-0.0072126439 -0.0072126439 -0.0072126439
-0.0071425629 -0.0071425629 -0.0071425629
-0.0070724820 -0.0070724820 -0.0070724820
-0.0070024011 -0.0070024011 -0.0070024011
-0.0069323202 -0.0069323202 -0.0069323202
-0.0068622392 -0.0068622392 -0.0068622392
-0.0067921583 -0.0067921583 -0.0067921583
-0.0067220774 -0.0067220774 -0.0067220774
-0.0066519964 -0.0066519964 -0.0066519964
-0.0065819155 -0.0065819155 -0.0065819155
-0.0065118346 -0.0065118346 -0.0065118346
-0.0064417536 -0.0064417536 -0.0064417536
-0.0063716727 -0.0063716727 -0.0063716727
-0.0063015918 -0.0063015918 -0.0063015918
-0.0062315109 -0.0062315109 -0.0062315109
-0.0061614299 -0.0061614299 -0.0061614299
-0.0060913490 -0.0060913490 -0.0060913490
-0.0060212681 -0.0060212681 -0.0060212681
-0.0059511871 -0.0059511871 -0.0059511871
-0.0058811062 -0.0058811062 -0.0058811062
-0.0058110253 -0.0058110253 -0.0058110253
-0.0057409443 -0.0057409443 -0.0057409443
-0.0056708634 -0.0056708634 -0.0056708634
-0.0056007825 -0.0056007825 -0.0056007825
-0.0055307016 -0.0055307016 -0.0055307016
-0.0054606206 -0.0054606206 -0.0054606206
-0.0053905397 -0.0053905397 -0.0053905397
-0.0053204588 -0.0053204588 -0.0053204588
-0.0052503778 -0.0052503778 -0.0052503778
-0.0051802969 -0.0051802969 -0.0051802969
-0.0051102160 -0.0051102160 -0.0051102160
-0.0050401351 -0.0050401351 -0.0050401351
-0.0049700541 -0.0049700541 -0.0049700541
-0.0048999732 -0.0048999732 -0.0048999732
-0.0048298923 -0.0048298923 -0.0048298923
-0.0047598113 -0.0047598113 -0.0047598113
-0.0046897304 -0.0046897304 -0.0046897304
-0.0046196495 -0.0046196495 -0.0046196495
-0.0045495685 -0.0045495685 -0.0045495685
-0.0044794876 -0.0044794876 -0.0044794876
-0.0044094067 -0.0044094067 -0.0044094067
-0.0043393258 -0.0043393258 -0.0043393258
-0.0042692448 -0.0042692448 -0.0042692448
-0.0041991639 -0.0041991639 -0.0041991639
-0.0041290830 -0.0041290830 -0.0041290830
-0.0040590020 -0.0040590020 -0.0040590020
-0.0039889211 -0.0039889211 -0.0039889211
-0.0039188402 -0.0039188402 -0.0039188402
-0.0038487592 -0.0038487592 -0.0038487592
-0.0037786783 -0.0037786783 -0.0037786783
-0.0037085974 -0.0037085974 -0.0037085974
-0.0036385165 -0.0036385165 -0.0036385165
-0.0035684355 -0.0035684355 -0.0035684355
-0.0034983546 -0.0034983546 -0.0034983546
-0.0034282737 -0.0034282737 -0.0034282737
-0.0033581927 -0.0033581927 -0.0033581927
-0.0032881118 -0.0032881118 -0.0032881118
-0.0032180309 -0.0032180309 -0.0032180309
-0.0031479499 -0.0031479499 -0.0031479499
-0.0030778690 -0.0030778690 -0.0030778690
-0.0030077881 -0.0030077881 -0.0030077881
-0.0029377072 -0.0029377072 -0.0029377072
-0.0028676262 -0.0028676262 -0.0028676262
-0.0027975453 -0.0027975453 -0.0027975453
-0.0027274644 -0.0027274644 -0.0027274644
-0.0026573834 -0.0026573834 -0.0026573834
-0.0025873025 -0.0025873025 -0.0025873025
-0.0025172216 -0.0025172216 -0.0025172216
-0.0024471407 -0.0024471407 -0.0024471407
-0.0023770597 -0.0023770597 -0.0023770597
-0.0023069788 -0.0023069788 -0.0023069788
-0.0022368979 -0.0022368979 -0.0022368979
-0.0021668169 -0.0021668169 -0.0021668169
-0.0020967360 -0.0020967360 -0.0020967360
-0.0020266551 -0.0020266551 -0.0020266551
-0.0019565741 -0.0019565741 -0.0019565741
-0.0018864932 -0.0018864932 -0.0018864932
-0.0018164123 -0.0018164123 -0.0018164123
-0.0017463314 -0.0017463314 -0.0017463314
-0.0016762504 -0.0016762504 -0.0016762504
-0.0016061695 -0.0016061695 -0.0016061695
-0.0015360886 -0.0015360886 -0.0015360886
-0.0014660076 -0.0014660076 -0.0014660076
-0.0013959267 -0.0013959267 -0.0013959267
-0.0013258458 -0.0013258458 -0.0013258458
-0.0012557648 -0.0012557648 -0.0012557648
-0.0011856839 -0.0011856839 -0.0011856839
-0.0011156030 -0.0011156030 -0.0011156030
-0.0010455221 -0.0010455221 -0.0010455221
-0.0009754411 -0.0009754411 -0.0009754411
-0.0009053602 -0.0009053602 -0.0009053602
-0.0008352793 -0.0008352793 -0.0008352793
-0.0007651983 -0.0007651983 -0.0007651983
-0.0006951174 -0.0006951174 -0.0006951174
-0.0006250365 -0.0006250365 -0.0006250365
-0.0005549555 -0.0005549555 -0.0005549555
-0.0004848746 -0.0004848746 -0.0004848746
-0.0004147937 -0.0004147937 -0.0004147937
-0.0003447128 -0.0003447128 -0.0003447128
-0.0002746318 -0.0002746318 -0.0002746318
-0.0002045509 -0.0002045509 -0.0002045509
-0.0001344700 -0.0001344700 -0.0001344700
-0.0000643890 -0.0000643890 -0.0000643890
0.0000056919 0.0000056919 0.0000056919
0.0000757728 0.0000757728 0.0000757728
0.0001458537 0.0001458537 0.0001458537
0.0002159347 0.0002159347 0.0002159347
0.0002860156 0.0002860156 0.0002860156
0.0003560965 0.0003560965 0.0003560965
0.0004261775 0.0004261775 0.0004261775
0.0004962584 0.0004962584 0.0004962584
0.0005663393 0.0005663393 0.0005663393
0.0006364203 0.0006364203 0.0006364203
0.0007065012 0.0007065012 0.0007065012
0.0007765821 0.0007765821 0.0007765821
0.0008466630 0.0008466630 0.0008466630
0.0009167440 0.0009167440 0.0009167440
0.0009868249 0.0009868249 0.0009868249
0.0010569058 0.0010569058 0.0010569058
0.0011269868 0.0011269868 0.0011269868
0.0011970677 0.0011970677 0.0011970677
0.0012671486 0.0012671486 0.0012671486
0.0013372296 0.0013372296 0.0013372296
0.0014073105 0.0014073105 0.0014073105
0.0014773914 0.0014773914 0.0014773914
0.0015474723 0.0015474723 0.0015474723
0.0016175533 0.0016175533 0.0016175533
0.0016876342 0.0016876342 0.0016876342
0.0017577151 0.0017577151 0.0017577151
0.0018277961 0.0018277961 0.0018277961
0.0018978770 0.0018978770 0.0018978770
0.0019679579 0.0019679579 0.0019679579
0.0020380389 0.0020380389 0.0020380389
0.0021081198 0.0021081198 0.0021081198
0.0021782007 0.0021782007 0.0021782007
0.0022482816 0.0022482816 0.0022482816
0.0023183626 0.0023183626 0.0023183626
0.0023884435 0.0023884435 0.0023884435
0.0024585244 0.0024585244 0.0024585244
0.0025286054 0.0025286054 0.0025286054
0.0025986863 0.0025986863 0.0025986863
0.0026687672 0.0026687672 0.0026687672
0.0027388481 0.0027388481 0.0027388481
0.0028089291 0.0028089291 0.0028089291
0.0028790100 0.0028790100 0.0028790100
0.0029490909 0.0029490909 0.0029490909
0.0030191719 0.0030191719 0.0030191719
0.0030892528 0.0030892528 0.0030892528
0.0031593337 0.0031593337 0.0031593337
0.0032294147 0.0032294147 0.0032294147
0.0032994956 0.0032994956 0.0032994956
0.0033695765 0.0033695765 0.0033695765
0.0034396574 0.0034396574 0.0034396574
0.0035097384 0.0035097384 0.0035097384
0.0035798193 0.0035798193 0.0035798193
0.0036499002 0.0036499002 0.0036499002
0.0037199812 0.0037199812 0.0037199812
0.0037900621 0.0037900621 0.0037900621
0.0038601430 0.0038601430 0.0038601430
0.0039302240 0.0039302240 0.0039302240
0.0040003049 0.0040003049 0.0040003049
0.0040703858 0.0040703858 0.0040703858
0.0041404667 0.0041404667 0.0041404667
0.0042105477 0.0042105477 0.0042105477
0.0042806286 0.0042806286 0.0042806286
0.0043507095 0.0043507095 0.0043507095
0.0044207905 0.0044207905 0.0044207905
0.0044908714 0.0044908714 0.0044908714
0.0045609523 0.0045609523 0.0045609523
0.0046310333 0.0046310333 0.0046310333
0.0047011142 0.0047011142 0.0047011142
0.0047711951 0.0047711951 0.0047711951
0.0048412760 0.0048412760 0.0048412760
0.0049113570 0.0049113570 0.0049113570
0.0049814379 0.0049814379 0.0049814379
0.0050515202 0.0050515202 0.0050515202
0.0051216728 0.0051216728 0.0051216728
0.0051918834 0.0051918834 0.0051918834
0.0052621520 0.0052621520 0.0052621520
0.0053324788 0.0053324788 0.0053324788
0.0054028638 0.0054028638 0.0054028638
0.0054733071 0.0054733071 0.0054733071
0.0055438086 0.0055438086 0.0055438086
0.0056143684 0.0056143684 0.0056143684
0.0056849866 0.0056849866 0.0056849866
0.0057556632 0.0057556632 0.0057556632
0.0058263983 0.0058263983 0.0058263983
0.0058971919 0.0058971919 0.0058971919
0.0059680441 0.0059680441 0.0059680441
0.0060389549 0.0060389549 0.0060389549
0.0061099244 0.0061099244 0.0061099244
0.0061809525 0.0061809525 0.0061809525
0.0062520395 0.0062520395 0.0062520395
0.0063231852 0.0063231852 0.0063231852
0.0063943899 0.0063943899 0.0063943899
0.0064656534 0.0064656534 0.0064656534
0.0065369759 0.0065369759 0.0065369759
0.0066083573 0.0066083573 0.0066083573
0.0066797979 0.0066797979 0.0066797979
0.0067512975 0.0067512975 0.0067512975
0.0068228563 0.0068228563 0.0068228563
0.0068944743 0.0068944743 0.0068944743
0.0069661515 0.0069661515 0.0069661515
0.0070378881 0.0070378881 0.0070378881
0.0071096840 0.0071096840 0.0071096840
0.0071815393 0.0071815393 0.0071815393
0.0072534540 0.0072534540 0.0072534540
0.0073254282 0.0073254282 0.0073254282
0.0073974620 0.0073974620 0.0073974620
0.0074695554 0.0074695554 0.0074695554
0.0075417084 0.0075417084 0.0075417084
0.0076139211 0.0076139211 0.0076139211
0.0076861935 0.0076861935 0.0076861935
0.0077585258 0.0077585258 0.0077585258
0.0078309179 0.0078309179 0.0078309179
0.0079033698 0.0079033698 0.0079033698
0.0079758818 0.0079758818 0.0079758818
0.0080484537 0.0080484537 0.0080484537
0.0081210856 0.0081210856 0.0081210856
0.0081937776 0.0081937776 0.0081937776
0.0082665298 0.0082665298 0.0082665298
0.0083393422 0.0083393422 0.0083393422
0.0084122147 0.0084122147 0.0084122147
0.0084851476 0.0084851476 0.0084851476
0.0085581409 0.0085581409 0.0085581409
0.0086311945 0.0086311945 0.0086311945
0.0087043085 0.0087043085 0.0087043085
0.0087774830 0.0087774830 0.0087774830
0.0088507181 0.0088507181 0.0088507181
0.0089240138 0.0089240138 0.0089240138
0.0089973701 0.0089973701 0.0089973701
0.0090707871 0.0090707871 0.0090707871
0.0091442648 0.0091442648 0.0091442648
0.0092178033 0.0092178033 0.0092178033
0.0092914027 0.0092914027 0.0092914027
0.0093650629 0.0093650629 0.0093650629
0.0094387841 0.0094387841 0.0094387841
0.0095125663 0.0095125663 0.0095125663
0.0095864095 0.0095864095 0.0095864095
0.0096603138 0.0096603138 0.0096603138
0.0097342792 0.0097342792 0.0097342792
0.0098083059 0.0098083059 0.0098083059
0.0098823938 0.0098823938 0.0098823938
0.0099565429 0.0099565429 0.0099565429
0.0100307535 0.0100307535 0.0100307535
0.0101050254 0.0101050254 0.0101050254
0.0101793587 0.0101793587 0.0101793587
0.0102537536 0.0102537536 0.0102537536
0.0103282100 0.0103282100 0.0103282100
0.0104027280 0.0104027280 0.0104027280
0.0104773077 0.0104773077 0.0104773077
0.0105519490 0.0105519490 0.0105519490
0.0106266521 0.0106266521 0.0106266521
0.0107014170 0.0107014170 0.0107014170
0.0107762438 0.0107762438 0.0107762438
0.0108511324 0.0108511324 0.0108511324
0.0109260831 0.0109260831 0.0109260831
0.0110010957 0.0110010957 0.0110010957
0.0110761704 0.0110761704 0.0110761704
0.0111513072 0.0111513072 0.0111513072
0.0112265061 0.0112265061 0.0112265061
0.0113017673 0.0113017673 0.0113017673
0.0113770908 0.0113770908 0.0113770908
0.0114524765 0.0114524765 0.0114524765
0.0115279246 0.0115279246 0.0115279246
0.0116034352 0.0116034352 0.0116034352
0.0116790082 0.0116790082 0.0116790082
0.0117546437 0.0117546437 0.0117546437
0.0118303418 0.0118303418 0.0118303418
0.0119061025 0.0119061025 0.0119061025
0.0119819259 0.0119819259 0.0119819259
0.0120578121 0.0120578121 0.0120578121
0.0121337610 0.0121337610 0.0121337610
0.0122097728 0.0122097728 0.0122097728
0.0122858474 0.0122858474 0.0122858474
0.0123619850 0.0123619850 0.0123619850
0.0124381855 0.0124381855 0.0124381855
0.0125144491 0.0125144491 0.0125144491
0.0125907758 0.0125907758 0.0125907758
0.0126671657 0.0126671657 0.0126671657
0.0127436187 0.0127436187 0.0127436187
0.0128201350 0.0128201350 0.0128201350
0.0128967146 0.0128967146 0.0128967146
0.0129733576 0.0129733576 0.0129733576
0.0130500639 0.0130500639 0.0130500639
0.0131268337 0.0131268337 0.0131268337
0.0132036671 0.0132036671 0.0132036671
0.0132805640 0.0132805640 0.0132805640
0.0133575245 0.0133575245 0.0133575245
0.0134345487 0.0134345487 0.0134345487
0.0135116366 0.0135116366 0.0135116366
0.0135887882 0.0135887882 0.0135887882
0.0136660037 0.0136660037 0.0136660037
0.0137432831 0.0137432831 0.0137432831
0.0138206265 0.0138206265 0.0138206265
0.0138980338 0.0138980338 0.0138980338
0.0139755051 0.0139755051 0.0139755051
0.0140530406 0.0140530406 0.0140530406
0.0141306402 0.0141306402 0.0141306402
0.0142083039 0.0142083039 0.0142083039
0.0142860320 0.0142860320 0.0142860320
0.0143638243 0.0143638243 0.0143638243
0.0144416810 0.0144416810 0.0144416810
0.0145196021 0.0145196021 0.0145196021
0.0145975877 0.0145975877 0.0145975877
0.0146756378 0.0146756378 0.0146756378
0.0147537525 0.0147537525 0.0147537525
0.0148319318 0.0148319318 0.0148319318
0.0149101758 0.0149101758 0.0149101758
0.0149884845 0.0149884845 0.0149884845
0.0150668579 0.0150668579 0.0150668579
0.0151452963 0.0151452963 0.0151452963
0.0152237995 0.0152237995 0.0152237995
0.0153023677 0.0153023677 0.0153023677
0.0153810008 0.0153810008 0.0153810008
0.0154596991 0.0154596991 0.0154596991
0.0155384624 0.0155384624 0.0155384624
0.0156172909 0.0156172909 0.0156172909
0.0156961846 0.0156961846 0.0156961846
0.0157751436 0.0157751436 0.0157751436
0.0158541679 0.0158541679 0.0158541679
0.0159332575 0.0159332575 0.0159332575
0.0160124126 0.0160124126 0.0160124126
0.0160916332 0.0160916332 0.0160916332
0.0161709194 0.0161709194 0.0161709194
0.0162502711 0.0162502711 0.0162502711
0.0163296885 0.0163296885 0.0163296885
0.0164091716 0.0164091716 0.0164091716
0.0164887204 0.0164887204 0.0164887204
0.0165683350 0.0165683350 0.0165683350
0.0166480156 0.0166480156 0.0166480156
0.0167277620 0.0167277620 0.0167277620
0.0168075744 0.0168075744 0.0168075744
0.0168874528 0.0168874528 0.0168874528
0.0169673974 0.0169673974 0.0169673974
0.0170474080 0.0170474080 0.0170474080
0.0171274849 0.0171274849 0.0171274849
0.0172076280 0.0172076280 0.0172076280
0.0172878374 0.0172878374 0.0172878374
0.0173681132 0.0173681132 0.0173681132
0.0174484553 0.0174484553 0.0174484553
0.0175288640 0.0175288640 0.0175288640
0.0176093391 0.0176093391 0.0176093391
0.0176898809 0.0176898809 0.0176898809
0.0177704893 0.0177704893 0.0177704893
0.0178511643 0.0178511643 0.0178511643
0.0179319061 0.0179319061 0.0179319061
0.0180127148 0.0180127148 0.0180127148
0.0180935902 0.0180935902 0.0180935902
0.0181745326 0.0181745326 0.0181745326
0.0182555419 0.0182555419 0.0182555419
0.0183366183 0.0183366183 0.0183366183
0.0184177617 0.0184177617 0.0184177617
0.0184989723 0.0184989723 0.0184989723
0.0185802500 0.0185802500 0.0185802500
0.0186615950 0.0186615950 0.0186615950
0.0187430073 0.0187430073 0.0187430073
0.0188244869 0.0188244869 0.0188244869
0.0189060340 0.0189060340 0.0189060340
0.0189876485 0.0189876485 0.0189876485
0.0190693305 0.0190693305 0.0190693305
0.0191510801 0.0191510801 0.0191510801
0.0192328974 0.0192328974 0.0192328974
0.0193147823 0.0193147823 0.0193147823
0.0193967350 0.0193967350 0.0193967350
0.0194787555 0.0194787555 0.0194787555
0.0195608438 0.0195608438 0.0195608438
0.0196430000 0.0196430000 0.0196430000
0.0197252242 0.0197252242 0.0197252242
0.0198075165 0.0198075165 0.0198075165
0.0198898768 0.0198898768 0.0198898768
0.0199723052 0.0199723052 0.0199723052
0.0200548019 0.0200548019 0.0200548019
0.0201373668 0.0201373668 0.0201373668
0.0202200000 0.0202200000 0.0202200000
0.0203027016 0.0203027016 0.0203027016
0.0203854716 0.0203854716 0.0203854716
0.0204683100 0.0204683100 0.0204683100
0.0205512170 0.0205512170 0.0205512170
0.0206341926 0.0206341926 0.0206341926
0.0207172368 0.0207172368 0.0207172368
0.0208003498 0.0208003498 0.0208003498
0.0208835315 0.0208835315 0.0208835315
0.0209667820 0.0209667820 0.0209667820
0.0210501014 0.0210501014 0.0210501014
0.0211334897 0.0211334897 0.0211334897
0.0212169470 0.0212169470 0.0212169470
0.0213004734 0.0213004734 0.0213004734
0.0213840688 0.0213840688 0.0213840688
0.0214677334 0.0214677334 0.0214677334
0.0215514673 0.0215514673 0.0215514673
0.0216352704 0.0216352704 0.0216352704
0.0217191428 0.0217191428 0.0217191428
0.0218030846 0.0218030846 0.0218030846
0.0218870959 0.0218870959 0.0218870959
0.0219711767 0.0219711767 0.0219711767
0.0220553270 0.0220553270 0.0220553270
0.0221395469 0.0221395469 0.0221395469
0.0222238366 0.0222238366 0.0222238366
0.0223081959 0.0223081959 0.0223081959
0.0223926251 0.0223926251 0.0223926251
0.0224771241 0.0224771241 0.0224771241
0.0225616930 0.0225616930 0.0225616930
0.0226463319 0.0226463319 0.0226463319
0.0227310407 0.0227310407 0.0227310407
0.0228158197 0.0228158197 0.0228158197
0.0229006688 0.0229006688 0.0229006688
0.0229855881 0.0229855881 0.0229855881
0.0230705777 0.0230705777 0.0230705777
0.0231556376 0.0231556376 0.0231556376
0.0232407678 0.0232407678 0.0232407678
0.0233259685 0.0233259685 0.0233259685
0.0234112397 0.0234112397 0.0234112397
0.0234965814 0.0234965814 0.0234965814
0.0235819937 0.0235819937 0.0235819937
0.0236674767 0.0236674767 0.0236674767
0.0237530304 0.0237530304 0.0237530304
0.0238386548 0.0238386548 0.0238386548
0.0239243502 0.0239243502 0.0239243502
0.0240101164 0.0240101164 0.0240101164
0.0240959535 0.0240959535 0.0240959535
0.0241818617 0.0241818617 0.0241818617
0.0242678410 0.0242678410 0.0242678410
0.0243538913 0.0243538913 0.0243538913
0.0244400129 0.0244400129 0.0244400129
0.0245262057 0.0245262057 0.0245262057
0.0246124699 0.0246124699 0.0246124699
0.0246988054 0.0246988054 0.0246988054
0.0247852123 0.0247852123 0.0247852123
0.0248716907 0.0248716907 0.0248716907
0.0249582406 0.0249582406 0.0249582406
0.0250448622 0.0250448622 0.0250448622
0.0251315554 0.0251315554 0.0251315554
0.0252183204 0.0252183204 0.0252183204
0.0253051571 0.0253051571 0.0253051571
0.0253920657 0.0253920657 0.0253920657
0.0254790461 0.0254790461 0.0254790461
0.0255660985 0.0255660985 0.0255660985
0.0256532230 0.0256532230 0.0256532230
0.0257404195 0.0257404195 0.0257404195
0.0258276882 0.0258276882 0.0258276882
0.0259150290 0.0259150290 0.0259150290
0.0260024421 0.0260024421 0.0260024421
0.0260899276 0.0260899276 0.0260899276
0.0261774854 0.0261774854 0.0261774854
0.0262651156 0.0262651156 0.0262651156
0.0263528184 0.0263528184 0.0263528184
0.0264405937 0.0264405937 0.0264405937
0.0265284416 0.0265284416 0.0265284416
0.0266163622 0.0266163622 0.0266163622
0.0267043555 0.0267043555 0.0267043555
0.0267924217 0.0267924217 0.0267924217
0.0268805607 0.0268805607 0.0268805607
0.0269687726 0.0269687726 0.0269687726
0.0270570575 0.0270570575 0.0270570575
0.0271454154 0.0271454154 0.0271454154
0.0272338464 0.0272338464 0.0272338464
0.0273223506 0.0273223506 0.0273223506
0.0274109280 0.0274109280 0.0274109280
0.0274995787 0.0274995787 0.0274995787
0.0275883027 0.0275883027 0.0275883027
0.0276771001 0.0276771001 0.0276771001
0.0277659710 0.0277659710 0.0277659710
0.0278549155 0.0278549155 0.0278549155
0.0279439335 0.0279439335 0.0279439335
0.0280330251 0.0280330251 0.0280330251
0.0281221905 0.0281221905 0.0281221905
0.0282114296 0.0282114296 0.0282114296
0.0283007425 0.0283007425 0.0283007425
0.0283901294 0.0283901294 0.0283901294
0.0284795901 0.0284795901 0.0284795901
0.0285691249 0.0285691249 0.0285691249
0.0286587338 0.0286587338 0.0286587338
0.0287484168 0.0287484168 0.0287484168
0.0288381740 0.0288381740 0.0288381740
0.0289280055 0.0289280055 0.0289280055
0.0290179113 0.0290179113 0.0290179113
0.0291078914 0.0291078914 0.0291078914
0.0291979460 0.0291979460 0.0291979460
0.0292880751 0.0292880751 0.0292880751
0.0293782788 0.0293782788 0.0293782788
0.0294685571 0.0294685571 0.0294685571
0.0295589101 0.0295589101 0.0295589101
0.0296493378 0.0296493378 0.0296493378
0.0297398403 0.0297398403 0.0297398403
0.0298304178 0.0298304178 0.0298304178
0.0299210701 0.0299210701 0.0299210701
0.0300117975 0.0300117975 0.0300117975
0.0301025999 0.0301025999 0.0301025999
0.0301934774 0.0301934774 0.0301934774
0.0302844301 0.0302844301 0.0302844301
0.0303754581 0.0303754581 0.0303754581
0.0304665613 0.0304665613 0.0304665613
0.0305577400 0.0305577400 0.0305577400
0.0306489940 0.0306489940 0.0306489940
0.0307403236 0.0307403236 0.0307403236
0.0308317287 0.0308317287 0.0308317287
0.0309232095 0.0309232095 0.0309232095
0.0310147659 0.0310147659 0.0310147659
0.0311063981 0.0311063981 0.0311063981
0.0311981061 0.0311981061 0.0311981061
0.0312898899 0.0312898899 0.0312898899
0.0313817497 0.0313817497 0.0313817497
0.0314736855 0.0314736855 0.0314736855
0.0315656973 0.0315656973 0.0315656973
0.0316577853 0.0316577853 0.0316577853
0.0317499494 0.0317499494 0.0317499494
0.0318421898 0.0318421898 0.0318421898
0.0319345065 0.0319345065 0.0319345065
0.0320268996 0.0320268996 0.0320268996
0.0321193691 0.0321193691 0.0321193691
0.0322119152 0.0322119152 0.0322119152
0.0323045378 0.0323045378 0.0323045378
0.0323972370 0.0323972370 0.0323972370
0.0324900129 0.0324900129 0.0324900129
0.0325828655 0.0325828655 0.0325828655
0.0326757950 0.0326757950 0.0326757950
0.0327688014 0.0327688014 0.0327688014
0.0328618847 0.0328618847 0.0328618847
0.0329550450 0.0329550450 0.0329550450
0.0330482824 0.0330482824 0.0330482824
0.0331415969 0.0331415969 0.0331415969
0.0332349886 0.0332349886 0.0332349886
0.0333284576 0.0333284576 0.0333284576
0.0334220039 0.0334220039 0.0334220039
0.0335156276 0.0335156276 0.0335156276
0.0336093288 0.0336093288 0.0336093288
0.0337031074 0.0337031074 0.0337031074
0.0337969637 0.0337969637 0.0337969637
0.0338908976 0.0338908976 0.0338908976
0.0339849092 0.0339849092 0.0339849092
0.0340789986 0.0340789986 0.0340789986
0.0341731659 0.0341731659 0.0341731659
0.0342674110 0.0342674110 0.0342674110
0.0343617341 0.0343617341 0.0343617341
0.0344561353 0.0344561353 0.0344561353
0.0345506145 0.0345506145 0.0345506145
0.0346451719 0.0346451719 0.0346451719
0.0347398076 0.0347398076 0.0347398076
0.0348345215 0.0348345215 0.0348345215
0.0349293138 0.0349293138 0.0349293138
0.0350241845 0.0350241845 0.0350241845
0.0351191337 0.0351191337 0.0351191337
0.0352141615 0.0352141615 0.0352141615
0.0353092678 0.0353092678 0.0353092678
0.0354044529 0.0354044529 0.0354044529
0.0354997167 0.0354997167 0.0354997167
0.0355950593 0.0355950593 0.0355950593
0.0356904808 0.0356904808 0.0356904808
0.0357859812 0.0357859812 0.0357859812
0.0358815607 0.0358815607 0.0358815607
0.0359772192 0.0359772192 0.0359772192
0.0360729568 0.0360729568 0.0360729568
0.0361687737 0.0361687737 0.0361687737
0.0362646698 0.0362646698 0.0362646698
0.0363606453 0.0363606453 0.0363606453
0.0364567001 0.0364567001 0.0364567001
0.0365528345 0.0365528345 0.0365528345
0.0366490483 0.0366490483 0.0366490483
