Assets/TransferFunctionLUTs/Linear_to_BMDFilm.cube
# DaVinci Resolve Cube (1D shaper LUT).

LUT_1D_SIZE 4096
LUT_1D_INPUT_RANGE -0.0071215555 5.7661304310

0.0000000000 0.0000000000 0.0000000000
0.0070058769 0.0070058769 0.0070058769
0.0140117537 0.0140117537 0.0140117537
0.0210176315 0.0210176315 0.0210176315
0.0280235074 0.0280235074 0.0280235074
0.0350293852 0.0350293852 0.0350293852
0.0420352630 0.0420352630 0.0420352630
0.0490411408 0.0490411408 0.0490411408
0.0560470149 0.0560470149 0.0560470149
0.0630317628 0.0630317628 0.0630317628
0.0698086843 0.0698086843 0.0698086843
0.0763478875 0.0763478875 0.0763478875
0.0826654881 0.0826654881 0.0826654881
0.0887760147 0.0887760147 0.0887760147
0.0946926028 0.0946926028 0.0946926028
0.1004271954 0.1004271954 0.1004271954
0.1059906557 0.1059906557 0.1059906557
0.1113929003 0.1113929003 0.1113929003
0.1166430041 0.1166430041 0.1166430041
0.1217493117 0.1217493117 0.1217493117
0.1267194748 0.1267194748 0.1267194748
0.1315605938 0.1315605938 0.1315605938
0.1362791806 0.1362791806 0.1362791806
0.1408812702 0.1408812702 0.1408812702
0.1453725100 0.1453725100 0.1453725100
0.1497581005 0.1497581005 0.1497581005
0.1540428847 0.1540428847 0.1540428847
0.1582314074 0.1582314074 0.1582314074
0.1623279005 0.1623279005 0.1623279005
0.1663363129 0.1663363129 0.1663363129
0.1702603549 0.1702603549 0.1702603549
0.1741035134 0.1741035134 0.1741035134
0.1778690517 0.1778690517 0.1778690517
0.1815600246 0.1815600246 0.1815600246
0.1851793677 0.1851793677 0.1851793677
0.1887297630 0.1887297630 0.1887297630
0.1922138184 0.1922138184 0.1922138184
0.1956339628 0.1956339628 0.1956339628
0.1989924908 0.1989924908 0.1989924908
0.2022915930 0.2022915930 0.2022915930
0.2055333257 0.2055333257 0.2055333257
0.2087196559 0.2087196559 0.2087196559
0.2118524313 0.2118524313 0.2118524313
0.2149334550 0.2149334550 0.2149334550
0.2179643810 0.2179643810 0.2179643810
0.2209468186 0.2209468186 0.2209468186
0.2238823026 0.2238823026 0.2238823026
0.2267722934 0.2267722934 0.2267722934
0.2296181470 0.2296181470 0.2296181470
0.2324212343 0.2324212343 0.2324212343
0.2351827919 0.2351827919 0.2351827919
0.2379040420 0.2379040420 0.2379040420
0.2405861467 0.2405861467 0.2405861467
0.2432302088 0.2432302088 0.2432302088
0.2458373010 0.2458373010 0.2458373010
0.2484084368 0.2484084368 0.2484084368
0.2509445846 0.2509445846 0.2509445846
0.2534467280 0.2534467280 0.2534467280
0.2559157014 0.2559157014 0.2559157014
0.2583524287 0.2583524287 0.2583524287
0.2607577145 0.2607577145 0.2607577145
0.2631323636 0.2631323636 0.2631323636
0.2654771507 0.2654771507 0.2654771507
0.2677927911 0.2677927911 0.2677927911
0.2700800598 0.2700800598 0.2700800598
0.2723395824 0.2723395824 0.2723395824
0.2745720446 0.2745720446 0.2745720446
0.2767781019 0.2767781019 0.2767781019
0.2789583802 0.2789583802 0.2789583802
0.2811134160 0.2811134160 0.2811134160
0.2832438648 0.2832438648 0.2832438648
0.2853502333 0.2853502333 0.2853502333
0.2874330580 0.2874330580 0.2874330580
0.2894928753 0.2894928753 0.2894928753
0.2915301919 0.2915301919 0.2915301919
0.2935454547 0.2935454547 0.2935454547
0.2955392003 0.2955392003 0.2955392003
0.2975118458 0.2975118458 0.2975118458
0.2994638383 0.2994638383 0.2994638383
0.3013955951 0.3013955951 0.3013955951
0.3033075631 0.3033075631 0.3033075631
0.3052000999 0.3052000999 0.3052000999
0.3070736229 0.3070736229 0.3070736229
0.3089285195 0.3089285195 0.3089285195
0.3107651174 0.3107651174 0.3107651174
0.3125838339 0.3125838339 0.3125838339
0.3143849671 0.3143849671 0.3143849671
0.3161688447 0.3161688447 0.3161688447
0.3179358542 0.3179358542 0.3179358542
0.3196862340 0.3196862340 0.3196862340
0.3214203715 0.3214203715 0.3214203715
0.3231385052 0.3231385052 0.3231385052
0.3248409331 0.3248409331 0.3248409331
0.3265279830 0.3265279830 0.3265279830
0.3281998932 0.3281998932 0.3281998932
0.3298569620 0.3298569620 0.3298569620
0.3314994276 0.3314994276 0.3314994276
0.3331275284 0.3331275284 0.3331275284
0.3347415328 0.3347415328 0.3347415328
0.3363417089 0.3363417089 0.3363417089
0.3379282653 0.3379282653 0.3379282653
0.3395014405 0.3395014405 0.3395014405
0.3410614133 0.3410614133 0.3410614133
0.3426084816 0.3426084816 0.3426084816
0.3441427946 0.3441427946 0.3441427946
0.3456645906 0.3456645906 0.3456645906
0.3471740782 0.3471740782 0.3471740782
0.3486714363 0.3486714363 0.3486714363
0.3501568735 0.3501568735 0.3501568735
0.3516305387 0.3516305387 0.3516305387
0.3530926704 0.3530926704 0.3530926704
0.3545434177 0.3545434177 0.3545434177
0.3559829593 0.3559829593 0.3559829593
0.3574114740 0.3574114740 0.3574114740
0.3588291407 0.3588291407 0.3588291407
0.3602361083 0.3602361083 0.3602361083
0.3616325259 0.3616325259 0.3616325259
0.3630185723 0.3630185723 0.3630185723
0.3643943667 0.3643943667 0.3643943667
0.3657600880 0.3657600880 0.3657600880
0.3671159148 0.3671159148 0.3671159148
0.3684619069 0.3684619069 0.3684619069
0.3697982728 0.3697982728 0.3697982728
0.3711251318 0.3711251318 0.3711251318
0.3724426031 0.3724426031 0.3724426031
0.3737508357 0.3737508357 0.3737508357
0.3750499487 0.3750499487 0.3750499487
0.3763400912 0.3763400912 0.3763400912
0.3776213527 0.3776213527 0.3776213527
0.3788938522 0.3788938522 0.3788938522
0.3801577389 0.3801577389 0.3801577389
0.3814131320 0.3814131320 0.3814131320
0.3826601207 0.3826601207 0.3826601207
0.3838988245 0.3838988245 0.3838988245
0.3851293325 0.3851293325 0.3851293325
0.3863517940 0.3863517940 0.3863517940
0.3875662684 0.3875662684 0.3875662684
0.3887729049 0.3887729049 0.3887729049
0.3899717927 0.3899717927 0.3899717927
0.3911629915 0.3911629915 0.3911629915
0.3923466504 0.3923466504 0.3923466504
0.3935228288 0.3935228288 0.3935228288
0.3946916461 0.3946916461 0.3946916461
0.3958531618 0.3958531618 0.3958531618
0.3970074952 0.3970074952 0.3970074952
0.3981547356 0.3981547356 0.3981547356
0.3992949426 0.3992949426 0.3992949426
0.4004282355 0.4004282355 0.4004282355
0.4015546739 0.4015546739 0.4015546739
0.4026743472 0.4026743472 0.4026743472
0.4037873447 0.4037873447 0.4037873447
0.4048937261 0.4048937261 0.4048937261
0.4059935808 0.4059935808 0.4059935808
0.4070869982 0.4070869982 0.4070869982
0.4081740081 0.4081740081 0.4081740081
0.4092547596 0.4092547596 0.4092547596
0.4103292525 0.4103292525 0.4103292525
0.4113976061 0.4113976061 0.4113976061
0.4124598503 0.4124598503 0.4124598503
0.4135161042 0.4135161042 0.4135161042
0.4145663977 0.4145663977 0.4145663977
0.4156107903 0.4156107903 0.4156107903
0.4166493714 0.4166493714 0.4166493714
0.4176822305 0.4176822305 0.4176822305
0.4187093675 0.4187093675 0.4187093675
0.4197308719 0.4197308719 0.4197308719
0.4207468331 0.4207468331 0.4207468331
0.4217572808 0.4217572808 0.4217572808
0.4227622747 0.4227622747 0.4227622747
0.4237618744 0.4237618744 0.4237618744
0.4247561693 0.4247561693 0.4247561693
0.4257451594 0.4257451594 0.4257451594
0.4267289639 0.4267289639 0.4267289639
0.4277075827 0.4277075827 0.4277075827
0.4286810756 0.4286810756 0.4286810756
0.4296495318 0.4296495318 0.4296495318
0.4306129813 0.4306129813 0.4306129813
0.4315714836 0.4315714836 0.4315714836
0.4325250983 0.4325250983 0.4325250983
0.4334738255 0.4334738255 0.4334738255
0.4344177544 0.4344177544 0.4344177544
0.4353569448 0.4353569448 0.4353569448
0.4362914264 0.4362914264 0.4362914264
0.4372212589 0.4372212589 0.4372212589
0.4381464422 0.4381464422 0.4381464422
0.4390670955 0.4390670955 0.4390670955
0.4399831891 0.4399831891 0.4399831891
0.4408948123 0.4408948123 0.4408948123
0.4418020248 0.4418020248 0.4418020248
0.4427048266 0.4427048266 0.4427048266
0.4436032772 0.4436032772 0.4436032772
0.4444974065 0.4444974065 0.4444974065
0.4453872740 0.4453872740 0.4453872740
0.4462729394 0.4462729394 0.4462729394
0.4471544027 0.4471544027 0.4471544027
0.4480316937 0.4480316937 0.4480316937
0.4489049017 0.4489049017 0.4489049017
0.4497740269 0.4497740269 0.4497740269
0.4506391287 0.4506391287 0.4506391287
0.4515002370 0.4515002370 0.4515002370
0.4523573816 0.4523573816 0.4523573816
0.4532106221 0.4532106221 0.4532106221
0.4540599585 0.4540599585 0.4540599585
0.4549054205 0.4549054205 0.4549054205
0.4557470977 0.4557470977 0.4557470977
0.4565849900 0.4565849900 0.4565849900
0.4574191272 0.4574191272 0.4574191272
0.4582495391 0.4582495391 0.4582495391
0.4590762854 0.4590762854 0.4590762854
0.4598993659 0.4598993659 0.4598993659
0.4607188404 0.4607188404 0.4607188404
0.4615347385 0.4615347385 0.4615347385
0.4623470604 0.4623470604 0.4623470604
0.4631558657 0.4631558657 0.4631558657
0.4639611840 0.4639611840 0.4639611840
0.4647630155 0.4647630155 0.4647630155
0.4655614495 0.4655614495 0.4655614495
0.4663564563 0.4663564563 0.4663564563
0.4671480954 0.4671480954 0.4671480954
0.4679363668 0.4679363668 0.4679363668
0.4687213302 0.4687213302 0.4687213302
0.4695030153 0.4695030153 0.4695030153
0.4702814221 0.4702814221 0.4702814221
0.4710566103 0.4710566103 0.4710566103
0.4718285799 0.4718285799 0.4718285799
0.4725973606 0.4725973606 0.4725973606
0.4733629823 0.4733629823 0.4733629823
0.4741254747 0.4741254747 0.4741254747
0.4748848677 0.4748848677 0.4748848677
0.4756411910 0.4756411910 0.4756411910
0.4763944447 0.4763944447 0.4763944447
0.4771446586 0.4771446586 0.4771446586
0.4778918922 0.4778918922 0.4778918922
0.4786361158 0.4786361158 0.4786361158
0.4793773890 0.4793773890 0.4793773890
0.4801157415 0.4801157415 0.4801157415
0.4808511734 0.4808511734 0.4808511734
0.4815836847 0.4815836847 0.4815836847
0.4823133647 0.4823133647 0.4823133647
0.4830401838 0.4830401838 0.4830401838
0.4837642014 0.4837642014 0.4837642014
0.4844853878 0.4844853878 0.4844853878
0.4852038324 0.4852038324 0.4852038324
0.4859195054 0.4859195054 0.4859195054
0.4866324067 0.4866324067 0.4866324067
0.4873426259 0.4873426259 0.4873426259
0.4880501628 0.4880501628 0.4880501628
0.4887549877 0.4887549877 0.4887549877
0.4894571900 0.4894571900 0.4894571900
0.4901567400 0.4901567400 0.4901567400
0.4908536673 0.4908536673 0.4908536673
0.4915480316 0.4915480316 0.4915480316
0.4922398031 0.4922398031 0.4922398031
0.4929290116 0.4929290116 0.4929290116
0.4936156869 0.4936156869 0.4936156869
0.4942998290 0.4942998290 0.4942998290
0.4949814677 0.4949814677 0.4949814677
0.4956606328 0.4956606328 0.4956606328
0.4963373542 0.4963373542 0.4963373542
0.4970116019 0.4970116019 0.4970116019
0.4976834357 0.4976834357 0.4976834357
0.4983528554 0.4983528554 0.4983528554
0.4990198612 0.4990198612 0.4990198612
0.4996845126 0.4996845126 0.4996845126
0.5003467798 0.5003467798 0.5003467798
0.5010067225 0.5010067225 0.5010067225
0.5016643405 0.5016643405 0.5016643405
0.5023196340 0.5023196340 0.5023196340
0.5029726028 0.5029726028 0.5029726028
0.5036233664 0.5036233664 0.5036233664
0.5042718053 0.5042718053 0.5042718053
0.5049180388 0.5049180388 0.5049180388
0.5055620074 0.5055620074 0.5055620074
0.5062037706 0.5062037706 0.5062037706
0.5068433285 0.5068433285 0.5068433285
0.5074806809 0.5074806809 0.5074806809
0.5081158876 0.5081158876 0.5081158876
0.5087489486 0.5087489486 0.5087489486
0.5093798637 0.5093798637 0.5093798637
0.5100086331 0.5100086331 0.5100086331
0.5106352568 0.5106352568 0.5106352568
0.5112598538 0.5112598538 0.5112598538
0.5118823051 0.5118823051 0.5118823051
0.5125027299 0.5125027299 0.5125027299
0.5131210685 0.5131210685 0.5131210685
0.5137373805 0.5137373805 0.5137373805
0.5143516660 0.5143516660 0.5143516660
0.5149639249 0.5149639249 0.5149639249
0.5155741572 0.5155741572 0.5155741572
0.5161824226 0.5161824226 0.5161824226
0.5167887211 0.5167887211 0.5167887211
0.5173930526 0.5173930526 0.5173930526
0.5179954171 0.5179954171 0.5179954171
0.5185958147 0.5185958147 0.5185958147
0.5191943645 0.5191943645 0.5191943645
0.5197909474 0.5197909474 0.5197909474
0.5203856230 0.5203856230 0.5203856230
0.5209783912 0.5209783912 0.5209783912
0.5215693116 0.5215693116 0.5215693116
0.5221583247 0.5221583247 0.5221583247
0.5227455497 0.5227455497 0.5227455497
0.5233308673 0.5233308673 0.5233308673
0.5239143968 0.5239143968 0.5239143968
0.5244960785 0.5244960785 0.5244960785
0.5250759721 0.5250759721 0.5250759721
0.5256540775 0.5256540775 0.5256540775
0.5262303352 0.5262303352 0.5262303352
0.5268048644 0.5268048644 0.5268048644
0.5273776650 0.5273776650 0.5273776650
0.5279486775 0.5279486775 0.5279486775
0.5285179019 0.5285179019 0.5285179019
0.5290854573 0.5290854573 0.5290854573
0.5296512246 0.5296512246 0.5296512246
0.5302153230 0.5302153230 0.5302153230
0.5307777524 0.5307777524 0.5307777524
0.5313384533 0.5313384533 0.5313384533
0.5318974853 0.5318974853 0.5318974853
0.5324547887 0.5324547887 0.5324547887
0.5330104828 0.5330104828 0.5330104828
0.5335645080 0.5335645080 0.5335645080
0.5341169238 0.5341169238 0.5341169238
0.5346676707 0.5346676707 0.5346676707
0.5352168083 0.5352168083 0.5352168083
0.5357643366 0.5357643366 0.5357643366
0.5363102555 0.5363102555 0.5363102555
0.5368546247 0.5368546247 0.5368546247
0.5373973846 0.5373973846 0.5373973846
0.5379385352 0.5379385352 0.5379385352
0.5384781361 0.5384781361 0.5384781361
0.5390161872 0.5390161872 0.5390161872
0.5395526886 0.5395526886 0.5395526886
0.5400876403 0.5400876403 0.5400876403
0.5406210423 0.5406210423 0.5406210423
0.5411529541 0.5411529541 0.5411529541
0.5416833758 0.5416833758 0.5416833758
0.5422122478 0.5422122478 0.5422122478
0.5427396297 0.5427396297 0.5427396297
0.5432655811 0.5432655811 0.5432655811
0.5437899828 0.5437899828 0.5437899828
0.5443129539 0.5443129539 0.5443129539
0.5448344350 0.5448344350 0.5448344350
0.5453544855 0.5453544855 0.5453544855
0.5458730459 0.5458730459 0.5458730459
0.5463902354 0.5463902354 0.5463902354
0.5469059348 0.5469059348 0.5469059348
0.5474202633 0.5474202633 0.5474202633
0.5479331017 0.5479331017 0.5479331017
0.5484446287 0.5484446287 0.5484446287
0.5489546657 0.5489546657 0.5489546657
0.5494633913 0.5494633913 0.5494633913
0.5499706864 0.5499706864 0.5499706864
0.5504766107 0.5504766107 0.5504766107
0.5509811640 0.5509811640 0.5509811640
0.5514843464 0.5514843464 0.5514843464
0.5519862175 0.5519862175 0.5519862175
0.5524867177 0.5524867177 0.5524867177
0.5529858470 0.5529858470 0.5529858470
0.5534836650 0.5534836650 0.5534836650
0.5539801717 0.5539801717 0.5539801717
0.5544753075 0.5544753075 0.5544753075
0.5549691916 0.5549691916 0.5549691916
0.5554617643 0.5554617643 0.5554617643
0.5559530258 0.5559530258 0.5559530258
0.5564429760 0.5564429760 0.5564429760
0.5569316745 0.5569316745 0.5569316745
0.5574190617 0.5574190617 0.5574190617
0.5579052567 0.5579052567 0.5579052567
0.5583900809 0.5583900809 0.5583900809
0.5588737130 0.5588737130 0.5588737130
0.5593560934 0.5593560934 0.5593560934
0.5598372221 0.5598372221 0.5598372221
0.5603170991 0.5603170991 0.5603170991
0.5607957244 0.5607957244 0.5607957244
0.5612731576 0.5612731576 0.5612731576
0.5617493987 0.5617493987 0.5617493987
0.5622243881 0.5622243881 0.5622243881
0.5626981258 0.5626981258 0.5626981258
0.5631707311 0.5631707311 0.5631707311
0.5636421442 0.5636421442 0.5636421442
0.5641123056 0.5641123056 0.5641123056
0.5645813346 0.5645813346 0.5645813346
0.5650491714 0.5650491714 0.5650491714
0.5655158758 0.5655158758 0.5655158758
0.5659813285 0.5659813285 0.5659813285
0.5664457083 0.5664457083 0.5664457083
0.5669088960 0.5669088960 0.5669088960
0.5673709512 0.5673709512 0.5673709512
0.5678318143 0.5678318143 0.5678318143
0.5682916045 0.5682916045 0.5682916045
0.5687502027 0.5687502027 0.5687502027
0.5692077279 0.5692077279 0.5692077279
0.5696641207 0.5696641207 0.5696641207
0.5701193810 0.5701193810 0.5701193810
0.5705735683 0.5705735683 0.5705735683
0.5710266232 0.5710266232 0.5710266232
0.5714786053 0.5714786053 0.5714786053
0.5719294548 0.5719294548 0.5719294548
0.5723792315 0.5723792315 0.5723792315
0.5728279352 0.5728279352 0.5728279352
0.5732755661 0.5732755661 0.5732755661
0.5737221241 0.5737221241 0.5737221241
0.5741676092 0.5741676092 0.5741676092
0.5746120214 0.5746120214 0.5746120214
0.5750553608 0.5750553608 0.5750553608
0.5754976869 0.5754976869 0.5754976869
0.5759389400 0.5759389400 0.5759389400
0.5763791800 0.5763791800 0.5763791800
0.5768183470 0.5768183470 0.5768183470
0.5772565007 0.5772565007 0.5772565007
0.5776936412 0.5776936412 0.5776936412
0.5781297684 0.5781297684 0.5781297684
0.5785648227 0.5785648227 0.5785648227
0.5789989233 0.5789989233 0.5789989233
0.5794320107 0.5794320107 0.5794320107
0.5798640251 0.5798640251 0.5798640251
0.5802950859 0.5802950859 0.5802950859
0.5807251930 0.5807251930 0.5807251930
0.5811542869 0.5811542869 0.5811542869
0.5815823674 0.5815823674 0.5815823674
0.5820094943 0.5820094943 0.5820094943
0.5824356079 0.5824356079 0.5824356079
0.5828607678 0.5828607678 0.5828607678
0.5832849741 0.5832849741 0.5832849741
0.5837082267 0.5837082267 0.5837082267
0.5841304660 0.5841304660 0.5841304660
0.5845518112 0.5845518112 0.5845518112
0.5849722028 0.5849722028 0.5849722028
0.5853915811 0.5853915811 0.5853915811
0.5858100653 0.5858100653 0.5858100653
0.5862276554 0.5862276554 0.5862276554
0.5866442323 0.5866442323 0.5866442323
0.5870599151 0.5870599151 0.5870599151
0.5874747038 0.5874747038 0.5874747038
0.5878885388 0.5878885388 0.5878885388
0.5883014798 0.5883014798 0.5883014798
0.5887134671 0.5887134671 0.5887134671
0.5891245604 0.5891245604 0.5891245604
0.5895347595 0.5895347595 0.5895347595
0.5899440646 0.5899440646 0.5899440646
0.5903524756 0.5903524756 0.5903524756
0.5907599926 0.5907599926 0.5907599926
0.5911666155 0.5911666155 0.5911666155
0.5915723443 0.5915723443 0.5915723443
0.5919771791 0.5919771791 0.5919771791
0.5923811793 0.5923811793 0.5923811793
0.5927842855 0.5927842855 0.5927842855
0.5931864977 0.5931864977 0.5931864977
0.5935878754 0.5935878754 0.5935878754
0.5939883590 0.5939883590 0.5939883590
0.5943880081 0.5943880081 0.5943880081
0.5947868228 0.5947868228 0.5947868228
0.5951847434 0.5951847434 0.5951847434
0.5955818295 0.5955818295 0.5955818295
0.5959780812 0.5959780812 0.5959780812
0.5963734984 0.5963734984 0.5963734984
0.5967680812 0.5967680812 0.5967680812
0.5971618295 0.5971618295 0.5971618295
0.5975547433 0.5975547433 0.5975547433
0.5979468226 0.5979468226 0.5979468226
0.5983380675 0.5983380675 0.5983380675
0.5987285376 0.5987285376 0.5987285376
0.5991181135 0.5991181135 0.5991181135
0.5995069742 0.5995069742 0.5995069742
0.5998949409 0.5998949409 0.5998949409
0.6002821326 0.6002821326 0.6002821326
0.6006685495 0.6006685495 0.6006685495
0.6010541320 0.6010541320 0.6010541320
0.6014389396 0.6014389396 0.6014389396
0.6018229723 0.6018229723 0.6018229723
0.6022061706 0.6022061706 0.6022061706
0.6025885940 0.6025885940 0.6025885940
0.6029702425 0.6029702425 0.6029702425
0.6033511162 0.6033511162 0.6033511162
0.6037312150 0.6037312150 0.6037312150
0.6041105390 0.6041105390 0.6041105390
0.6044890881 0.6044890881 0.6044890881
0.6048668623 0.6048668623 0.6048668623
0.6052438617 0.6052438617 0.6052438617
0.6056201458 0.6056201458 0.6056201458
0.6059956551 0.6059956551 0.6059956551
0.6063703895 0.6063703895 0.6063703895
0.6067443490 0.6067443490 0.6067443490
0.6071175933 0.6071175933 0.6071175933
0.6074901223 0.6074901223 0.6074901223
0.6078618765 0.6078618765 0.6078618765
0.6082329154 0.6082329154 0.6082329154
0.6086031795 0.6086031795 0.6086031795
0.6089727283 0.6089727283 0.6089727283
0.6093415618 0.6093415618 0.6093415618
0.6097096205 0.6097096205 0.6097096205
0.6100769639 0.6100769639 0.6100769639
0.6104435921 0.6104435921 0.6104435921
0.6108095646 0.6108095646 0.6108095646
0.6111747622 0.6111747622 0.6111747622
0.6115392447 0.6115392447 0.6115392447
0.6119030118 0.6119030118 0.6119030118
0.6122660637 0.6122660637 0.6122660637
0.6126284599 0.6126284599 0.6126284599
0.6129900813 0.6129900813 0.6129900813
0.6133510470 0.6133510470 0.6133510470
0.6137112975 0.6137112975 0.6137112975
0.6140708923 0.6140708923 0.6140708923
0.6144297719 0.6144297719 0.6144297719
0.6147879362 0.6147879362 0.6147879362
0.6151454449 0.6151454449 0.6151454449
0.6155022383 0.6155022383 0.6155022383
0.6158583760 0.6158583760 0.6158583760
0.6162138581 0.6162138581 0.6162138581
0.6165686250 0.6165686250 0.6165686250
0.6169227362 0.6169227362 0.6169227362
0.6172761917 0.6172761917 0.6172761917
0.6176289320 0.6176289320 0.6176289320
0.6179810166 0.6179810166 0.6179810166
0.6183324456 0.6183324456 0.6183324456
0.6186832190 0.6186832190 0.6186832190
0.6190333366 0.6190333366 0.6190333366
0.6193827987 0.6193827987 0.6193827987
0.6197316051 0.6197316051 0.6197316051
0.6200797558 0.6200797558 0.6200797558
0.6204272509 0.6204272509 0.6204272509
0.6207741499 0.6207741499 0.6207741499
0.6211203337 0.6211203337 0.6211203337
0.6214659214 0.6214659214 0.6214659214
0.6218108535 0.6218108535 0.6218108535
0.6221551299 0.6221551299 0.6221551299
0.6224988103 0.6224988103 0.6224988103
0.6228418350 0.6228418350 0.6228418350
0.6231842637 0.6231842637 0.6231842637
0.6235260367 0.6235260367 0.6235260367
0.6238671541 0.6238671541 0.6238671541
0.6242076755 0.6242076755 0.6242076755
0.6245476007 0.6245476007 0.6245476007
0.6248868704 0.6248868704 0.6248868704
0.6252255440 0.6252255440 0.6252255440
0.6255635619 0.6255635619 0.6255635619
0.6259010434 0.6259010434 0.6259010434
0.6262378693 0.6262378693 0.6262378693
0.6265740991 0.6265740991 0.6265740991
0.6269096732 0.6269096732 0.6269096732
0.6272447109 0.6272447109 0.6272447109
0.6275791526 0.6275791526 0.6275791526
0.6279129386 0.6279129386 0.6279129386
0.6282461882 0.6282461882 0.6282461882
0.6285787821 0.6285787821 0.6285787821
0.6289108396 0.6289108396 0.6289108396
0.6292422414 0.6292422414 0.6292422414
0.6295731068 0.6295731068 0.6295731068
0.6299033761 0.6299033761 0.6299033761
0.6302330494 0.6302330494 0.6302330494
0.6305621862 0.6305621862 0.6305621862
0.6308906674 0.6308906674 0.6308906674
0.6312186122 0.6312186122 0.6312186122
0.6315460205 0.6315460205 0.6315460205
0.6318728328 0.6318728328 0.6318728328
0.6321990490 0.6321990490 0.6321990490
0.6325246692 0.6325246692 0.6325246692
0.6328497529 0.6328497529 0.6328497529
0.6331743002 0.6331743002 0.6331743002
0.6334982514 0.6334982514 0.6334982514
0.6338216066 0.6338216066 0.6338216066
0.6341444850 0.6341444850 0.6341444850
0.6344667673 0.6344667673 0.6344667673
0.6347884536 0.6347884536 0.6347884536
0.6351096034 0.6351096034 0.6351096034
0.6354302168 0.6354302168 0.6354302168
0.6357502937 0.6357502937 0.6357502937
0.6360698342 0.6360698342 0.6360698342
0.6363887787 0.6363887787 0.6363887787
0.6367071867 0.6367071867 0.6367071867
0.6370250583 0.6370250583 0.6370250583
0.6373424530 0.6373424530 0.6373424530
0.6376592517 0.6376592517 0.6376592517
0.6379755139 0.6379755139 0.6379755139
0.6382912397 0.6382912397 0.6382912397
0.6386064291 0.6386064291 0.6386064291
0.6389210820 0.6389210820 0.6389210820
0.6392351985 0.6392351985 0.6392351985
0.6395487785 0.6395487785 0.6395487785
0.6398618817 0.6398618817 0.6398618817
0.6401744485 0.6401744485 0.6401744485
0.6404864788 0.6404864788 0.6404864788
0.6407979727 0.6407979727 0.6407979727
0.6411089301 0.6411089301 0.6411089301
0.6414194107 0.6414194107 0.6414194107
0.6417293549 0.6417293549 0.6417293549
0.6420388222 0.6420388222 0.6420388222
0.6423477530 0.6423477530 0.6423477530
0.6426561475 0.6426561475 0.6426561475
0.6429640651 0.6429640651 0.6429640651
0.6432714462 0.6432714462 0.6432714462
0.6435783505 0.6435783505 0.6435783505
0.6438847184 0.6438847184 0.6438847184
0.6441906095 0.6441906095 0.6441906095
0.6444960237 0.6444960237 0.6444960237
0.6448009014 0.6448009014 0.6448009014
0.6451052427 0.6451052427 0.6451052427
0.6454091668 0.6454091668 0.6454091668
0.6457125545 0.6457125545 0.6457125545
0.6460154653 0.6460154653 0.6460154653
0.6463178992 0.6463178992 0.6463178992
0.6466197968 0.6466197968 0.6466197968
0.6469212174 0.6469212174 0.6469212174
0.6472221613 0.6472221613 0.6472221613
0.6475226283 0.6475226283 0.6475226283
0.6478226185 0.6478226185 0.6478226185
0.6481221318 0.6481221318 0.6481221318
0.6484211087 0.6484211087 0.6484211087
0.6487196684 0.6487196684 0.6487196684
0.6490177512 0.6490177512 0.6490177512
0.6493152976 0.6493152976 0.6493152976
0.6496124268 0.6496124268 0.6496124268
0.6499090791 0.6499090791 0.6499090791
