Assets/TransferFunctionLUTs/Linear_to_BMDFilm4K.cube
# DaVinci Resolve Cube (1D shaper LUT).

LUT_1D_SIZE 4096
LUT_1D_INPUT_RANGE -0.0101560429 2.0150830060

0.0000000001 0.0000000001 0.0000000001
0.0017233308 0.0017233308 0.0017233308
0.0034466615 0.0034466615 0.0034466615
0.0051699922 0.0051699922 0.0051699922
0.0068933229 0.0068933229 0.0068933229
0.0086166536 0.0086166536 0.0086166536
0.0103399843 0.0103399843 0.0103399843
0.0120633150 0.0120633150 0.0120633150
0.0137866457 0.0137866457 0.0137866457
0.0155099764 0.0155099764 0.0155099764
0.0172333071 0.0172333071 0.0172333071
0.0189566378 0.0189566378 0.0189566378
0.0206799685 0.0206799685 0.0206799685
0.0224032992 0.0224032992 0.0224032992
0.0241266299 0.0241266299 0.0241266299
0.0258499606 0.0258499606 0.0258499606
0.0275732913 0.0275732913 0.0275732913
0.0292966220 0.0292966220 0.0292966220
0.0310199527 0.0310199527 0.0310199527
0.0327432834 0.0327432834 0.0327432834
0.0344666141 0.0344666141 0.0344666141
0.0361899448 0.0361899448 0.0361899448
0.0379132755 0.0379132755 0.0379132755
0.0396366062 0.0396366062 0.0396366062
0.0413599369 0.0413599369 0.0413599369
0.0430832676 0.0430832676 0.0430832676
0.0448065983 0.0448065983 0.0448065983
0.0465299291 0.0465299291 0.0465299291
0.0482532598 0.0482532598 0.0482532598
0.0499765905 0.0499765905 0.0499765905
0.0516999212 0.0516999212 0.0516999212
0.0534226696 0.0534226696 0.0534226696
0.0551374512 0.0551374512 0.0551374512
0.0568423326 0.0568423326 0.0568423326
0.0585374273 0.0585374273 0.0585374273
0.0602228472 0.0602228472 0.0602228472
0.0618987021 0.0618987021 0.0618987021
0.0635650998 0.0635650998 0.0635650998
0.0652221466 0.0652221466 0.0652221466
0.0668699468 0.0668699468 0.0668699468
0.0685086029 0.0685086029 0.0685086029
0.0701382161 0.0701382161 0.0701382161
0.0717588854 0.0717588854 0.0717588854
0.0733707085 0.0733707085 0.0733707085
0.0749737816 0.0749737816 0.0749737816
0.0765681990 0.0765681990 0.0765681990
0.0781540538 0.0781540538 0.0781540538
0.0797314374 0.0797314374 0.0797314374
0.0813004398 0.0813004398 0.0813004398
0.0828611497 0.0828611497 0.0828611497
0.0844136542 0.0844136542 0.0844136542
0.0859580391 0.0859580391 0.0859580391
0.0874943891 0.0874943891 0.0874943891
0.0890227871 0.0890227871 0.0890227871
0.0905433151 0.0905433151 0.0905433151
0.0920560539 0.0920560539 0.0920560539
0.0935610826 0.0935610826 0.0935610826
0.0950584796 0.0950584796 0.0950584796
0.0965483218 0.0965483218 0.0965483218
0.0980306852 0.0980306852 0.0980306852
0.0995056443 0.0995056443 0.0995056443
0.1009732729 0.1009732729 0.1009732729
0.1024336434 0.1024336434 0.1024336434
0.1038868272 0.1038868272 0.1038868272
0.1053328948 0.1053328948 0.1053328948
0.1067719154 0.1067719154 0.1067719154
0.1082039575 0.1082039575 0.1082039575
0.1096290885 0.1096290885 0.1096290885
0.1110473745 0.1110473745 0.1110473745
0.1124588813 0.1124588813 0.1124588813
0.1138636731 0.1138636731 0.1138636731
0.1152618137 0.1152618137 0.1152618137
0.1166533657 0.1166533657 0.1166533657
0.1180383908 0.1180383908 0.1180383908
0.1194169501 0.1194169501 0.1194169501
0.1207891037 0.1207891037 0.1207891037
0.1221549107 0.1221549107 0.1221549107
0.1235144297 0.1235144297 0.1235144297
0.1248677183 0.1248677183 0.1248677183
0.1262148332 0.1262148332 0.1262148332
0.1275558307 0.1275558307 0.1275558307
0.1288907659 0.1288907659 0.1288907659
0.1302196935 0.1302196935 0.1302196935
0.1315426672 0.1315426672 0.1315426672
0.1328597403 0.1328597403 0.1328597403
0.1341709651 0.1341709651 0.1341709651
0.1354763932 0.1354763932 0.1354763932
0.1367760758 0.1367760758 0.1367760758
0.1380700632 0.1380700632 0.1380700632
0.1393584051 0.1393584051 0.1393584051
0.1406411505 0.1406411505 0.1406411505
0.1419183478 0.1419183478 0.1419183478
0.1431900449 0.1431900449 0.1431900449
0.1444562889 0.1444562889 0.1444562889
0.1457171263 0.1457171263 0.1457171263
0.1469726032 0.1469726032 0.1469726032
0.1482227649 0.1482227649 0.1482227649
0.1494676562 0.1494676562 0.1494676562
0.1507073214 0.1507073214 0.1507073214
0.1519418042 0.1519418042 0.1519418042
0.1531711478 0.1531711478 0.1531711478
0.1543953947 0.1543953947 0.1543953947
0.1556145870 0.1556145870 0.1556145870
0.1568287663 0.1568287663 0.1568287663
0.1580379737 0.1580379737 0.1580379737
0.1592422497 0.1592422497 0.1592422497
0.1604416344 0.1604416344 0.1604416344
0.1616361673 0.1616361673 0.1616361673
0.1628258876 0.1628258876 0.1628258876
0.1640108338 0.1640108338 0.1640108338
0.1651910441 0.1651910441 0.1651910441
0.1663665562 0.1663665562 0.1663665562
0.1675374075 0.1675374075 0.1675374075
0.1687036346 0.1687036346 0.1687036346
0.1698652740 0.1698652740 0.1698652740
0.1710223617 0.1710223617 0.1710223617
0.1721749331 0.1721749331 0.1721749331
0.1733230234 0.1733230234 0.1733230234
0.1744666672 0.1744666672 0.1744666672
0.1756058990 0.1756058990 0.1756058990
0.1767407526 0.1767407526 0.1767407526
0.1778712616 0.1778712616 0.1778712616
0.1789974590 0.1789974590 0.1789974590
0.1801193776 0.1801193776 0.1801193776
0.1812370499 0.1812370499 0.1812370499
0.1823505078 0.1823505078 0.1823505078
0.1834597830 0.1834597830 0.1834597830
0.1845649068 0.1845649068 0.1845649068
0.1856659102 0.1856659102 0.1856659102
0.1867628238 0.1867628238 0.1867628238
0.1878556779 0.1878556779 0.1878556779
0.1889445024 0.1889445024 0.1889445024
0.1900293268 0.1900293268 0.1900293268
0.1911101806 0.1911101806 0.1911101806
0.1921870925 0.1921870925 0.1921870925
0.1932600914 0.1932600914 0.1932600914
0.1943292055 0.1943292055 0.1943292055
0.1953944629 0.1953944629 0.1953944629
0.1964558912 0.1964558912 0.1964558912
0.1975135180 0.1975135180 0.1975135180
0.1985673702 0.1985673702 0.1985673702
0.1996174749 0.1996174749 0.1996174749
0.2006638585 0.2006638585 0.2006638585
0.2017065474 0.2017065474 0.2017065474
0.2027455675 0.2027455675 0.2027455675
0.2037809445 0.2037809445 0.2037809445
0.2048127039 0.2048127039 0.2048127039
0.2058408709 0.2058408709 0.2058408709
0.2068654705 0.2068654705 0.2068654705
0.2078865273 0.2078865273 0.2078865273
0.2089040657 0.2089040657 0.2089040657
0.2099181098 0.2099181098 0.2099181098
0.2109286837 0.2109286837 0.2109286837
0.2119358109 0.2119358109 0.2119358109
0.2129395149 0.2129395149 0.2129395149
0.2139398190 0.2139398190 0.2139398190
0.2149367459 0.2149367459 0.2149367459
0.2159303186 0.2159303186 0.2159303186
0.2169205594 0.2169205594 0.2169205594
0.2179074906 0.2179074906 0.2179074906
0.2188911344 0.2188911344 0.2188911344
0.2198715124 0.2198715124 0.2198715124
0.2208486464 0.2208486464 0.2208486464
0.2218225578 0.2218225578 0.2218225578
0.2227932676 0.2227932676 0.2227932676
0.2237607969 0.2237607969 0.2237607969
0.2247251665 0.2247251665 0.2247251665
0.2256863970 0.2256863970 0.2256863970
0.2266445087 0.2266445087 0.2266445087
0.2275995217 0.2275995217 0.2275995217
0.2285514561 0.2285514561 0.2285514561
0.2295003317 0.2295003317 0.2295003317
0.2304461679 0.2304461679 0.2304461679
0.2313889844 0.2313889844 0.2313889844
0.2323288002 0.2323288002 0.2323288002
0.2332656344 0.2332656344 0.2332656344
0.2341995059 0.2341995059 0.2341995059
0.2351304334 0.2351304334 0.2351304334
0.2360584353 0.2360584353 0.2360584353
0.2369835299 0.2369835299 0.2369835299
0.2379057356 0.2379057356 0.2379057356
0.2388250701 0.2388250701 0.2388250701
0.2397415514 0.2397415514 0.2397415514
0.2406551971 0.2406551971 0.2406551971
0.2415660248 0.2415660248 0.2415660248
0.2424740516 0.2424740516 0.2424740516
0.2433792948 0.2433792948 0.2433792948
0.2442817715 0.2442817715 0.2442817715
0.2451814985 0.2451814985 0.2451814985
0.2460784924 0.2460784924 0.2460784924
0.2469727698 0.2469727698 0.2469727698
0.2478643472 0.2478643472 0.2478643472
0.2487532408 0.2487532408 0.2487532408
0.2496394667 0.2496394667 0.2496394667
0.2505230409 0.2505230409 0.2505230409
0.2514039792 0.2514039792 0.2514039792
0.2522822972 0.2522822972 0.2522822972
0.2531580105 0.2531580105 0.2531580105
0.2540311346 0.2540311346 0.2540311346
0.2549016846 0.2549016846 0.2549016846
0.2557696757 0.2557696757 0.2557696757
0.2566351230 0.2566351230 0.2566351230
0.2574980412 0.2574980412 0.2574980412
0.2583584451 0.2583584451 0.2583584451
0.2592163494 0.2592163494 0.2592163494
0.2600717685 0.2600717685 0.2600717685
0.2609247167 0.2609247167 0.2609247167
0.2617752084 0.2617752084 0.2617752084
0.2626232575 0.2626232575 0.2626232575
0.2634688781 0.2634688781 0.2634688781
0.2643120841 0.2643120841 0.2643120841
0.2651528893 0.2651528893 0.2651528893
0.2659913071 0.2659913071 0.2659913071
0.2668273513 0.2668273513 0.2668273513
0.2676610351 0.2676610351 0.2676610351
0.2684923718 0.2684923718 0.2684923718
0.2693213747 0.2693213747 0.2693213747
0.2701480568 0.2701480568 0.2701480568
0.2709724311 0.2709724311 0.2709724311
0.2717945104 0.2717945104 0.2717945104
0.2726143074 0.2726143074 0.2726143074
0.2734318349 0.2734318349 0.2734318349
0.2742471052 0.2742471052 0.2742471052
0.2750601309 0.2750601309 0.2750601309
0.2758709243 0.2758709243 0.2758709243
0.2766794976 0.2766794976 0.2766794976
0.2774858629 0.2774858629 0.2774858629
0.2782900323 0.2782900323 0.2782900323
0.2790920176 0.2790920176 0.2790920176
0.2798918308 0.2798918308 0.2798918308
0.2806894835 0.2806894835 0.2806894835
0.2814849874 0.2814849874 0.2814849874
0.2822783540 0.2822783540 0.2822783540
0.2830695949 0.2830695949 0.2830695949
0.2838587212 0.2838587212 0.2838587212
0.2846457444 0.2846457444 0.2846457444
0.2854306756 0.2854306756 0.2854306756
0.2862135259 0.2862135259 0.2862135259
0.2869943063 0.2869943063 0.2869943063
0.2877730277 0.2877730277 0.2877730277
0.2885497010 0.2885497010 0.2885497010
0.2893243368 0.2893243368 0.2893243368
0.2900969459 0.2900969459 0.2900969459
0.2908675388 0.2908675388 0.2908675388
0.2916361261 0.2916361261 0.2916361261
0.2924027180 0.2924027180 0.2924027180
0.2931673251 0.2931673251 0.2931673251
0.2939299575 0.2939299575 0.2939299575
0.2946906254 0.2946906254 0.2946906254
0.2954493388 0.2954493388 0.2954493388
0.2962061079 0.2962061079 0.2962061079
0.2969609426 0.2969609426 0.2969609426
0.2977138526 0.2977138526 0.2977138526
0.2984648479 0.2984648479 0.2984648479
0.2992139380 0.2992139380 0.2992139380
0.2999611328 0.2999611328 0.2999611328
0.3007064416 0.3007064416 0.3007064416
0.3014498741 0.3014498741 0.3014498741
0.3021914397 0.3021914397 0.3021914397
0.3029311476 0.3029311476 0.3029311476
0.3036690072 0.3036690072 0.3036690072
0.3044050277 0.3044050277 0.3044050277
0.3051392183 0.3051392183 0.3051392183
0.3058715880 0.3058715880 0.3058715880
0.3066021458 0.3066021458 0.3066021458
0.3073309006 0.3073309006 0.3073309006
0.3080578615 0.3080578615 0.3080578615
0.3087830371 0.3087830371 0.3087830371
0.3095064362 0.3095064362 0.3095064362
0.3102280674 0.3102280674 0.3102280674
0.3109479395 0.3109479395 0.3109479395
0.3116660610 0.3116660610 0.3116660610
0.3123824403 0.3123824403 0.3123824403
0.3130970859 0.3130970859 0.3130970859
0.3138100062 0.3138100062 0.3138100062
0.3145212095 0.3145212095 0.3145212095
0.3152307040 0.3152307040 0.3152307040
0.3159384978 0.3159384978 0.3159384978
0.3166445993 0.3166445993 0.3166445993
0.3173490164 0.3173490164 0.3173490164
0.3180517571 0.3180517571 0.3180517571
0.3187528294 0.3187528294 0.3187528294
0.3194522412 0.3194522412 0.3194522412
0.3201500003 0.3201500003 0.3201500003
0.3208461147 0.3208461147 0.3208461147
0.3215405918 0.3215405918 0.3215405918
0.3222334396 0.3222334396 0.3222334396
0.3229246655 0.3229246655 0.3229246655
0.3236142772 0.3236142772 0.3236142772
0.3243022822 0.3243022822 0.3243022822
0.3249886879 0.3249886879 0.3249886879
0.3256735019 0.3256735019 0.3256735019
0.3263567313 0.3263567313 0.3263567313
0.3270383836 0.3270383836 0.3270383836
0.3277184661 0.3277184661 0.3277184661
0.3283969858 0.3283969858 0.3283969858
0.3290739501 0.3290739501 0.3290739501
0.3297493660 0.3297493660 0.3297493660
0.3304232405 0.3304232405 0.3304232405
0.3310955808 0.3310955808 0.3310955808
0.3317663937 0.3317663937 0.3317663937
0.3324356862 0.3324356862 0.3324356862
0.3331034652 0.3331034652 0.3331034652
0.3337697375 0.3337697375 0.3337697375
0.3344345099 0.3344345099 0.3344345099
0.3350977891 0.3350977891 0.3350977891
0.3357595818 0.3357595818 0.3357595818
0.3364198947 0.3364198947 0.3364198947
0.3370787344 0.3370787344 0.3370787344
0.3377361073 0.3377361073 0.3377361073
0.3383920201 0.3383920201 0.3383920201
0.3390464793 0.3390464793 0.3390464793
0.3396994911 0.3396994911 0.3396994911
0.3403510621 0.3403510621 0.3403510621
0.3410011986 0.3410011986 0.3410011986
0.3416499069 0.3416499069 0.3416499069
0.3422971932 0.3422971932 0.3422971932
0.3429430637 0.3429430637 0.3429430637
0.3435875247 0.3435875247 0.3435875247
0.3442305822 0.3442305822 0.3442305822
0.3448722425 0.3448722425 0.3448722425
0.3455125115 0.3455125115 0.3455125115
0.3461513952 0.3461513952 0.3461513952
0.3467888996 0.3467888996 0.3467888996
0.3474250308 0.3474250308 0.3474250308
0.3480597945 0.3480597945 0.3480597945
0.3486931967 0.3486931967 0.3486931967
0.3493252431 0.3493252431 0.3493252431
0.3499559397 0.3499559397 0.3499559397
0.3505852920 0.3505852920 0.3505852920
0.3512133059 0.3512133059 0.3512133059
0.3518399870 0.3518399870 0.3518399870
0.3524653410 0.3524653410 0.3524653410
0.3530893734 0.3530893734 0.3530893734
0.3537120899 0.3537120899 0.3537120899
0.3543334960 0.3543334960 0.3543334960
0.3549535972 0.3549535972 0.3549535972
0.3555723989 0.3555723989 0.3555723989
0.3561899067 0.3561899067 0.3561899067
0.3568061258 0.3568061258 0.3568061258
0.3574210617 0.3574210617 0.3574210617
0.3580347197 0.3580347197 0.3580347197
0.3586471051 0.3586471051 0.3586471051
0.3592582231 0.3592582231 0.3592582231
0.3598680791 0.3598680791 0.3598680791
0.3604766781 0.3604766781 0.3604766781
0.3610840254 0.3610840254 0.3610840254
0.3616901261 0.3616901261 0.3616901261
0.3622949854 0.3622949854 0.3622949854
0.3628986082 0.3628986082 0.3628986082
0.3635009997 0.3635009997 0.3635009997
0.3641021648 0.3641021648 0.3641021648
0.3647021085 0.3647021085 0.3647021085
0.3653008359 0.3653008359 0.3653008359
0.3658983517 0.3658983517 0.3658983517
0.3664946609 0.3664946609 0.3664946609
0.3670897685 0.3670897685 0.3670897685
0.3676836791 0.3676836791 0.3676836791
0.3682763976 0.3682763976 0.3682763976
0.3688679287 0.3688679287 0.3688679287
0.3694582774 0.3694582774 0.3694582774
0.3700474481 0.3700474481 0.3700474481
0.3706354457 0.3706354457 0.3706354457
0.3712222748 0.3712222748 0.3712222748
0.3718079400 0.3718079400 0.3718079400
0.3723924460 0.3723924460 0.3723924460
0.3729757973 0.3729757973 0.3729757973
0.3735579984 0.3735579984 0.3735579984
0.3741390540 0.3741390540 0.3741390540
0.3747189685 0.3747189685 0.3747189685
0.3752977463 0.3752977463 0.3752977463
0.3758753919 0.3758753919 0.3758753919
0.3764519098 0.3764519098 0.3764519098
0.3770273044 0.3770273044 0.3770273044
0.3776015799 0.3776015799 0.3776015799
0.3781747408 0.3781747408 0.3781747408
0.3787467913 0.3787467913 0.3787467913
0.3793177358 0.3793177358 0.3793177358
0.3798875786 0.3798875786 0.3798875786
0.3804563238 0.3804563238 0.3804563238
0.3810239757 0.3810239757 0.3810239757
0.3815905385 0.3815905385 0.3815905385
0.3821560164 0.3821560164 0.3821560164
0.3827204134 0.3827204134 0.3827204134
0.3832837338 0.3832837338 0.3832837338
0.3838459817 0.3838459817 0.3838459817
0.3844071610 0.3844071610 0.3844071610
0.3849672759 0.3849672759 0.3849672759
0.3855263304 0.3855263304 0.3855263304
0.3860843285 0.3860843285 0.3860843285
0.3866412741 0.3866412741 0.3866412741
0.3871971713 0.3871971713 0.3871971713
0.3877520240 0.3877520240 0.3877520240
0.3883058361 0.3883058361 0.3883058361
0.3888586116 0.3888586116 0.3888586116
0.3894103541 0.3894103541 0.3894103541
0.3899610677 0.3899610677 0.3899610677
0.3905107562 0.3905107562 0.3905107562
0.3910594233 0.3910594233 0.3910594233
0.3916070729 0.3916070729 0.3916070729
0.3921537087 0.3921537087 0.3921537087
0.3926993345 0.3926993345 0.3926993345
0.3932439539 0.3932439539 0.3932439539
0.3937875708 0.3937875708 0.3937875708
0.3943301888 0.3943301888 0.3943301888
0.3948718115 0.3948718115 0.3948718115
0.3954124425 0.3954124425 0.3954124425
0.3959520856 0.3959520856 0.3959520856
0.3964907444 0.3964907444 0.3964907444
0.3970284223 0.3970284223 0.3970284223
0.3975651230 0.3975651230 0.3975651230
0.3981008500 0.3981008500 0.3981008500
0.3986356069 0.3986356069 0.3986356069
0.3991693971 0.3991693971 0.3991693971
0.3997022241 0.3997022241 0.3997022241
0.4002340915 0.4002340915 0.4002340915
0.4007650026 0.4007650026 0.4007650026
0.4012949609 0.4012949609 0.4012949609
0.4018239698 0.4018239698 0.4018239698
0.4023520328 0.4023520328 0.4023520328
0.4028791531 0.4028791531 0.4028791531
0.4034053341 0.4034053341 0.4034053341
0.4039305792 0.4039305792 0.4039305792
0.4044548917 0.4044548917 0.4044548917
0.4049782749 0.4049782749 0.4049782749
0.4055007322 0.4055007322 0.4055007322
0.4060222666 0.4060222666 0.4060222666
0.4065428816 0.4065428816 0.4065428816
0.4070625804 0.4070625804 0.4070625804
0.4075813661 0.4075813661 0.4075813661
0.4080992421 0.4080992421 0.4080992421
0.4086162114 0.4086162114 0.4086162114
0.4091322772 0.4091322772 0.4091322772
0.4096474427 0.4096474427 0.4096474427
0.4101617110 0.4101617110 0.4101617110
0.4106750853 0.4106750853 0.4106750853
0.4111875686 0.4111875686 0.4111875686
0.4116991640 0.4116991640 0.4116991640
0.4122098747 0.4122098747 0.4122098747
0.4127197036 0.4127197036 0.4127197036
0.4132286538 0.4132286538 0.4132286538
0.4137367283 0.4137367283 0.4137367283
0.4142439302 0.4142439302 0.4142439302
0.4147502623 0.4147502623 0.4147502623
0.4152557278 0.4152557278 0.4152557278
0.4157603296 0.4157603296 0.4157603296
0.4162640705 0.4162640705 0.4162640705
0.4167669536 0.4167669536 0.4167669536
0.4172689817 0.4172689817 0.4172689817
0.4177701578 0.4177701578 0.4177701578
0.4182704848 0.4182704848 0.4182704848
0.4187699655 0.4187699655 0.4187699655
0.4192686027 0.4192686027 0.4192686027
0.4197663994 0.4197663994 0.4197663994
0.4202633583 0.4202633583 0.4202633583
0.4207594823 0.4207594823 0.4207594823
0.4212547741 0.4212547741 0.4212547741
0.4217492366 0.4217492366 0.4217492366
0.4222428725 0.4222428725 0.4222428725
0.4227356846 0.4227356846 0.4227356846
0.4232276757 0.4232276757 0.4232276757
0.4237188484 0.4237188484 0.4237188484
0.4242092054 0.4242092054 0.4242092054
0.4246987496 0.4246987496 0.4246987496
0.4251874835 0.4251874835 0.4251874835
0.4256754099 0.4256754099 0.4256754099
0.4261625314 0.4261625314 0.4261625314
0.4266488507 0.4266488507 0.4266488507
0.4271343703 0.4271343703 0.4271343703
0.4276190930 0.4276190930 0.4276190930
0.4281030214 0.4281030214 0.4281030214
0.4285861580 0.4285861580 0.4285861580
0.4290685054 0.4290685054 0.4290685054
0.4295500662 0.4295500662 0.4295500662
0.4300308429 0.4300308429 0.4300308429
0.4305108382 0.4305108382 0.4305108382
0.4309900546 0.4309900546 0.4309900546
0.4314684945 0.4314684945 0.4314684945
0.4319461605 0.4319461605 0.4319461605
0.4324230550 0.4324230550 0.4324230550
0.4328991807 0.4328991807 0.4328991807
0.4333745399 0.4333745399 0.4333745399
0.4338491351 0.4338491351 0.4338491351
0.4343229687 0.4343229687 0.4343229687
0.4347960433 0.4347960433 0.4347960433
0.4352683612 0.4352683612 0.4352683612
0.4357399248 0.4357399248 0.4357399248
0.4362107366 0.4362107366 0.4362107366
0.4366807990 0.4366807990 0.4366807990
0.4371501143 0.4371501143 0.4371501143
0.4376186848 0.4376186848 0.4376186848
0.4380865131 0.4380865131 0.4380865131
0.4385536013 0.4385536013 0.4385536013
0.4390199519 0.4390199519 0.4390199519
0.4394855671 0.4394855671 0.4394855671
0.4399504494 0.4399504494 0.4399504494
0.4404146009 0.4404146009 0.4404146009
0.4408780240 0.4408780240 0.4408780240
0.4413407210 0.4413407210 0.4413407210
0.4418026941 0.4418026941 0.4418026941
0.4422639456 0.4422639456 0.4422639456
0.4427244778 0.4427244778 0.4427244778
0.4431842929 0.4431842929 0.4431842929
0.4436433930 0.4436433930 0.4436433930
0.4441017806 0.4441017806 0.4441017806
0.4445594576 0.4445594576 0.4445594576
0.4450164264 0.4450164264 0.4450164264
0.4454726892 0.4454726892 0.4454726892
0.4459282481 0.4459282481 0.4459282481
0.4463831052 0.4463831052 0.4463831052
0.4468372628 0.4468372628 0.4468372628
0.4472907230 0.4472907230 0.4472907230
0.4477434879 0.4477434879 0.4477434879
0.4481955597 0.4481955597 0.4481955597
0.4486469405 0.4486469405 0.4486469405
0.4490976323 0.4490976323 0.4490976323
0.4495476373 0.4495476373 0.4495476373
0.4499969576 0.4499969576 0.4499969576
0.4504455953 0.4504455953 0.4504455953
0.4508935524 0.4508935524 0.4508935524
0.4513408309 0.4513408309 0.4513408309
0.4517874330 0.4517874330 0.4517874330
0.4522333608 0.4522333608 0.4522333608
0.4526786161 0.4526786161 0.4526786161
0.4531232010 0.4531232010 0.4531232010
0.4535671177 0.4535671177 0.4535671177
0.4540103679 0.4540103679 0.4540103679
0.4544529539 0.4544529539 0.4544529539
0.4548948775 0.4548948775 0.4548948775
0.4553361407 0.4553361407 0.4553361407
0.4557767456 0.4557767456 0.4557767456
0.4562166940 0.4562166940 0.4562166940
0.4566559879 0.4566559879 0.4566559879
0.4570946292 0.4570946292 0.4570946292
0.4575326200 0.4575326200 0.4575326200
0.4579699621 0.4579699621 0.4579699621
0.4584066574 0.4584066574 0.4584066574
0.4588427079 0.4588427079 0.4588427079
0.4592781155 0.4592781155 0.4592781155
0.4597128819 0.4597128819 0.4597128819
0.4601470093 0.4601470093 0.4601470093
0.4605804993 0.4605804993 0.4605804993
0.4610133539 0.4610133539 0.4610133539
0.4614455749 0.4614455749 0.4614455749
0.4618771643 0.4618771643 0.4618771643
0.4623081237 0.4623081237 0.4623081237
0.4627384551 0.4627384551 0.4627384551
0.4631681604 0.4631681604 0.4631681604
0.4635972412 0.4635972412 0.4635972412
0.4640256995 0.4640256995 0.4640256995
0.4644535370 0.4644535370 0.4644535370
0.4648807555 0.4648807555 0.4648807555
0.4653073569 0.4653073569 0.4653073569
0.4657333428 0.4657333428 0.4657333428
0.4661587151 0.4661587151 0.4661587151
0.4665834756 0.4665834756 0.4665834756
0.4670076259 0.4670076259 0.4670076259
0.4674311679 0.4674311679 0.4674311679
0.4678541033 0.4678541033 0.4678541033
0.4682764337 0.4682764337 0.4682764337
0.4686981611 0.4686981611 0.4686981611
0.4691192870 0.4691192870 0.4691192870
0.4695398132 0.4695398132 0.4695398132
0.4699597414 0.4699597414 0.4699597414
0.4703790732 0.4703790732 0.4703790732
0.4707978105 0.4707978105 0.4707978105
0.4712159548 0.4712159548 0.4712159548
0.4716335078 0.4716335078 0.4716335078
0.4720504713 0.4720504713 0.4720504713
0.4724668468 0.4724668468 0.4724668468
0.4728826360 0.4728826360 0.4728826360
0.4732978407 0.4732978407 0.4732978407
0.4737124623 0.4737124623 0.4737124623
0.4741265026 0.4741265026 0.4741265026
0.4745399632 0.4745399632 0.4745399632
0.4749528456 0.4749528456 0.4749528456
0.4753651516 0.4753651516 0.4753651516
0.4757768827 0.4757768827 0.4757768827
0.4761880406 0.4761880406 0.4761880406
0.4765986267 0.4765986267 0.4765986267
0.4770086428 0.4770086428 0.4770086428
0.4774180903 0.4774180903 0.4774180903
0.4778269709 0.4778269709 0.4778269709
0.4782352861 0.4782352861 0.4782352861
0.4786430375 0.4786430375 0.4786430375
0.4790502267 0.4790502267 0.4790502267
0.4794568552 0.4794568552 0.4794568552
0.4798629244 0.4798629244 0.4798629244
0.4802684361 0.4802684361 0.4802684361
0.4806733917 0.4806733917 0.4806733917
0.4810777926 0.4810777926 0.4810777926
0.4814816406 0.4814816406 0.4814816406
0.4818849369 0.4818849369 0.4818849369
0.4822876833 0.4822876833 0.4822876833
0.4826898811 0.4826898811 0.4826898811
0.4830915318 0.4830915318 0.4830915318
0.4834926370 0.4834926370 0.4834926370
0.4838931980 0.4838931980 0.4838931980
0.4842932165 0.4842932165 0.4842932165
0.4846926938 0.4846926938 0.4846926938
0.4850916314 0.4850916314 0.4850916314
0.4854900308 0.4854900308 0.4854900308
0.4858878935 0.4858878935 0.4858878935
0.4862852208 0.4862852208 0.4862852208
0.4866820142 0.4866820142 0.4866820142
0.4870782751 0.4870782751 0.4870782751
0.4874740050 0.4874740050 0.4874740050
0.4878692053 0.4878692053 0.4878692053
0.4882638774 0.4882638774 0.4882638774
0.4886580227 0.4886580227 0.4886580227
0.4890516426 0.4890516426 0.4890516426
0.4894447386 0.4894447386 0.4894447386
